;FLAVOR:Marlin
;TIME:2110
;Filament used: 1.64113m
;Layer height: 0.2
;MINX:90.5
;MINY:13.511
;MINZ:0.2
;MAXX:144.503
;MAXY:35.511
;MAXZ:20.4
;TARGET_MACHINE.NAME:Creality Ender-3
;Generated with Cura_SteamEngine 5.6.0
M140 S55
M105
M190 S55
M104 S218
M105
M109 S218
M82 ;absolute extrusion mode
; Ender 3 Custom Start G-code
G92 E0 ; Reset Extruder
G28 ; Home all axes
G1 Z2.0 F3000 ; Move Z Axis up little to prevent scratching of Heat Bed
G1 X0.1 Y20 Z0.3 F5000.0 ; Move to start position
G1 X0.1 Y200.0 Z0.3 F1500.0 E15 ; Draw the first line
G1 X0.4 Y200.0 Z0.3 F5000.0 ; Move to side a little
G1 X0.4 Y20 Z0.3 F1500.0 E30 ; Draw the second line
G92 E0 ; Reset Extruder
G1 Z2.0 F3000 ; Move Z Axis up little to prevent scratching of Heat Bed
G1 X5 Y20 Z0.3 F5000.0 ; Move over to prevent blob squish
G92 E0
G92 E0
G1 F2700 E-5
;LAYER_COUNT:100
;LAYER:0
M106 S76.5
G1 F300 Z0.6
G0 F4800 X90.901 Y22.085 Z0.6
;TYPE:SKIRT
G1 F300 Z0.2
G1 F2700 E0
G1 F2100 X91.865 Y20.224 E0.06971
G1 X93.261 Y18.92 E0.13325
G1 X95.081 Y17.834 E0.20374
G1 X96.651 Y17.576 E0.25666
G1 X111.193 Y17.519 E0.74033
G1 X111.865 Y16.224 E0.78885
G1 X113.261 Y14.92 E0.85239
G1 X115.081 Y13.834 E0.92288
G1 X116.651 Y13.576 E0.9758
G1 X138.26 Y13.511 E1.69452
G1 X139.964 Y13.93 E1.75288
G1 X141.787 Y14.876 E1.8212
G1 X143.102 Y16.283 E1.88525
G1 X144.001 Y17.813 E1.94427
G1 X144.228 Y18.395 E1.96505
G1 X144.464 Y19.994 E2.01881
G1 X144.503 Y23.265 E2.12761
G1 X144.415 Y23.627 E2.14
G1 X144.462 Y23.983 E2.15194
G1 X144.5 Y29.298 E2.32873
G1 X144.099 Y30.937 E2.38485
G1 X143.135 Y32.798 E2.45456
G1 X141.739 Y34.102 E2.51809
G1 X139.919 Y35.188 E2.58858
G1 X138.349 Y35.446 E2.6415
G1 X96.74 Y35.511 E4.02543
G1 X95.036 Y35.092 E4.08379
G1 X93.213 Y34.146 E4.1521
G1 X91.897 Y32.738 E4.2162
G1 X90.979 Y31.197 E4.27586
G1 X90.796 Y30.762 E4.29156
G1 X90.539 Y29.044 E4.34933
G1 X90.5 Y23.724 E4.52628
G1 X90.901 Y22.085 E4.5824
G0 F4800 X91.279 Y22.224
G1 F2100 X92.188 Y20.469 E4.64814
G1 X93.503 Y19.241 E4.70798
G1 X95.219 Y18.217 E4.77445
G1 X96.716 Y17.971 E4.8249
G1 X111.436 Y17.918 E5.3145
G1 X112.188 Y16.469 E5.36879
G1 X113.503 Y15.241 E5.42864
G1 X115.219 Y14.217 E5.4951
G1 X116.716 Y13.971 E5.54556
G1 X138.214 Y13.911 E6.26059
G1 X139.821 Y14.306 E6.31563
G1 X141.542 Y15.199 E6.38012
G1 X142.781 Y16.525 E6.44048
G1 X143.628 Y17.959 E6.49587
G1 X143.839 Y18.499 E6.51515
G1 X144.064 Y19.999 E6.5656
G1 X144.102 Y23.22 E6.67274
G1 X144.009 Y23.607 E6.68598
G1 X144.065 Y24.035 E6.70033
G1 X144.1 Y29.249 E6.87376
G1 X143.721 Y30.798 E6.9268
G1 X142.812 Y32.553 E6.99253
G1 X141.497 Y33.781 E7.05237
G1 X139.781 Y34.805 E7.11884
G1 X138.284 Y35.051 E7.1693
G1 X96.786 Y35.111 E8.54953
G1 X95.179 Y34.716 E8.60457
G1 X93.458 Y33.823 E8.66905
G1 X92.221 Y32.499 E8.72932
G1 X91.323 Y30.992 E8.78767
G1 X91.185 Y30.655 E8.79978
G1 X90.935 Y28.985 E8.85594
G1 X90.9 Y23.773 E9.0293
G1 X91.279 Y22.224 E9.08234
G0 F4800 X91.657 Y22.363
G1 F2100 X92.511 Y20.714 E9.1441
G1 X93.745 Y19.562 E9.20025
G1 X95.357 Y18.6 E9.26269
G1 X96.781 Y18.366 E9.31069
G1 X111.679 Y18.317 E9.8062
G1 X112.511 Y16.714 E9.86627
G1 X113.745 Y15.562 E9.92242
G1 X115.357 Y14.6 E9.98485
G1 X116.781 Y14.366 E10.03285
G1 X138.168 Y14.311 E10.74419
G1 X139.678 Y14.682 E10.7959
G1 X141.297 Y15.522 E10.85657
G1 X142.458 Y16.765 E10.91314
G1 X143.255 Y18.105 E10.965
G1 X143.45 Y18.604 E10.98281
G1 X143.668 Y20.058 E11.03171
G1 X143.701 Y23.175 E11.13539
G1 X143.602 Y23.587 E11.14949
G1 X143.665 Y24.038 E11.16463
G1 X143.7 Y29.2 E11.33632
G1 X143.343 Y30.659 E11.38628
G1 X142.489 Y32.308 E11.44805
G1 X141.255 Y33.46 E11.5042
G1 X139.643 Y34.422 E11.56663
G1 X138.219 Y34.656 E11.61463
G1 X96.832 Y34.711 E12.99117
G1 X95.322 Y34.34 E13.04288
G1 X93.703 Y33.5 E13.10355
G1 X92.545 Y32.26 E13.15998
G1 X91.667 Y30.787 E13.21701
G1 X91.572 Y30.544 E13.22569
G1 X91.335 Y28.982 E13.27824
G1 X91.3 Y23.822 E13.44987
G1 X91.657 Y22.363 E13.49982
G0 F4800 X92.035 Y22.502
G1 F2100 X92.834 Y20.959 E13.55762
G1 X93.987 Y19.883 E13.61007
G1 X95.495 Y18.983 E13.66848
G1 X96.846 Y18.761 E13.71402
G1 X111.989 Y18.716 E14.21768
G1 X112.069 Y18.434 E14.22743
G1 X112.834 Y16.959 E14.28269
G1 X113.987 Y15.883 E14.33515
G1 X115.495 Y14.983 E14.39356
G1 X116.846 Y14.761 E14.43909
G1 X138.121 Y14.711 E15.1467
G1 X139.536 Y15.059 E15.19517
G1 X141.052 Y15.845 E15.25197
G1 X142.134 Y17.004 E15.3047
G1 X142.911 Y18.31 E15.35525
G1 X143.06 Y18.705 E15.36929
G1 X143.272 Y20.117 E15.41678
G1 X143.3 Y23.13 E15.51699
G1 X143.195 Y23.571 E15.53207
G1 X143.265 Y24.041 E15.54788
G1 X143.3 Y29.151 E15.71784
G1 X142.965 Y30.52 E15.76472
G1 X142.166 Y32.063 E15.82251
G1 X141.013 Y33.139 E15.87496
G1 X139.505 Y34.039 E15.93337
G1 X138.154 Y34.261 E15.97891
G1 X96.879 Y34.311 E17.35172
G1 X95.464 Y33.963 E17.40019
G1 X93.948 Y33.177 E17.45699
G1 X92.869 Y32.021 E17.50958
G1 X92.011 Y30.582 E17.5653
G1 X91.96 Y30.439 E17.57035
G1 X91.735 Y28.979 E17.61949
G1 X91.7 Y23.871 E17.78938
G1 X92.035 Y22.502 E17.83626
G0 F4800 X92.413 Y22.641
G1 F2100 X93.157 Y21.204 E17.89008
G1 X94.229 Y20.204 E17.93884
G1 X95.633 Y19.366 E17.99322
G1 X96.911 Y19.156 E18.0363
G1 X112.302 Y19.115 E18.54821
G1 X112.424 Y18.618 E18.56523
G1 X113.157 Y17.204 E18.6182
G1 X114.229 Y16.204 E18.66696
G1 X115.633 Y15.366 E18.72134
G1 X116.911 Y15.156 E18.76442
G1 X138.075 Y15.111 E19.46834
G1 X139.393 Y15.435 E19.51348
G1 X140.807 Y16.168 E19.56646
G1 X141.81 Y17.243 E19.61536
G1 X142.567 Y18.515 E19.66459
G1 X142.67 Y18.805 E19.67482
G1 X142.876 Y20.176 E19.72094
G1 X142.9 Y23.085 E19.81769
G1 X142.788 Y23.555 E19.83376
G1 X142.865 Y24.044 E19.85023
G1 X142.9 Y29.102 E20.01846
G1 X142.587 Y30.381 E20.06226
G1 X141.843 Y31.818 E20.11608
G1 X140.771 Y32.818 E20.16484
G1 X139.367 Y33.656 E20.21922
G1 X138.089 Y33.866 E20.2623
G1 X96.925 Y33.911 E21.63142
G1 X95.607 Y33.587 E21.67656
G1 X94.193 Y32.854 E21.72953
G1 X93.193 Y31.782 E21.77829
G1 X92.355 Y30.377 E21.8327
G1 X92.135 Y28.976 E21.87987
G1 X92.1 Y23.92 E22.04804
G1 X92.413 Y22.641 E22.09183
G0 F4800 X92.791 Y22.78
G1 F2100 X93.479 Y21.451 E22.14161
G1 X94.474 Y20.523 E22.18686
G1 X95.771 Y19.749 E22.2371
G1 X96.976 Y19.551 E22.27771
G1 X112.615 Y19.514 E22.79787
G1 X112.8 Y18.761 E22.82366
G1 X113.479 Y17.451 E22.87274
G1 X114.474 Y16.523 E22.91799
G1 X115.771 Y15.749 E22.96822
G1 X116.976 Y15.551 E23.00884
G1 X138.029 Y15.511 E23.70907
G1 X139.25 Y15.811 E23.75089
G1 X140.56 Y16.49 E23.79996
G1 X141.488 Y17.485 E23.84522
G1 X142.223 Y18.72 E23.89302
G1 X142.274 Y18.864 E23.8981
G1 X142.48 Y20.235 E23.94421
G1 X142.5 Y23.04 E24.03751
G1 X142.38 Y23.54 E24.05461
G1 X142.465 Y24.047 E24.07171
G1 X142.5 Y29.053 E24.23821
G1 X142.209 Y30.242 E24.27892
G1 X141.521 Y31.571 E24.3287
G1 X140.526 Y32.499 E24.37395
G1 X139.229 Y33.273 E24.42419
G1 X138.024 Y33.471 E24.4648
G1 X96.971 Y33.511 E25.83023
G1 X95.75 Y33.211 E25.87205
G1 X94.44 Y32.532 E25.92113
G1 X93.512 Y31.537 E25.96638
G1 X92.738 Y30.24 E26.01662
G1 X92.535 Y28.973 E26.05929
G1 X92.5 Y23.969 E26.22573
G1 X92.791 Y22.78 E26.26645
G0 F4800 X93.169 Y22.919
G1 F2100 X93.801 Y21.698 E26.31217
G1 X94.716 Y20.845 E26.35378
G1 X95.911 Y20.132 E26.40006
G1 X97.041 Y19.946 E26.43815
G1 X112.928 Y19.913 E26.96656
G1 X113.176 Y18.904 E27.00112
G1 X113.801 Y17.698 E27.04629
G1 X114.716 Y16.845 E27.0879
G1 X115.911 Y16.132 E27.13418
G1 X117.041 Y15.946 E27.17227
G1 X137.983 Y15.911 E27.86881
G1 X139.107 Y16.187 E27.9073
G1 X140.313 Y16.812 E27.95248
G1 X141.166 Y17.727 E27.99409
G1 X141.879 Y18.925 E28.04046
G1 X142.08 Y20.238 E28.08463
G1 X142.1 Y22.994 E28.1763
G1 X141.972 Y23.527 E28.19453
G1 X142.07 Y24.113 E28.2143
G1 X142.1 Y29.004 E28.37697
G1 X141.831 Y30.103 E28.41461
G1 X141.199 Y31.324 E28.46033
G1 X140.284 Y32.177 E28.50194
G1 X139.089 Y32.89 E28.54822
G1 X137.959 Y33.076 E28.58631
G1 X97.017 Y33.111 E29.94805
G1 X95.893 Y32.835 E29.98654
G1 X94.687 Y32.21 E30.03172
G1 X93.834 Y31.295 E30.07333
G1 X93.121 Y30.1 E30.11961
G1 X92.935 Y28.97 E30.1577
G1 X92.9 Y24.018 E30.32241
G1 X93.169 Y22.919 E30.36004
G0 F4800 X93.547 Y23.058
G1 F2100 X94.123 Y21.945 E30.40172
G1 X94.958 Y21.167 E30.43968
G1 X96.051 Y20.515 E30.48201
G1 X97.106 Y20.341 E30.51758
G1 X113.3 Y20.312 E31.05619
G1 X113.312 Y20.026 E31.06571
G1 X113.553 Y19.046 E31.09928
G1 X114.123 Y17.945 E31.14051
G1 X114.958 Y17.167 E31.17847
G1 X116.051 Y16.515 E31.2208
G1 X117.106 Y16.341 E31.25637
G1 X137.936 Y16.311 E31.94918
G1 X138.965 Y16.564 E31.98442
G1 X140.066 Y17.134 E32.02566
G1 X140.844 Y17.969 E32.06362
G1 X141.496 Y19.064 E32.106
G1 X141.68 Y20.241 E32.14562
G1 X141.7 Y22.948 E32.23566
G1 X141.564 Y23.514 E32.25502
G1 X141.675 Y24.179 E32.27745
G1 X141.7 Y28.955 E32.4363
G1 X141.453 Y29.964 E32.47085
G1 X140.877 Y31.077 E32.51253
G1 X140.042 Y31.855 E32.55049
G1 X138.949 Y32.507 E32.59282
G1 X137.894 Y32.681 E32.62839
G1 X97.064 Y32.711 E33.9864
G1 X96.035 Y32.458 E34.02164
G1 X94.934 Y31.888 E34.06288
G1 X94.156 Y31.053 E34.10084
G1 X93.504 Y29.96 E34.14317
G1 X93.33 Y28.905 E34.17873
G1 X93.3 Y24.067 E34.33964
G1 X93.547 Y23.058 E34.3742
G0 F4800 X93.925 Y23.197
G1 F2100 X94.445 Y22.192 E34.41183
G1 X95.2 Y21.489 E34.44614
G1 X96.191 Y20.898 E34.48452
G1 X97.171 Y20.736 E34.51756
G1 X113.7 Y20.711 E35.06731
G1 X113.7 Y20.121 E35.08694
G1 X113.929 Y19.189 E35.11886
G1 X114.445 Y18.192 E35.1562
G1 X115.2 Y17.489 E35.19051
G1 X116.191 Y16.898 E35.22889
G1 X117.171 Y16.736 E35.26192
G1 X137.89 Y16.711 E35.95104
G1 X138.822 Y16.94 E35.98296
G1 X139.819 Y17.456 E36.0203
G1 X140.522 Y18.211 E36.05461
G1 X141.113 Y19.203 E36.09302
G1 X141.28 Y20.244 E36.12808
G1 X141.3 Y22.901 E36.21646
G1 X141.155 Y23.501 E36.23699
G1 X141.275 Y24.181 E36.25995
G1 X141.3 Y28.906 E36.41711
G1 X141.075 Y29.825 E36.44858
G1 X140.555 Y30.83 E36.48622
G1 X139.8 Y31.533 E36.52053
G1 X138.809 Y32.124 E36.5589
G1 X137.829 Y32.286 E36.59194
G1 X97.11 Y32.311 E37.94626
G1 X96.178 Y32.082 E37.97818
G1 X95.181 Y31.566 E38.01552
G1 X94.478 Y30.811 E38.04983
G1 X93.887 Y29.82 E38.08821
G1 X93.725 Y28.84 E38.12125
G1 X93.7 Y24.116 E38.27837
G1 X93.925 Y23.197 E38.30984
G0 F4800 X94.303 Y23.336
G1 F2100 X94.768 Y22.437 E38.3435
G1 X95.439 Y21.813 E38.37398
G1 X96.331 Y21.281 E38.40852
G1 X97.236 Y21.131 E38.43903
G1 X114.1 Y21.111 E38.99993
G1 X114.1 Y20.167 E39.03133
G1 X114.305 Y19.332 E39.05993
G1 X114.768 Y18.437 E39.09344
G1 X115.439 Y17.813 E39.12392
G1 X116.331 Y17.281 E39.15846
G1 X117.236 Y17.131 E39.18897
G1 X137.844 Y17.111 E39.8744
G1 X138.679 Y17.316 E39.903
G1 X139.574 Y17.779 E39.93651
G1 X140.198 Y18.45 E39.96699
G1 X140.73 Y19.342 E40.00153
G1 X140.88 Y20.247 E40.03204
G1 X140.9 Y22.854 E40.11875
G1 X140.74 Y23.514 E40.14134
G1 X140.778 Y23.636 E40.14559
G1 X140.88 Y24.247 E40.16619
G1 X140.9 Y28.857 E40.31953
G1 X140.697 Y29.686 E40.34791
G1 X140.232 Y30.585 E40.38158
G1 X139.561 Y31.209 E40.41205
G1 X138.669 Y31.741 E40.4466
G1 X137.764 Y31.891 E40.47711
G1 X97.156 Y31.911 E41.82774
G1 X96.321 Y31.706 E41.85633
G1 X95.426 Y31.243 E41.88985
G1 X94.802 Y30.572 E41.92032
G1 X94.27 Y29.68 E41.95487
G1 X94.12 Y28.775 E41.98538
G1 X94.1 Y24.165 E42.13871
G1 X94.303 Y23.336 E42.1671
G0 F4800 X94.681 Y23.475
G1 F2100 X95.091 Y22.682 E42.19679
G1 X95.678 Y22.137 E42.22343
G1 X96.471 Y21.664 E42.25414
G1 X97.302 Y21.526 E42.28216
G1 X114.5 Y21.511 E42.85417
G1 X114.5 Y20.213 E42.89734
G1 X114.681 Y19.475 E42.92261
G1 X115.091 Y18.682 E42.9523
G1 X115.678 Y18.137 E42.97895
G1 X116.471 Y17.664 E43.00966
G1 X117.302 Y17.526 E43.03767
G1 X137.798 Y17.511 E43.71937
G1 X138.536 Y17.692 E43.74465
G1 X139.329 Y18.102 E43.77434
G1 X139.874 Y18.689 E43.80098
G1 X140.347 Y19.482 E43.83169
G1 X140.485 Y20.313 E43.85971
G1 X140.5 Y22.807 E43.94266
G1 X140.323 Y23.535 E43.96758
G1 X140.383 Y23.702 E43.97348
G1 X140.485 Y24.313 E43.99409
G1 X140.5 Y28.808 E44.14359
G1 X140.319 Y29.547 E44.1689
G1 X139.909 Y30.34 E44.19859
G1 X139.322 Y30.885 E44.22523
G1 X138.529 Y31.358 E44.25594
G1 X137.698 Y31.496 E44.28396
G1 X97.202 Y31.511 E45.63086
G1 X96.464 Y31.33 E45.65613
G1 X95.671 Y30.92 E45.68583
G1 X95.126 Y30.333 E45.71247
G1 X94.653 Y29.54 E45.74318
G1 X94.515 Y28.709 E45.7712
G1 X94.5 Y24.214 E45.9207
G1 X94.681 Y23.475 E45.94601
G0 F4800 X95.059 Y23.614
G1 F2100 X95.414 Y22.927 E45.97173
G1 X95.917 Y22.461 E45.99453
G1 X96.611 Y22.047 E46.02141
G1 X97.368 Y21.921 E46.04693
G1 X114.9 Y21.911 E46.63005
G1 X114.9 Y20.263 E46.68486
G1 X115.059 Y19.614 E46.70709
G1 X115.414 Y18.927 E46.73281
G1 X115.917 Y18.461 E46.75561
G1 X116.611 Y18.047 E46.78249
G1 X117.368 Y17.921 E46.80802
G1 X137.748 Y17.911 E47.48586
G1 X138.397 Y18.07 E47.50808
G1 X139.084 Y18.425 E47.5338
G1 X139.55 Y18.928 E47.55661
G1 X139.964 Y19.622 E47.58349
G1 X140.09 Y20.379 E47.60901
G1 X140.1 Y22.758 E47.68814
G1 X139.962 Y23.323 E47.70748
G1 X139.879 Y23.512 E47.71435
G1 X139.988 Y23.768 E47.7236
G1 X140.09 Y24.379 E47.7442
G1 X140.1 Y28.759 E47.88988
G1 X139.941 Y29.408 E47.91211
G1 X139.586 Y30.095 E47.93783
G1 X139.083 Y30.561 E47.96063
G1 X138.389 Y30.975 E47.98751
G1 X137.632 Y31.101 E48.01304
G1 X97.252 Y31.111 E49.35608
G1 X96.603 Y30.952 E49.3783
G1 X95.916 Y30.597 E49.40402
G1 X95.45 Y30.094 E49.42683
G1 X95.036 Y29.4 E49.45371
G1 X94.91 Y28.643 E49.47923
G1 X94.9 Y24.263 E49.62491
G1 X95.059 Y23.614 E49.64714
G0 F4800 X95.437 Y23.753
G1 F2100 X95.737 Y23.173 E49.66886
G1 X96.156 Y22.785 E49.68785
G1 X96.751 Y22.43 E49.71089
G1 X97.434 Y22.316 E49.73392
G1 X115.3 Y22.311 E50.32815
G1 X115.3 Y20.313 E50.3946
G1 X115.437 Y19.753 E50.41378
G1 X115.737 Y19.173 E50.4355
G1 X116.156 Y18.785 E50.45449
G1 X116.751 Y18.43 E50.47753
G1 X117.434 Y18.316 E50.50057
G1 X137.698 Y18.311 E51.17455
G1 X138.258 Y18.448 E51.19372
G1 X138.838 Y18.748 E51.21544
G1 X139.226 Y19.167 E51.23444
G1 X139.581 Y19.762 E51.25748
G1 X139.695 Y20.445 E51.28051
G1 X139.7 Y22.709 E51.35581
G1 X139.573 Y23.228 E51.37358
G1 X139.433 Y23.513 E51.38415
G1 X139.593 Y23.834 E51.39607
G1 X139.695 Y24.445 E51.41668
G1 X139.7 Y28.709 E51.5585
G1 X139.563 Y29.269 E51.57767
G1 X139.263 Y29.849 E51.59939
G1 X138.844 Y30.237 E51.61839
G1 X138.249 Y30.592 E51.64143
G1 X137.566 Y30.706 E51.66446
G1 X97.302 Y30.711 E53.00365
G1 X96.742 Y30.574 E53.02282
G1 X96.162 Y30.274 E53.04454
G1 X95.774 Y29.855 E53.06353
G1 X95.419 Y29.26 E53.08658
G1 X95.305 Y28.577 E53.10961
G1 X95.3 Y24.313 E53.25143
G1 X95.437 Y23.753 E53.27061
G0 F4800 X95.815 Y23.892
G1 F2100 X96.06 Y23.419 E53.28832
G1 X96.398 Y23.106 E53.30365
G1 X96.889 Y22.813 E53.32266
G1 X97.5 Y22.711 E53.34327
G1 X115.7 Y22.711 E53.9486
G1 X115.7 Y20.363 E54.02669
G1 X115.815 Y19.892 E54.04282
G1 X116.06 Y19.419 E54.06054
G1 X116.398 Y19.106 E54.07586
G1 X116.889 Y18.813 E54.09488
G1 X117.5 Y18.711 E54.11548
G1 X137.648 Y18.711 E54.78561
G1 X138.119 Y18.826 E54.80173
G1 X138.592 Y19.071 E54.81945
G1 X138.905 Y19.409 E54.83477
G1 X139.198 Y19.9 E54.85379
G1 X139.3 Y20.511 E54.87439
G1 X139.3 Y22.659 E54.94583
G1 X139.184 Y23.133 E54.96206
G1 X138.974 Y23.524 E54.97683
G1 X139.198 Y23.9 E54.99138
G1 X139.3 Y24.511 E55.01199
G1 X139.3 Y28.659 E55.14995
G1 X139.185 Y29.13 E55.16607
G1 X138.94 Y29.603 E55.18379
G1 X138.602 Y29.916 E55.19911
G1 X138.111 Y30.209 E55.21813
G1 X137.5 Y30.311 E55.23873
G1 X97.352 Y30.311 E56.57406
G1 X96.881 Y30.196 E56.59019
G1 X96.408 Y29.951 E56.6079
G1 X96.095 Y29.613 E56.62323
G1 X95.802 Y29.122 E56.64224
G1 X95.7 Y28.511 E56.66285
G1 X95.7 Y24.363 E56.80081
G1 X95.815 Y23.892 E56.81694
G0 F4800 X96.193 Y24.031
G1 F2100 X96.383 Y23.665 E56.83065
G1 X96.64 Y23.427 E56.8423
G1 X97.027 Y23.196 E56.85729
G1 X97.5 Y23.111 E56.87328
G1 X116.1 Y23.111 E57.49191
G1 X116.1 Y20.413 E57.58165
G1 X116.193 Y20.031 E57.59473
G1 X116.383 Y19.665 E57.60844
G1 X116.64 Y19.427 E57.62009
G1 X117.027 Y19.196 E57.63508
G1 X117.5 Y19.111 E57.65107
G1 X137.598 Y19.111 E58.31953
G1 X137.98 Y19.204 E58.33261
G1 X138.346 Y19.394 E58.34632
G1 X138.584 Y19.651 E58.35797
G1 X138.815 Y20.038 E58.37296
G1 X138.9 Y20.511 E58.38895
G1 X138.9 Y22.609 E58.45873
G1 X138.807 Y22.991 E58.4718
G1 X138.648 Y23.297 E58.48327
G1 X138.461 Y23.511 E58.49272
