;FLAVOR:Marlin
;TIME:4359
;Filament used: 6.95624m
;Layer height: 0.35
;MINX:68.687
;MINY:17.06
;MINZ:0.2
;MAXX:161.747
;MAXY:82.894
;MAXZ:15.3
;TARGET_MACHINE.NAME:Creality Ender-3
;Generated with Cura_SteamEngine 5.6.0
M140 S55
M105
M190 S55
M104 S218
M105
M109 S218
M82 ;absolute extrusion mode
; Ender 3 Custom Start G-code
G92 E0 ; Reset Extruder
G28 ; Home all axes
G1 Z2.0 F3000 ; Move Z Axis up little to prevent scratching of Heat Bed
G1 X0.1 Y20 Z0.3 F5000.0 ; Move to start position
G1 X0.1 Y200.0 Z0.3 F1500.0 E15 ; Draw the first line
G1 X0.4 Y200.0 Z0.3 F5000.0 ; Move to side a little
G1 X0.4 Y20 Z0.3 F1500.0 E30 ; Draw the second line
G92 E0 ; Reset Extruder
G1 Z2.0 F3000 ; Move Z Axis up little to prevent scratching of Heat Bed
G1 X5 Y20 Z0.3 F5000.0 ; Move over to prevent blob squish
G92 E0
G92 E0
G1 F2700 E-5
;LAYER_COUNT:43
;LAYER:0
M106 S25.5
G1 F300 Z0.6
G0 F4800 X70.146 Y22.368 Z0.6
;TYPE:SKIRT
G1 F300 Z0.2
G1 F2700 E0
G1 F2100 X71.092 Y20.545 E0.06831
G1 X72.488 Y19.241 E0.13185
G1 X74.308 Y18.155 E0.20234
G1 X75.878 Y17.897 E0.25526
G1 X112.487 Y17.832 E1.47288
G1 X114.191 Y18.251 E1.53124
G1 X114.959 Y18.649 E1.56001
G1 X115.184 Y18.453 E1.56994
G1 X116.976 Y17.383 E1.63936
G1 X118.546 Y17.125 E1.69228
G1 X155.155 Y17.06 E2.9099
G1 X156.859 Y17.479 E2.96826
G1 X158.682 Y18.425 E3.03657
G1 X159.986 Y19.821 E3.10011
G1 X161.072 Y21.641 E3.1706
G1 X161.33 Y23.211 E3.22352
G1 X161.392 Y38.458 E3.73064
G1 X161.496 Y38.764 E3.74139
G1 X161.682 Y39.893 E3.77945
G1 X161.747 Y76.501 E4.99704
G1 X161.328 Y78.205 E5.0554
G1 X160.382 Y80.028 E5.12371
G1 X158.986 Y81.332 E5.18725
G1 X157.166 Y82.418 E5.25774
G1 X155.596 Y82.676 E5.31066
G1 X118.987 Y82.741 E6.52828
G1 X117.283 Y82.322 E6.58664
G1 X115.521 Y81.408 E6.65266
G1 X115.266 Y81.168 E6.66431
G1 X114.93 Y81.483 E6.67963
G1 X113.108 Y82.571 E6.75021
G1 X111.536 Y82.829 E6.80319
G1 X74.927 Y82.894 E8.02082
G1 X73.223 Y82.475 E8.07918
G1 X71.4 Y81.529 E8.14749
G1 X70.096 Y80.133 E8.21103
G1 X69.01 Y78.313 E8.28152
G1 X68.752 Y76.743 E8.33444
G1 X68.687 Y60.139 E8.88669
G1 X69.106 Y58.432 E8.94515
G1 X69.727 Y57.234 E8.99003
G1 X69.727 Y24.072 E10.09301
G1 X70.146 Y22.368 E10.15137
G0 F4800 X70.522 Y22.511
G1 F2100 X71.415 Y20.79 E10.21586
G1 X72.73 Y19.562 E10.2757
G1 X74.446 Y18.538 E10.34216
G1 X75.943 Y18.292 E10.39262
G1 X112.441 Y18.232 E11.60655
G1 X114.048 Y18.627 E11.66159
G1 X115.026 Y19.134 E11.69823
G1 X115.389 Y18.796 E11.71473
G1 X117.114 Y17.766 E11.78155
G1 X118.611 Y17.52 E11.83201
G1 X155.109 Y17.46 E13.04594
G1 X156.716 Y17.855 E13.10098
G1 X158.437 Y18.748 E13.16547
G1 X159.665 Y20.063 E13.22531
G1 X160.689 Y21.779 E13.29177
G1 X160.935 Y23.276 E13.34223
G1 X160.992 Y38.528 E13.84952
G1 X161.101 Y38.829 E13.86017
G1 X161.287 Y39.958 E13.89822
G1 X161.347 Y76.455 E15.11212
G1 X160.952 Y78.062 E15.16716
G1 X160.059 Y79.783 E15.23165
G1 X158.744 Y81.011 E15.29149
G1 X157.028 Y82.035 E15.35795
G1 X155.531 Y82.281 E15.40841
G1 X119.033 Y82.341 E16.62234
G1 X117.426 Y81.946 E16.67738
G1 X115.705 Y81.053 E16.74187
G1 X115.284 Y80.602 E16.76239
G1 X114.685 Y81.164 E16.78971
G1 X112.97 Y82.188 E16.85615
G1 X111.471 Y82.434 E16.90667
G1 X74.973 Y82.494 E18.1206
G1 X73.366 Y82.099 E18.17564
G1 X71.645 Y81.206 E18.24013
G1 X70.417 Y79.891 E18.29997
G1 X69.393 Y78.175 E18.36643
G1 X69.147 Y76.678 E18.41689
G1 X69.087 Y60.184 E18.96549
G1 X69.482 Y58.575 E19.02059
G1 X70.127 Y57.331 E19.0672
G1 X70.127 Y24.118 E20.17187
G1 X70.522 Y22.511 E20.22691
G0 F4800 X70.898 Y22.654
G1 F2100 X71.738 Y21.035 E20.28757
G1 X72.972 Y19.883 E20.34372
G1 X74.584 Y18.921 E20.40616
G1 X76.008 Y18.687 E20.45415
G1 X112.395 Y18.632 E21.66439
G1 X113.905 Y19.003 E21.71611
G1 X115.093 Y19.619 E21.76062
G1 X115.634 Y19.115 E21.78521
G1 X117.252 Y18.149 E21.84789
G1 X118.676 Y17.915 E21.89588
G1 X155.063 Y17.86 E23.10612
G1 X156.573 Y18.231 E23.15784
G1 X158.192 Y19.071 E23.2185
G1 X159.344 Y20.305 E23.27465
G1 X160.306 Y21.917 E23.33709
G1 X160.54 Y23.341 E23.38509
G1 X160.592 Y38.605 E23.89277
G1 X160.706 Y38.894 E23.9031
G1 X160.892 Y40.023 E23.94116
G1 X160.947 Y76.409 E25.15137
G1 X160.576 Y77.919 E25.20308
G1 X159.736 Y79.538 E25.26375
G1 X158.502 Y80.69 E25.3199
G1 X156.89 Y81.652 E25.38233
G1 X155.466 Y81.886 E25.43033
G1 X119.079 Y81.941 E26.64057
G1 X117.569 Y81.57 E26.69228
G1 X115.95 Y80.73 E26.75295
G1 X115.302 Y80.036 E26.78453
G1 X114.44 Y80.845 E26.82385
G1 X112.832 Y81.805 E26.88614
G1 X111.406 Y82.039 E26.9342
G1 X75.019 Y82.094 E28.14444
G1 X73.509 Y81.723 E28.19615
G1 X71.89 Y80.883 E28.25682
G1 X70.738 Y79.649 E28.31297
G1 X69.776 Y78.037 E28.3754
G1 X69.542 Y76.613 E28.4234
G1 X69.487 Y60.229 E28.96834
G1 X69.858 Y58.718 E29.02009
G1 X70.527 Y57.428 E29.06842
G1 X70.527 Y24.164 E30.17479
G1 X70.898 Y22.654 E30.2265
G0 F4800 X71.275 Y22.796
G1 F2100 X72.061 Y21.28 E30.2833
G1 X73.214 Y20.204 E30.33575
G1 X74.722 Y19.304 E30.39416
G1 X76.073 Y19.082 E30.4397
G1 X112.348 Y19.032 E31.64621
G1 X113.763 Y19.38 E31.69468
G1 X115.16 Y20.104 E31.74701
G1 X115.879 Y19.434 E31.7797
G1 X117.39 Y18.532 E31.83823
G1 X118.741 Y18.31 E31.88376
G1 X155.016 Y18.26 E33.09028
G1 X156.431 Y18.608 E33.13874
G1 X157.947 Y19.394 E33.19554
G1 X159.023 Y20.547 E33.24799
G1 X159.923 Y22.055 E33.3064
G1 X160.145 Y23.406 E33.35194
G1 X160.192 Y38.682 E33.86002
G1 X160.318 Y39 E33.8714
G1 X160.497 Y40.088 E33.90807
G1 X160.547 Y76.362 E35.11455
G1 X160.199 Y77.777 E35.16302
G1 X159.413 Y79.293 E35.21982
G1 X158.26 Y80.369 E35.27227
G1 X156.752 Y81.269 E35.33068
G1 X155.401 Y81.491 E35.37622
G1 X119.126 Y81.541 E36.58273
G1 X117.711 Y81.193 E36.63119
G1 X116.195 Y80.407 E36.68799
G1 X115.32 Y79.47 E36.73063
G1 X114.201 Y80.522 E36.78171
G1 X112.692 Y81.422 E36.84015
G1 X111.341 Y81.644 E36.88569
G1 X75.066 Y81.694 E38.0922
G1 X73.651 Y81.346 E38.14067
G1 X72.135 Y80.56 E38.19746
G1 X71.059 Y79.407 E38.24992
G1 X70.159 Y77.899 E38.30833
G1 X69.937 Y76.548 E38.35387
G1 X69.887 Y60.274 E38.89514
G1 X70.234 Y58.861 E38.94354
G1 X70.86 Y57.649 E38.98891
G1 X70.927 Y57.549 E38.99291
G1 X70.927 Y24.211 E40.10174
G1 X71.275 Y22.796 E40.1502
G0 F4800 X71.651 Y22.939
G1 F2100 X72.384 Y21.525 E40.20318
G1 X73.456 Y20.525 E40.25194
G1 X74.86 Y19.687 E40.30632
G1 X76.138 Y19.477 E40.34939
G1 X112.302 Y19.432 E41.55221
G1 X113.62 Y19.756 E41.59736
G1 X114.971 Y20.456 E41.64796
G1 X115.174 Y20.639 E41.65706
G1 X116.124 Y19.753 E41.70026
G1 X117.528 Y18.915 E41.75464
G1 X118.806 Y18.705 E41.79772
G1 X154.97 Y18.66 E43.00054
G1 X156.288 Y18.984 E43.04568
G1 X157.702 Y19.717 E43.09866
G1 X158.702 Y20.789 E43.14742
G1 X159.54 Y22.193 E43.2018
G1 X159.75 Y23.471 E43.24487
G1 X159.792 Y38.766 E43.75359
G1 X159.923 Y39.065 E43.76445
G1 X160.102 Y40.153 E43.80112
G1 X160.147 Y76.316 E45.00391
G1 X159.823 Y77.634 E45.04905
G1 X159.09 Y79.048 E45.10202
G1 X158.018 Y80.048 E45.15078
G1 X156.614 Y80.886 E45.20517
G1 X155.336 Y81.096 E45.24824
G1 X119.172 Y81.141 E46.45106
G1 X117.854 Y80.817 E46.49621
G1 X116.44 Y80.084 E46.54918
G1 X115.437 Y79.009 E46.59808
G1 X115.273 Y78.733 E46.60876
G1 X115.03 Y79.201 E46.6263
G1 X113.958 Y80.201 E46.67506
G1 X112.554 Y81.039 E46.72944
G1 X111.276 Y81.249 E46.77252
G1 X75.112 Y81.294 E47.97534
G1 X73.794 Y80.97 E48.02048
G1 X72.38 Y80.237 E48.07345
G1 X71.38 Y79.165 E48.12221
G1 X70.542 Y77.761 E48.17659
G1 X70.332 Y76.483 E48.21967
G1 X70.287 Y60.32 E48.75726
G1 X70.611 Y59.002 E48.8024
G1 X71.215 Y57.832 E48.84619
G1 X71.327 Y57.678 E48.85252
G1 X71.327 Y24.257 E49.96411
G1 X71.651 Y22.939 E50.00925
G0 F4800 X72.027 Y23.082
G1 F2100 X72.706 Y21.772 E50.05833
G1 X73.701 Y20.844 E50.10358
G1 X74.998 Y20.07 E50.15382
G1 X76.203 Y19.872 E50.19443
G1 X112.256 Y19.832 E51.39356
G1 X113.477 Y20.132 E51.43538
G1 X114.787 Y20.811 E51.48446
G1 X115.227 Y21.283 E51.50592
G1 X115.423 Y20.954 E51.51866
G1 X116.369 Y20.072 E51.56167
G1 X117.666 Y19.298 E51.61191
G1 X118.871 Y19.1 E51.65253
G1 X154.924 Y19.06 E52.85165
G1 X156.145 Y19.36 E52.89347
G1 X157.455 Y20.039 E52.94255
G1 X158.383 Y21.034 E52.9878
G1 X159.157 Y22.331 E53.03804
G1 X159.355 Y23.536 E53.07865
G1 X159.392 Y38.85 E53.588
G1 X159.536 Y39.178 E53.59992
G1 X159.707 Y40.218 E53.63497
G1 X159.747 Y76.27 E54.83407
G1 X159.447 Y77.491 E54.87588
G1 X158.768 Y78.801 E54.92496
G1 X157.773 Y79.729 E54.97021
G1 X156.476 Y80.503 E55.02045
G1 X155.271 Y80.701 E55.06107
G1 X119.218 Y80.741 E56.26019
G1 X117.997 Y80.441 E56.30201
G1 X116.687 Y79.762 E56.35109
G1 X115.759 Y78.767 E56.39634
G1 X115.249 Y77.911 E56.42948
G1 X114.708 Y78.954 E56.46856
G1 X113.713 Y79.882 E56.51382
G1 X112.416 Y80.656 E56.56405
G1 X111.211 Y80.854 E56.60467
G1 X75.158 Y80.894 E57.8038
G1 X73.937 Y80.594 E57.84561
G1 X72.627 Y79.915 E57.89469
G1 X71.699 Y78.92 E57.93994
G1 X70.925 Y77.623 E57.99018
G1 X70.727 Y76.418 E58.03079
G1 X70.687 Y60.366 E58.56469
G1 X70.987 Y59.145 E58.60651
G1 X71.57 Y58.016 E58.64877
G1 X71.727 Y57.817 E58.6572
G1 X71.727 Y24.303 E59.77188
G1 X72.027 Y23.082 E59.8137
G0 F4800 X72.403 Y23.225
G1 F2100 X73.028 Y22.019 E59.85888
G1 X73.943 Y21.166 E59.90048
G1 X75.138 Y20.453 E59.94677
G1 X76.268 Y20.267 E59.98485
G1 X112.21 Y20.232 E61.18029
G1 X113.334 Y20.508 E61.21879
G1 X114.54 Y21.133 E61.26396
G1 X115.321 Y21.971 E61.30206
G1 X115.696 Y21.247 E61.32918
G1 X116.611 Y20.394 E61.37079
G1 X117.806 Y19.681 E61.41707
G1 X118.936 Y19.495 E61.45516
G1 X154.878 Y19.46 E62.6506
G1 X156.002 Y19.736 E62.68909
G1 X157.208 Y20.361 E62.73427
G1 X158.061 Y21.276 E62.77588
G1 X158.774 Y22.471 E62.82216
G1 X158.96 Y23.601 E62.86025
G1 X158.992 Y38.944 E63.37056
G1 X159.141 Y39.243 E63.38167
G1 X159.312 Y40.283 E63.41673
G1 X159.347 Y76.224 E64.61213
G1 X159.071 Y77.348 E64.65063
G1 X158.446 Y78.554 E64.6958
G1 X157.531 Y79.407 E64.73741
G1 X156.336 Y80.12 E64.78369
G1 X155.206 Y80.306 E64.82178
G1 X119.264 Y80.341 E66.01722
G1 X118.14 Y80.065 E66.05571
G1 X116.934 Y79.44 E66.10089
G1 X116.081 Y78.525 E66.1425
G1 X115.368 Y77.33 E66.18878
G1 X115.242 Y76.562 E66.21467
G1 X115.011 Y77.501 E66.24683
G1 X114.386 Y78.707 E66.29201
G1 X113.471 Y79.56 E66.33361
G1 X112.276 Y80.273 E66.3799
G1 X111.146 Y80.459 E66.41799
G1 X75.204 Y80.494 E67.61342
G1 X74.08 Y80.218 E67.65192
G1 X72.874 Y79.593 E67.6971
G1 X72.021 Y78.678 E67.7387
G1 X71.308 Y77.483 E67.78499
G1 X71.122 Y76.353 E67.82307
G1 X71.087 Y60.412 E68.35328
G1 X71.363 Y59.288 E68.39177
G1 X71.925 Y58.2 E68.4325
G1 X72.127 Y57.963 E68.44286
G1 X72.127 Y24.349 E69.56086
G1 X72.403 Y23.225 E69.59936
G0 F4800 X72.78 Y23.367
G1 F2100 X73.35 Y22.266 E69.64059
G1 X74.185 Y21.488 E69.67855
G1 X75.278 Y20.836 E69.72088
G1 X76.333 Y20.662 E69.75645
G1 X112.163 Y20.632 E70.94816
G1 X113.192 Y20.885 E70.9834
G1 X114.293 Y21.455 E71.02464
G1 X115.071 Y22.29 E71.0626
G1 X115.391 Y22.827 E71.08339
G1 X115.469 Y22.554 E71.09283
G1 X116.018 Y21.494 E71.13254
G1 X116.853 Y20.716 E71.17049
G1 X117.946 Y20.064 E71.21282
G1 X119.001 Y19.89 E71.24839
G1 X154.831 Y19.86 E72.4401
G1 X155.86 Y20.113 E72.47534
G1 X156.961 Y20.683 E72.51658
G1 X157.739 Y21.518 E72.55454
G1 X158.391 Y22.611 E72.59687
G1 X158.565 Y23.666 E72.63243
G1 X158.592 Y39.038 E73.14371
G1 X158.755 Y39.366 E73.15589
G1 X158.917 Y40.348 E73.18899
G1 X158.947 Y76.177 E74.38067
G1 X158.694 Y77.206 E74.41591
G1 X158.124 Y78.307 E74.45715
G1 X157.289 Y79.085 E74.49511
G1 X156.196 Y79.737 E74.53744
G1 X155.141 Y79.911 E74.573
G1 X119.311 Y79.941 E75.76471
G1 X118.282 Y79.688 E75.79996
G1 X117.181 Y79.118 E75.84119
G1 X116.403 Y78.283 E75.87915
G1 X115.751 Y77.19 E75.92148
G1 X115.577 Y76.135 E75.95705
G1 X115.55 Y60.763 E76.46832
G1 X115.387 Y60.435 E76.4805
G1 X115.225 Y59.453 E76.51361
G1 X115.208 Y42.199 E77.08748
G1 X115.051 Y42.451 E77.09735
G1 X114.887 Y42.603 E77.10479
G1 X114.887 Y76.33 E78.22655
G1 X114.634 Y77.359 E78.2618
G1 X114.064 Y78.46 E78.30303
G1 X113.229 Y79.238 E78.34099
G1 X112.136 Y79.89 E78.38332
G1 X111.081 Y80.064 E78.41889
G1 X75.251 Y80.094 E79.6106
G1 X74.222 Y79.841 E79.64584
G1 X73.121 Y79.271 E79.68708
G1 X72.343 Y78.436 E79.72504
G1 X71.691 Y77.343 E79.76737
G1 X71.517 Y76.288 E79.80293
G1 X71.487 Y60.458 E80.32944
G1 X71.739 Y59.431 E80.36461
G1 X72.28 Y58.384 E80.40381
G1 X72.527 Y58.123 E80.41576
G1 X72.527 Y24.396 E81.53752
G1 X72.78 Y23.367 E81.57277
G0 F4800 X73.156 Y23.51
G1 F2100 X73.672 Y22.513 E81.61011
G1 X74.427 Y21.81 E81.64442
G1 X75.418 Y21.219 E81.68279
G1 X76.398 Y21.057 E81.71583
G1 X112.117 Y21.032 E82.90385
G1 X113.049 Y21.261 E82.93577
G1 X114.046 Y21.777 E82.97311
G1 X114.749 Y22.532 E83.00742
G1 X115.34 Y23.523 E83.0458
G1 X115.502 Y24.503 E83.07884
G1 X115.527 Y40.222 E83.60165
G1 X115.299 Y41.152 E83.6335
G1 X114.779 Y42.158 E83.67117
G1 X114.487 Y42.429 E83.68442
G1 X114.487 Y76.284 E84.81044
G1 X114.258 Y77.216 E84.84236
G1 X113.742 Y78.213 E84.8797
G1 X112.987 Y78.916 E84.91401
G1 X111.996 Y79.507 E84.95239
G1 X111.016 Y79.669 E84.98542
G1 X75.297 Y79.694 E86.17344
G1 X74.365 Y79.465 E86.20536
G1 X73.368 Y78.949 E86.2427
G1 X72.665 Y78.194 E86.27701
G1 X72.074 Y77.203 E86.31539
G1 X71.912 Y76.223 E86.34843
G1 X71.887 Y60.504 E86.87124
G1 X72.115 Y59.574 E86.90309
G1 X72.635 Y58.568 E86.94076
G1 X72.927 Y58.297 E86.95401
G1 X72.927 Y24.442 E88.08003
G1 X73.156 Y23.51 E88.11195
G0 F4800 X73.532 Y23.653
G1 F2100 X73.995 Y22.758 E88.14546
G1 X74.666 Y22.134 E88.17594
G1 X75.558 Y21.602 E88.21048
G1 X76.463 Y21.452 E88.241
G1 X112.071 Y21.432 E89.42532
G1 X112.906 Y21.637 E89.45392
G1 X113.801 Y22.1 E89.48744
G1 X114.425 Y22.771 E89.51791
G1 X114.957 Y23.663 E89.55246
G1 X115.107 Y24.568 E89.58297
G1 X115.127 Y40.176 E90.10209
G1 X114.922 Y41.011 E90.13069
G1 X114.458 Y41.91 E90.16434
G1 X114.087 Y42.253 E90.18114
G1 X114.087 Y76.238 E91.31149
G1 X113.882 Y77.073 E91.34008
G1 X113.419 Y77.968 E91.3736
G1 X112.748 Y78.592 E91.40408
G1 X111.856 Y79.124 E91.43862
G1 X110.951 Y79.274 E91.46913
G1 X75.343 Y79.294 E92.65346
G1 X74.508 Y79.089 E92.68206
G1 X73.613 Y78.626 E92.71557
G1 X72.989 Y77.955 E92.74605
G1 X72.457 Y77.063 E92.78059
G1 X72.307 Y76.158 E92.8111
G1 X72.287 Y60.55 E93.33023
G1 X72.492 Y59.715 E93.35882
G1 X72.956 Y58.816 E93.39247
G1 X73.327 Y58.473 E93.40928
G1 X73.327 Y24.488 E94.53962
G1 X73.532 Y23.653 E94.56822
G0 F4800 X73.908 Y23.796
G1 F2100 X74.318 Y23.003 E94.59791
G1 X74.905 Y22.458 E94.62455
G1 X75.698 Y21.985 E94.65526
G1 X76.529 Y21.847 E94.68328
G1 X112.025 Y21.832 E95.86388
G1 X112.763 Y22.013 E95.88916
G1 X113.556 Y22.423 E95.91885
G1 X114.101 Y23.01 E95.94549
G1 X114.574 Y23.803 E95.9762
G1 X114.712 Y24.634 E96.00422
G1 X114.727 Y40.13 E96.51962
G1 X114.546 Y40.868 E96.54489
G1 X114.136 Y41.662 E96.57461
G1 X113.687 Y42.077 E96.59495
G1 X113.687 Y76.192 E97.72962
G1 X113.506 Y76.93 E97.75489
G1 X113.096 Y77.723 E97.78458
G1 X112.509 Y78.268 E97.81122
G1 X111.716 Y78.741 E97.84194
G1 X110.885 Y78.879 E97.86995
G1 X75.389 Y78.894 E99.05055
G1 X74.651 Y78.713 E99.07583
G1 X73.858 Y78.303 E99.10552
G1 X73.313 Y77.716 E99.13216
G1 X72.84 Y76.923 E99.16287
G1 X72.702 Y76.092 E99.19089
G1 X72.687 Y60.596 E99.70629
G1 X72.868 Y59.858 E99.73156
G1 X73.278 Y59.064 E99.76128
G1 X73.727 Y58.649 E99.78162
G1 X73.727 Y24.534 E100.91629
G1 X73.908 Y23.796 E100.94156
G0 F4800 X74.286 Y23.935
G1 F2100 X74.641 Y23.248 E100.96728
G1 X75.144 Y22.782 E100.99009
G1 X75.838 Y22.368 E101.01697
G1 X76.595 Y22.242 E101.04249
G1 X111.975 Y22.232 E102.21923
G1 X112.624 Y22.391 E102.24146
G1 X113.311 Y22.746 E102.26718
G1 X113.777 Y23.249 E102.28998
G1 X114.191 Y23.943 E102.31686
G1 X114.317 Y24.7 E102.34239
G1 X114.327 Y40.08 E102.85393
G1 X114.168 Y40.729 E102.87615
G1 X113.813 Y41.416 E102.90187
G1 X113.287 Y41.902 E102.92569
G1 X113.287 Y76.142 E104.06452
G1 X113.128 Y76.791 E104.08674
G1 X112.773 Y77.478 E104.11246
G1 X112.27 Y77.944 E104.13527
G1 X111.576 Y78.358 E104.16215
G1 X110.819 Y78.484 E104.18767
G1 X75.439 Y78.494 E105.36441
G1 X74.79 Y78.335 E105.38664
G1 X74.103 Y77.98 E105.41236
G1 X73.637 Y77.477 E105.43516
G1 X73.223 Y76.783 E105.46204
G1 X73.097 Y76.026 E105.48757
G1 X73.087 Y60.646 E105.99911
G1 X73.246 Y59.997 E106.02133
