;FLAVOR:Marlin
;TIME:983
;Filament used: 0.925814m
;Layer height: 0.3
;MINX:109.7
;MINY:30.652
;MINZ:0.2
;MAXX:125.3
;MAXY:98.7
;MAXZ:10.5
;Generated with Cura_SteamEngine master
M140 S30
M105
M190 S30
M104 S218
M105
M109 S218
M82 ;absolute extrusion mode
; Ender 3 Custom Start G-code
G92 E0 ; Reset Extruder
G28 ; Home all axes
G1 Z2.0 F3000 ; Move Z Axis up little to prevent scratching of Heat Bed
G1 X0.1 Y20 Z0.3 F5000.0 ; Move to start position
G1 X0.1 Y200.0 Z0.3 F1500.0 E15 ; Draw the first line
G1 X0.4 Y200.0 Z0.3 F5000.0 ; Move to side a little
G1 X0.4 Y20 Z0.3 F1500.0 E30 ; Draw the second line
G92 E0 ; Reset Extruder
G1 Z2.0 F3000 ; Move Z Axis up little to prevent scratching of Heat Bed
G1 X5 Y20 Z0.3 F5000.0 ; Move over to prevent blob squish
G92 E0
G92 E0
G1 F2700 E-5
;LAYER_COUNT:34
;LAYER:0
M106 S25.5
G1 F300 Z0.6
;MESH:ArduinoUno_1_hole_StandOff.stl
G0 F4800 X117.609 Y45.449 Z0.6
;TYPE:WALL-INNER
G1 F300 Z0.2
G1 F2700 E0
G1 F1800 X117.36 Y45.449 E0.00828
G1 X117.026 Y45.435 E0.0194
G1 X116.769 Y45.412 E0.02798
G1 X116.448 Y45.371 E0.03875
G1 X116.185 Y45.326 E0.04762
G1 X115.877 Y45.259 E0.0581
G1 X115.617 Y45.192 E0.06703
G1 X115.312 Y45.1 E0.07763
G1 X115.061 Y45.012 E0.08648
G1 X114.784 Y44.9 E0.09641
G1 X114.493 Y44.771 E0.107
G1 X114.231 Y44.641 E0.11673
G1 X114.006 Y44.516 E0.12529
G1 X113.719 Y44.341 E0.13647
G1 X113.509 Y44.2 E0.14488
G1 X113.238 Y44.003 E0.15603
G1 X113.03 Y43.836 E0.1649
G1 X112.816 Y43.652 E0.17429
G1 X112.596 Y43.444 E0.18436
G1 X112.399 Y43.244 E0.19369
G1 X112.187 Y43.008 E0.20424
G1 X112.022 Y42.808 E0.21287
G1 X111.825 Y42.548 E0.22372
G1 X111.682 Y42.341 E0.23208
G1 X111.502 Y42.058 E0.24324
G1 X111.357 Y41.806 E0.25291
G1 X111.237 Y41.577 E0.26151
G1 X111.099 Y41.281 E0.27237
G1 X110.984 Y41.008 E0.28222
G1 X110.882 Y40.733 E0.29198
G1 X110.798 Y40.474 E0.30104
G1 X110.724 Y40.204 E0.31035
G1 X110.65 Y39.887 E0.32117
G1 X110.598 Y39.617 E0.33032
G1 X110.553 Y39.308 E0.34071
G1 X110.524 Y39.025 E0.35017
G1 X110.507 Y38.755 E0.35917
G1 X110.5 Y38.473 E0.36855
G1 X110.507 Y38.147 E0.37939
G1 X110.523 Y37.885 E0.38812
G1 X110.553 Y37.593 E0.39789
G1 X110.599 Y37.278 E0.40847
G1 X110.65 Y37.013 E0.41745
G1 X110.723 Y36.696 E0.42827
G1 X110.804 Y36.407 E0.43825
G1 X110.882 Y36.169 E0.44658
G1 X110.984 Y35.894 E0.45634
G1 X111.099 Y35.62 E0.46622
G1 X111.237 Y35.324 E0.47708
G1 X111.357 Y35.095 E0.48568
G1 X111.502 Y34.843 E0.49535
G1 X111.682 Y34.56 E0.50651
G1 X111.825 Y34.353 E0.51488
G1 X112.022 Y34.093 E0.52572
G1 X112.188 Y33.892 E0.5344
G1 X112.387 Y33.67 E0.54431
G1 X112.612 Y33.442 E0.55497
G1 X112.831 Y33.235 E0.56499
G1 X113.047 Y33.05 E0.57445
G1 X113.283 Y32.863 E0.58446
G1 X113.512 Y32.698 E0.59385
G1 X113.771 Y32.527 E0.60417
G1 X114 Y32.389 E0.61307
G1 X114.28 Y32.237 E0.62366
G1 X114.538 Y32.108 E0.63326
G1 X114.804 Y31.991 E0.64292
G1 X115.062 Y31.89 E0.65214
G1 X115.355 Y31.788 E0.66245
G1 X115.618 Y31.709 E0.67159
G1 X115.927 Y31.631 E0.68219
G1 X116.191 Y31.575 E0.69116
G1 X116.501 Y31.523 E0.70162
G1 X116.785 Y31.487 E0.71114
G1 X117.061 Y31.466 E0.72035
G1 X117.391 Y31.452 E0.73133
G1 X117.64 Y31.452 E0.73961
G1 X117.974 Y31.466 E0.75073
G1 X118.231 Y31.489 E0.75931
G1 X118.554 Y31.53 E0.77014
G1 X118.812 Y31.574 E0.77885
G1 X119.123 Y31.642 E0.78944
G1 X119.383 Y31.709 E0.79837
G1 X119.688 Y31.801 E0.80896
G1 X119.938 Y31.889 E0.81778
G1 X120.216 Y32.001 E0.82775
G1 X120.507 Y32.13 E0.83833
G1 X120.769 Y32.26 E0.84806
G1 X120.994 Y32.385 E0.85662
G1 X121.281 Y32.56 E0.8678
G1 X121.491 Y32.701 E0.87622
G1 X121.732 Y32.876 E0.88612
G1 X121.98 Y33.074 E0.89668
G1 X122.184 Y33.249 E0.90562
G1 X122.404 Y33.457 E0.91569
G1 X122.601 Y33.657 E0.92502
G1 X122.808 Y33.887 E0.93532
G1 X122.978 Y34.093 E0.9442
G1 X123.17 Y34.346 E0.95476
G1 X123.328 Y34.574 E0.96399
G1 X123.486 Y34.821 E0.97374
G1 X123.625 Y35.064 E0.98305
G1 X123.777 Y35.352 E0.99388
G1 X123.893 Y35.6 E1.00299
G1 X124.001 Y35.856 E1.01223
G1 X124.115 Y36.162 E1.02309
G1 X124.2 Y36.422 E1.03219
G1 X124.276 Y36.697 E1.04168
G1 X124.35 Y37.014 E1.05251
G1 X124.398 Y37.263 E1.06094
G1 X124.446 Y37.587 E1.07183
G1 X124.476 Y37.877 E1.08153
G1 X124.493 Y38.147 E1.09053
G1 X124.5 Y38.429 E1.09991
G1 X124.493 Y38.755 E1.11076
G1 X124.479 Y38.999 E1.11889
G1 X124.447 Y39.308 E1.12922
G1 X124.402 Y39.617 E1.1396
G1 X124.35 Y39.888 E1.14878
G1 X124.277 Y40.204 E1.15957
G1 X124.198 Y40.486 E1.16931
G1 X124.118 Y40.733 E1.17794
G1 X124.016 Y41.008 E1.1877
G1 X123.901 Y41.281 E1.19755
G1 X123.763 Y41.577 E1.20841
G1 X123.643 Y41.806 E1.21701
G1 X123.498 Y42.058 E1.22668
G1 X123.318 Y42.341 E1.23784
G1 X123.175 Y42.548 E1.24621
G1 X122.978 Y42.808 E1.25706
G1 X122.812 Y43.009 E1.26573
G1 X122.613 Y43.231 E1.27564
G1 X122.388 Y43.459 E1.2863
G1 X122.171 Y43.664 E1.29623
G1 X121.966 Y43.84 E1.30521
G1 X121.729 Y44.028 E1.31527
G1 X121.476 Y44.212 E1.32568
G1 X121.233 Y44.371 E1.33534
G1 X120.983 Y44.523 E1.34507
G1 X120.746 Y44.652 E1.35404
G1 X120.472 Y44.789 E1.36423
G1 X120.198 Y44.909 E1.37418
G1 X119.938 Y45.011 E1.38347
G1 X119.636 Y45.116 E1.3941
G1 X119.381 Y45.192 E1.40295
G1 X119.073 Y45.27 E1.41352
G1 X118.809 Y45.326 E1.4225
G1 X118.499 Y45.378 E1.43295
G1 X118.215 Y45.414 E1.44247
G1 X117.939 Y45.435 E1.45168
G1 X117.609 Y45.449 E1.46267
G0 F4800 X117.626 Y45.849
G1 F1800 X117.343 Y45.849 E1.47208
G1 X117.009 Y45.835 E1.4832
G1 X116.719 Y45.809 E1.49288
G1 X116.396 Y45.768 E1.50371
G1 X116.105 Y45.718 E1.51353
G1 X115.792 Y45.65 E1.52419
G1 X115.5 Y45.575 E1.53421
G1 X115.195 Y45.482 E1.54482
G1 X114.913 Y45.383 E1.55476
G1 X114.622 Y45.266 E1.56519
G1 X114.331 Y45.137 E1.57578
G1 X114.048 Y44.996 E1.58629
G1 X113.798 Y44.858 E1.59579
G1 X113.511 Y44.683 E1.60697
G1 X113.274 Y44.524 E1.61646
G1 X113.003 Y44.327 E1.62761
G1 X112.772 Y44.142 E1.63745
G1 X112.541 Y43.943 E1.64759
G1 X112.321 Y43.735 E1.65766
G1 X112.114 Y43.525 E1.66747
G1 X111.89 Y43.276 E1.67861
G1 X111.703 Y43.05 E1.68836
G1 X111.506 Y42.79 E1.69921
G1 X111.344 Y42.556 E1.70868
G1 X111.164 Y42.273 E1.71984
G1 X111.01 Y42.005 E1.73012
G1 X110.874 Y41.746 E1.73985
G1 X110.736 Y41.45 E1.75071
G1 X110.615 Y41.163 E1.76107
G1 X110.507 Y40.872 E1.77139
G1 X110.418 Y40.598 E1.78097
G1 X110.334 Y40.295 E1.79143
G1 X110.26 Y39.978 E1.80226
G1 X110.203 Y39.681 E1.81232
G1 X110.157 Y39.366 E1.8229
G1 X110.126 Y39.066 E1.83294
G1 X110.107 Y38.764 E1.843
G1 X110.1 Y38.464 E1.85298
G1 X110.107 Y38.138 E1.86383
G1 X110.125 Y37.844 E1.87362
G1 X110.157 Y37.535 E1.88396
G1 X110.203 Y37.22 E1.89454
G1 X110.26 Y36.923 E1.9046
G1 X110.333 Y36.606 E1.91542
G1 X110.419 Y36.299 E1.92603
G1 X110.507 Y36.03 E1.93544
G1 X110.615 Y35.739 E1.94576
G1 X110.736 Y35.451 E1.95615
G1 X110.874 Y35.155 E1.96702
G1 X111.01 Y34.896 E1.97674
G1 X111.164 Y34.628 E1.98703
G1 X111.344 Y34.345 E1.99818
G1 X111.506 Y34.111 E2.00765
G1 X111.703 Y33.851 E2.0185
G1 X111.89 Y33.625 E2.02825
G1 X112.102 Y33.389 E2.0388
G1 X112.337 Y33.151 E2.04993
G1 X112.556 Y32.944 E2.05995
G1 X112.787 Y32.746 E2.07007
G1 X113.049 Y32.538 E2.0812
G1 X113.278 Y32.373 E2.09058
G1 X113.551 Y32.193 E2.10146
G1 X113.809 Y32.037 E2.11149
G1 X114.089 Y31.885 E2.12209
G1 X114.359 Y31.75 E2.13213
G1 X114.643 Y31.625 E2.14245
G1 X114.931 Y31.512 E2.15274
G1 X115.228 Y31.409 E2.16319
G1 X115.52 Y31.321 E2.17333
G1 X115.829 Y31.243 E2.18393
G1 X116.125 Y31.18 E2.194
G1 X116.437 Y31.128 E2.20452
G1 X116.743 Y31.089 E2.21478
G1 X117.042 Y31.066 E2.22475
G1 X117.374 Y31.052 E2.23581
G1 X117.657 Y31.052 E2.24522
G1 X117.991 Y31.066 E2.25634
G1 X118.281 Y31.092 E2.26602
G1 X118.604 Y31.133 E2.27685
G1 X118.897 Y31.183 E2.28674
G1 X119.208 Y31.251 E2.29733
G1 X119.5 Y31.326 E2.30735
G1 X119.805 Y31.419 E2.31796
G1 X120.087 Y31.518 E2.3279
G1 X120.378 Y31.635 E2.33833
G1 X120.669 Y31.764 E2.34892
G1 X120.952 Y31.905 E2.35943
G1 X121.202 Y32.043 E2.36893
G1 X121.489 Y32.218 E2.38011
G1 X121.726 Y32.377 E2.3896
G1 X121.982 Y32.563 E2.40013
G1 X122.23 Y32.761 E2.41068
G1 X122.459 Y32.958 E2.42073
G1 X122.679 Y33.166 E2.4308
G1 X122.886 Y33.376 E2.44061
G1 X123.105 Y33.619 E2.45149
G1 X123.297 Y33.851 E2.4615
G1 X123.489 Y34.104 E2.47207
G1 X123.665 Y34.358 E2.48235
G1 X123.823 Y34.605 E2.4921
G1 X123.979 Y34.877 E2.50253
G1 X124.131 Y35.165 E2.51336
G1 X124.255 Y35.43 E2.52309
G1 X124.376 Y35.716 E2.53342
G1 X124.49 Y36.022 E2.54428
G1 X124.586 Y36.316 E2.55457
G1 X124.666 Y36.606 E2.56457
G1 X124.74 Y36.923 E2.5754
G1 X124.794 Y37.204 E2.58492
G1 X124.842 Y37.528 E2.59581
G1 X124.874 Y37.836 E2.60611
G1 X124.893 Y38.138 E2.61617
G1 X124.9 Y38.438 E2.62615
G1 X124.893 Y38.764 E2.637
G1 X124.877 Y39.04 E2.64619
G1 X124.843 Y39.366 E2.6571
G1 X124.797 Y39.681 E2.66768
G1 X124.74 Y39.978 E2.67774
G1 X124.667 Y40.295 E2.68856
G1 X124.582 Y40.598 E2.69903
G1 X124.493 Y40.872 E2.70861
G1 X124.385 Y41.163 E2.71893
G1 X124.264 Y41.45 E2.72929
G1 X124.126 Y41.746 E2.74016
G1 X123.99 Y42.005 E2.74989
G1 X123.836 Y42.273 E2.76017
G1 X123.656 Y42.556 E2.77132
G1 X123.494 Y42.79 E2.78079
G1 X123.297 Y43.05 E2.79164
G1 X123.11 Y43.276 E2.80139
G1 X122.898 Y43.512 E2.81194
G1 X122.663 Y43.75 E2.82307
G1 X122.444 Y43.957 E2.83309
G1 X122.214 Y44.154 E2.84316
G1 X121.964 Y44.352 E2.85377
G1 X121.709 Y44.537 E2.86425
G1 X121.451 Y44.707 E2.87453
G1 X121.185 Y44.868 E2.88487
G1 X120.924 Y45.01 E2.89475
G1 X120.641 Y45.151 E2.90527
G1 X120.357 Y45.276 E2.91559
G1 X120.069 Y45.389 E2.92588
G1 X119.767 Y45.494 E2.93651
G1 X119.479 Y45.58 E2.94651
G1 X119.171 Y45.658 E2.95708
G1 X118.875 Y45.721 E2.96714
G1 X118.563 Y45.773 E2.97766
G1 X118.257 Y45.812 E2.98792
G1 X117.958 Y45.835 E2.9979
G1 X117.626 Y45.849 E3.00895
G0 F4800 X117.643 Y46.249
;TYPE:WALL-OUTER
G1 F1800 X117.325 Y46.249 E3.01952
G1 X116.991 Y46.234 E3.03064
G1 X116.669 Y46.206 E3.04139
G1 X116.346 Y46.165 E3.05222
G1 X116.018 Y46.109 E3.06329
G1 X115.707 Y46.041 E3.07388
G1 X115.383 Y45.958 E3.085
G1 X115.078 Y45.865 E3.09561
G1 X114.771 Y45.757 E3.10643
G1 X114.46 Y45.632 E3.11758
G1 X114.169 Y45.503 E3.12817
G1 X113.87 Y45.354 E3.13928
G1 X113.59 Y45.2 E3.14991
G1 X113.303 Y45.025 E3.16109
G1 X113.039 Y44.848 E3.17166
G1 X112.768 Y44.651 E3.1828
G1 X112.514 Y44.448 E3.19362
G1 X112.266 Y44.234 E3.20451
G1 X112.046 Y44.026 E3.21458
G1 X111.817 Y43.793 E3.22545
G1 X111.593 Y43.544 E3.23659
G1 X111.384 Y43.292 E3.24748
G1 X111.187 Y43.032 E3.25833
G1 X111.006 Y42.771 E3.26889
G1 X110.826 Y42.488 E3.28005
G1 X110.663 Y42.205 E3.29091
G1 X110.511 Y41.915 E3.3018
G1 X110.373 Y41.619 E3.31266
G1 X110.246 Y41.318 E3.32353
G1 X110.132 Y41.011 E3.33442
G1 X110.034 Y40.709 E3.34498
G1 X109.944 Y40.386 E3.35613
G1 X109.87 Y40.069 E3.36696
G1 X109.81 Y39.756 E3.37756
G1 X109.761 Y39.424 E3.38872
G1 X109.728 Y39.107 E3.39932
G1 X109.707 Y38.773 E3.41045
G1 X109.7 Y38.455 E3.42103
G1 X109.707 Y38.129 E3.43188
G1 X109.727 Y37.802 E3.44277
G1 X109.761 Y37.477 E3.45364
G1 X109.81 Y37.145 E3.4648
G1 X109.87 Y36.832 E3.4754
G1 X109.944 Y36.515 E3.48623
G1 X110.034 Y36.192 E3.49738
G1 X110.132 Y35.89 E3.50794
G1 X110.246 Y35.584 E3.5188
G1 X110.373 Y35.282 E3.5297
G1 X110.511 Y34.986 E3.54056
G1 X110.663 Y34.697 E3.55142
G1 X110.826 Y34.413 E3.56231
G1 X111.006 Y34.13 E3.57347
G1 X111.187 Y33.869 E3.58403
G1 X111.384 Y33.609 E3.59488
G1 X111.593 Y33.357 E3.60577
G1 X111.817 Y33.108 E3.61691
G1 X112.052 Y32.87 E3.62804
G1 X112.296 Y32.64 E3.63919
G1 X112.538 Y32.433 E3.64978
G1 X112.8 Y32.225 E3.66091
G1 X113.058 Y32.039 E3.67149
G1 X113.331 Y31.859 E3.68236
G1 X113.618 Y31.685 E3.69352
G1 X113.898 Y31.533 E3.70412
G1 X114.19 Y31.388 E3.71496
G1 X114.496 Y31.253 E3.72609
G1 X114.793 Y31.136 E3.73671
G1 X115.101 Y31.029 E3.74755
G1 X115.422 Y30.933 E3.75869
G1 X115.731 Y30.855 E3.76929
G1 X116.059 Y30.785 E3.78045
G1 X116.371 Y30.733 E3.79097
G1 X116.704 Y30.691 E3.80213
G1 X117.022 Y30.666 E3.81274
G1 X117.357 Y30.652 E3.82389
G1 X117.675 Y30.652 E3.83447
G1 X118.009 Y30.667 E3.84559
G1 X118.331 Y30.695 E3.85634
G1 X118.654 Y30.736 E3.86717
G1 X118.982 Y30.792 E3.87824
G1 X119.293 Y30.86 E3.88883
G1 X119.617 Y30.943 E3.89995
G1 X119.922 Y31.036 E3.91056
G1 X120.229 Y31.144 E3.92138
G1 X120.54 Y31.269 E3.93253
G1 X120.831 Y31.398 E3.94311
G1 X121.13 Y31.547 E3.95423
G1 X121.41 Y31.701 E3.96485
G1 X121.697 Y31.876 E3.97603
G1 X121.961 Y32.053 E3.98661
G1 X122.232 Y32.25 E3.99775
G1 X122.48 Y32.448 E4.0083
G1 X122.734 Y32.667 E4.01946
G1 X122.954 Y32.875 E4.02953
G1 X123.183 Y33.108 E4.0404
G1 X123.402 Y33.351 E4.05128
G1 X123.616 Y33.609 E4.06242
G1 X123.808 Y33.862 E4.07299
G1 X123.994 Y34.13 E4.08384
G1 X124.17 Y34.406 E4.09473
G1 X124.333 Y34.69 E4.10562
G1 X124.485 Y34.978 E4.11645
G1 X124.624 Y35.275 E4.12735
G1 X124.751 Y35.576 E4.13822
G1 X124.865 Y35.882 E4.14908
G1 X124.966 Y36.192 E4.15993
G1 X125.056 Y36.515 E4.17108
G1 X125.13 Y36.832 E4.1819
G1 X125.19 Y37.145 E4.1925
G1 X125.238 Y37.469 E4.2034
G1 X125.272 Y37.794 E4.21427
G1 X125.293 Y38.129 E4.22543
G1 X125.3 Y38.447 E4.23601
G1 X125.293 Y38.774 E4.24689
G1 X125.275 Y39.082 E4.25715
G1 X125.239 Y39.424 E4.26859
G1 X125.19 Y39.756 E4.27975
G1 X125.13 Y40.069 E4.29035
G1 X125.056 Y40.386 E4.30118
G1 X124.966 Y40.709 E4.31233
G1 X124.868 Y41.011 E4.32289
G1 X124.754 Y41.318 E4.33378
G1 X124.627 Y41.619 E4.34465
G1 X124.489 Y41.915 E4.35551
G1 X124.337 Y42.205 E4.3664
G1 X124.174 Y42.488 E4.37726
G1 X123.994 Y42.771 E4.38842
G1 X123.813 Y43.032 E4.39898
G1 X123.616 Y43.292 E4.40983
G1 X123.407 Y43.544 E4.42072
G1 X123.183 Y43.793 E4.43186
G1 X122.948 Y44.031 E4.44298
G1 X122.704 Y44.261 E4.45414
G1 X122.462 Y44.468 E4.46473
G1 X122.199 Y44.676 E4.47588
G1 X121.942 Y44.862 E4.48643
G1 X121.669 Y45.042 E4.49731
G1 X121.387 Y45.213 E4.50828
G1 X121.102 Y45.368 E4.51907
G1 X120.81 Y45.513 E4.52991
G1 X120.504 Y45.648 E4.54104
G1 X120.207 Y45.765 E4.55165
G1 X119.899 Y45.872 E4.5625
G1 X119.577 Y45.968 E4.57367
G1 X119.269 Y46.046 E4.58424
G1 X118.941 Y46.116 E4.5954
G1 X118.629 Y46.168 E4.60592
G1 X118.296 Y46.21 E4.61708
G1 X117.978 Y46.235 E4.62769
G1 X117.643 Y46.249 E4.63884
G0 F4800 X117.634 Y45.81
G0 X117.593 Y45.059
;TYPE:SKIN
G1 F1800 X117.376 Y45.059 E4.64606
G1 X117.042 Y45.045 E4.65718
G1 X116.804 Y45.024 E4.66512
G1 X116.515 Y44.987 E4.67481
G1 X116.26 Y44.943 E4.68342
G1 X115.968 Y44.879 E4.69336
G1 X115.703 Y44.811 E4.70246
G1 X115.433 Y44.729 E4.71185
G1 X115.193 Y44.645 E4.72031
G1 X114.942 Y44.543 E4.72932
G1 X114.651 Y44.414 E4.7399
G1 X114.42 Y44.3 E4.74847
G1 X114.196 Y44.175 E4.757
G1 X113.929 Y44.012 E4.76741
G1 X113.733 Y43.88 E4.77527
G1 X113.468 Y43.687 E4.78617
G1 X113.279 Y43.536 E4.79422
G1 X113.07 Y43.356 E4.80339
G1 X112.868 Y43.165 E4.81264
G1 X112.704 Y42.999 E4.8204
G1 X112.477 Y42.747 E4.83168
G1 X112.328 Y42.567 E4.83945
G1 X112.142 Y42.32 E4.84974
G1 X112.003 Y42.119 E4.85786
G1 X111.836 Y41.856 E4.86823
G1 X111.694 Y41.611 E4.87764
G1 X111.582 Y41.396 E4.88571
G1 X111.452 Y41.116 E4.89597
G1 X111.355 Y40.885 E4.90431
G1 X111.244 Y40.585 E4.91495
G1 X111.172 Y40.363 E4.92271
G1 X111.1 Y40.101 E4.93175
G1 X111.032 Y39.806 E4.94182
G1 X110.983 Y39.552 E4.95042
G1 X110.939 Y39.252 E4.9605
G1 X110.914 Y39 E4.96893
G1 X110.897 Y38.73 E4.97792
G1 X110.89 Y38.481 E4.98621
G1 X110.897 Y38.171 E4.99652
G1 X110.913 Y37.909 E5.00525
G1 X110.939 Y37.649 E5.01394
G1 X110.984 Y37.343 E5.02423
G1 X111.032 Y37.094 E5.03267
G1 X111.099 Y36.801 E5.04266
G1 X111.178 Y36.52 E5.05237
G1 X111.246 Y36.311 E5.05968
G1 X111.355 Y36.017 E5.07011
G1 X111.452 Y35.785 E5.07847
G1 X111.582 Y35.505 E5.08874
G1 X111.695 Y35.29 E5.09682
G1 X111.836 Y35.045 E5.10622
G1 X112.003 Y34.782 E5.11658
G1 X112.142 Y34.581 E5.12471
G1 X112.323 Y34.341 E5.13471
G1 X112.484 Y34.146 E5.14312
G1 X112.677 Y33.93 E5.15275
G1 X112.879 Y33.725 E5.16233
G1 X113.085 Y33.531 E5.17174
G1 X113.289 Y33.356 E5.18068
G1 X113.525 Y33.169 E5.19069
G1 X113.727 Y33.024 E5.19896
G1 X113.986 Y32.853 E5.20929
G1 X114.186 Y32.732 E5.21706
G1 X114.454 Y32.586 E5.22721
G1 X114.704 Y32.461 E5.23651
G1 X114.954 Y32.351 E5.24559
G1 X115.197 Y32.256 E5.25427
G1 X115.468 Y32.162 E5.26381
G1 X115.731 Y32.083 E5.27294
G1 X116.008 Y32.013 E5.28245
