;FLAVOR:Marlin
;TIME:1058
;Filament used: 1.73089m
;Layer height: 0.3
;MINX:59.111
;MINY:27.374
;MINZ:0.2
;MAXX:90.109
;MAXY:59.618
;MAXZ:12.7
;Generated with Cura_SteamEngine master
M140 S35
M105
M190 S35
M104 S218
M105
M109 S218
M82 ;absolute extrusion mode
; Ender 3 Custom Start G-code
G92 E0 ; Reset Extruder
G28 ; Home all axes
G1 Z2.0 F3000 ; Move Z Axis up little to prevent scratching of Heat Bed
G1 X0.1 Y20 Z0.3 F5000.0 ; Move to start position
G1 X0.1 Y200.0 Z0.3 F1500.0 E15 ; Draw the first line
G1 X0.4 Y200.0 Z0.3 F5000.0 ; Move to side a little
G1 X0.4 Y20 Z0.3 F1500.0 E30 ; Draw the second line
G92 E0 ; Reset Extruder
G1 Z2.0 F3000 ; Move Z Axis up little to prevent scratching of Heat Bed
G1 X5 Y20 Z0.3 F5000.0 ; Move over to prevent blob squish
G92 E0
G92 E0
G1 F2700 E-5
;LAYER_COUNT:42
;LAYER:0
M107
G1 F300 Z0.4
G0 F4800 X61.353 Y35.14 Z0.4
;TYPE:SKIRT
G1 F300 Z0.2
G1 F2700 E0
G1 F2100 X61.634 Y34.677 E0.01801
G1 X61.996 Y34.127 E0.03991
G1 X62.065 Y34.027 E0.04395
G1 X62.381 Y33.589 E0.06192
G1 X62.457 Y33.488 E0.06612
G1 X62.791 Y33.064 E0.08407
G1 X62.873 Y32.964 E0.08838
G1 X63.223 Y32.557 E0.10623
G1 X63.303 Y32.468 E0.11021
G1 X63.673 Y32.071 E0.12826
G1 X63.764 Y31.978 E0.13259
G1 X64.146 Y31.602 E0.15041
G1 X64.235 Y31.517 E0.15451
G1 X64.631 Y31.158 E0.17229
G1 X64.728 Y31.074 E0.17655
G1 X65.137 Y30.734 E0.19424
G1 X65.233 Y30.657 E0.19834
G1 X65.657 Y30.333 E0.21608
G1 X65.77 Y30.252 E0.22071
G1 X66.299 Y29.887 E0.24209
G1 X66.746 Y29.601 E0.25974
G1 X66.865 Y29.529 E0.26436
G1 X67.323 Y29.265 E0.28194
G1 X67.432 Y29.205 E0.28608
G1 X67.903 Y28.959 E0.30376
G1 X68.031 Y28.896 E0.3085
G1 X68.51 Y28.674 E0.32606
G1 X68.615 Y28.628 E0.32987
G1 X69.101 Y28.425 E0.34739
G1 X69.23 Y28.374 E0.352
G1 X69.724 Y28.194 E0.36949
G1 X69.845 Y28.153 E0.37374
G1 X70.347 Y27.994 E0.39126
G1 X70.474 Y27.957 E0.39566
G1 X70.98 Y27.821 E0.41308
G1 X71.108 Y27.789 E0.41747
G1 X71.621 Y27.675 E0.43495
G1 X71.746 Y27.65 E0.43919
G1 X72.263 Y27.558 E0.45665
G1 X72.394 Y27.538 E0.46106
G1 X72.913 Y27.469 E0.47848
G1 X73.045 Y27.455 E0.48289
G1 X73.568 Y27.409 E0.50035
G1 X73.699 Y27.4 E0.50472
G1 X74.221 Y27.377 E0.5221
G1 X74.353 Y27.374 E0.52649
G1 X74.875 Y27.374 E0.54385
G1 X75.007 Y27.377 E0.54824
G1 X75.531 Y27.4 E0.56569
G1 X75.663 Y27.409 E0.57009
G1 X76.184 Y27.455 E0.58749
G1 X76.315 Y27.469 E0.59187
G1 X76.835 Y27.538 E0.60931
G1 X76.972 Y27.56 E0.61393
G1 X77.607 Y27.676 E0.6354
G1 X78.12 Y27.79 E0.65288
G1 X78.255 Y27.824 E0.65751
G1 X78.763 Y27.962 E0.67502
G1 X78.881 Y27.996 E0.6791
G1 X79.381 Y28.154 E0.69654
G1 X79.5 Y28.195 E0.70073
G1 X79.996 Y28.375 E0.71828
G1 X80.136 Y28.43 E0.72328
G1 X80.726 Y28.68 E0.74459
G1 X81.204 Y28.903 E0.76214
G1 X81.325 Y28.963 E0.76663
G1 X81.794 Y29.208 E0.78423
G1 X81.91 Y29.272 E0.78863
G1 X82.367 Y29.537 E0.8062
G1 X82.47 Y29.599 E0.8102
G1 X82.919 Y29.884 E0.82789
G1 X83.029 Y29.958 E0.8323
G1 X83.464 Y30.262 E0.84995
G1 X83.561 Y30.333 E0.85395
G1 X83.986 Y30.656 E0.8717
G1 X84.093 Y30.74 E0.87623
G1 X84.503 Y31.082 E0.89399
G1 X84.993 Y31.524 E0.91594
G1 X85.088 Y31.613 E0.92026
G1 X85.465 Y31.986 E0.9379
G1 X85.545 Y32.068 E0.94171
G1 X85.913 Y32.461 E0.95962
G1 X86.002 Y32.561 E0.96407
G1 X86.352 Y32.97 E0.98198
G1 X86.428 Y33.062 E0.98595
G1 X86.762 Y33.485 E1.00387
G1 X86.841 Y33.59 E1.00824
G1 X87.156 Y34.027 E1.02616
G1 X87.222 Y34.122 E1.03001
G1 X87.522 Y34.574 E1.04805
G1 X87.593 Y34.687 E1.05249
G1 X87.872 Y35.151 E1.0705
G1 X87.927 Y35.246 E1.07415
G1 X88.19 Y35.722 E1.09224
G1 X88.247 Y35.831 E1.09633
G1 X88.491 Y36.319 E1.11447
G1 X88.547 Y36.437 E1.11882
G1 X88.769 Y36.934 E1.13692
G1 X88.815 Y37.043 E1.14086
G1 X89.018 Y37.55 E1.15902
G1 X89.062 Y37.665 E1.16312
G1 X89.244 Y38.18 E1.18129
G1 X89.443 Y38.818 E1.20351
G1 X89.475 Y38.93 E1.20739
G1 X89.616 Y39.458 E1.22556
G1 X89.646 Y39.581 E1.22978
G1 X89.789 Y40.231 E1.25191
G1 X89.887 Y40.771 E1.27017
G1 X89.982 Y41.429 E1.29228
G1 X89.997 Y41.55 E1.29633
G1 X90.052 Y42.098 E1.31465
G1 X90.062 Y42.223 E1.31882
G1 X90.094 Y42.771 E1.33708
G1 X90.109 Y43.436 E1.3592
G1 X90.109 Y43.551 E1.36303
G1 X90.099 Y44.095 E1.38112
G1 X90.095 Y44.218 E1.38522
G1 X90.062 Y44.773 E1.40371
G1 X90.052 Y44.896 E1.40781
G1 X89.997 Y45.441 E1.42603
G1 X89.982 Y45.56 E1.43002
G1 X89.887 Y46.221 E1.45223
G1 X89.789 Y46.761 E1.47049
G1 X89.646 Y47.411 E1.49262
G1 X89.616 Y47.535 E1.49687
G1 X89.474 Y48.066 E1.51515
G1 X89.443 Y48.175 E1.51892
G1 X89.282 Y48.697 E1.53709
G1 X89.244 Y48.813 E1.54115
G1 X89.062 Y49.328 E1.55931
G1 X89.018 Y49.443 E1.56341
G1 X88.815 Y49.95 E1.58157
G1 X88.766 Y50.066 E1.58576
G1 X88.542 Y50.564 E1.60392
G1 X88.249 Y51.156 E1.62589
G1 X88.195 Y51.261 E1.62982
G1 X87.934 Y51.737 E1.64788
G1 X87.871 Y51.847 E1.65209
G1 X87.59 Y52.312 E1.67016
G1 X87.225 Y52.866 E1.69223
G1 X87.156 Y52.966 E1.69627
G1 X86.839 Y53.405 E1.71428
G1 X86.762 Y53.507 E1.71853
G1 X86.429 Y53.929 E1.73641
G1 X86.353 Y54.022 E1.7404
G1 X86.002 Y54.432 E1.75835
G1 X85.918 Y54.526 E1.76255
G1 X85.549 Y54.922 E1.78055
G1 X85.458 Y55.015 E1.78488
G1 X85.076 Y55.391 E1.80271
G1 X84.981 Y55.481 E1.80706
G1 X84.584 Y55.839 E1.82484
G1 X84.497 Y55.915 E1.82868
G1 X84.087 Y56.257 E1.84644
G1 X83.984 Y56.339 E1.85082
G1 X83.559 Y56.663 E1.86859
G1 X83.455 Y56.739 E1.87288
G1 X83.02 Y57.042 E1.89051
G1 X82.918 Y57.11 E1.89459
G1 X82.471 Y57.395 E1.91222
G1 X82.358 Y57.463 E1.9166
G1 X81.899 Y57.728 E1.93423
G1 X81.784 Y57.791 E1.93859
G1 X81.315 Y58.035 E1.95618
G1 X81.194 Y58.095 E1.96067
G1 X80.714 Y58.318 E1.97827
G1 X80.599 Y58.368 E1.98244
G1 X80.114 Y58.569 E1.99991
G1 X79.998 Y58.614 E2.00404
G1 X79.502 Y58.796 E2.02162
G1 X79.375 Y58.84 E2.02609
G1 X78.873 Y58.999 E2.0436
G1 X78.751 Y59.035 E2.04783
G1 X78.245 Y59.172 E2.06527
G1 X78.108 Y59.206 E2.06996
G1 X77.596 Y59.319 E2.0874
G1 X77.475 Y59.343 E2.0915
G1 X76.958 Y59.435 E2.10897
G1 X76.821 Y59.456 E2.11358
G1 X76.301 Y59.524 E2.13102
G1 X76.176 Y59.537 E2.1352
G1 X75.655 Y59.583 E2.1526
G1 X75.523 Y59.592 E2.157
G1 X74.999 Y59.615 E2.17444
G1 X74.867 Y59.618 E2.17883
G1 X74.345 Y59.618 E2.1962
G1 X74.213 Y59.615 E2.20059
G1 X73.691 Y59.592 E2.21797
G1 X73.56 Y59.583 E2.22233
G1 X73.037 Y59.537 E2.2398
G1 X72.91 Y59.524 E2.24404
G1 X72.391 Y59.456 E2.26145
G1 X72.25 Y59.434 E2.2662
G1 X71.733 Y59.341 E2.28367
G1 X71.617 Y59.318 E2.2876
G1 X71.105 Y59.205 E2.30504
G1 X70.964 Y59.17 E2.30987
G1 X70.457 Y59.032 E2.32735
G1 X70.336 Y58.996 E2.33155
G1 X69.836 Y58.837 E2.349
G1 X69.717 Y58.796 E2.35319
G1 X69.221 Y58.615 E2.37075
G1 X69.092 Y58.565 E2.37535
G1 X68.604 Y58.361 E2.39294
G1 X68.49 Y58.311 E2.39708
G1 X68.013 Y58.088 E2.41459
G1 X67.899 Y58.031 E2.41883
G1 X67.43 Y57.787 E2.43642
G1 X67.313 Y57.723 E2.44085
G1 X66.855 Y57.458 E2.45845
G1 X66.747 Y57.392 E2.46266
G1 X66.299 Y57.107 E2.48032
G1 X66.193 Y57.037 E2.48455
G1 X65.757 Y56.733 E2.50223
G1 X65.653 Y56.657 E2.50651
G1 X65.231 Y56.335 E2.52416
G1 X65.125 Y56.251 E2.52866
G1 X64.714 Y55.907 E2.54649
G1 X64.231 Y55.472 E2.56811
G1 X64.136 Y55.382 E2.57246
G1 X63.675 Y54.925 E2.59405
G1 X63.307 Y54.532 E2.61196
G1 X63.215 Y54.428 E2.61658
G1 X62.794 Y53.932 E2.63822
G1 X62.459 Y53.508 E2.65619
G1 X62.379 Y53.402 E2.66061
G1 X62.064 Y52.965 E2.67852
G1 X61.998 Y52.87 E2.68237
G1 X61.698 Y52.418 E2.70041
G1 X61.629 Y52.309 E2.7047
G1 X61.349 Y51.845 E2.72273
G1 X61.289 Y51.74 E2.72675
G1 X61.028 Y51.265 E2.74478
G1 X60.972 Y51.157 E2.74882
G1 X60.729 Y50.669 E2.76696
G1 X60.676 Y50.558 E2.77105
G1 X60.454 Y50.062 E2.78912
G1 X60.408 Y49.954 E2.79303
G1 X60.204 Y49.446 E2.81123
G1 X60.159 Y49.328 E2.81543
G1 X59.977 Y48.813 E2.8336
G1 X59.94 Y48.701 E2.83752
G1 X59.778 Y48.178 E2.85573
G1 X59.744 Y48.058 E2.85988
G1 X59.604 Y47.529 E2.87808
G1 X59.576 Y47.416 E2.88195
G1 X59.456 Y46.88 E2.90022
G1 X59.433 Y46.766 E2.90409
G1 X59.334 Y46.226 E2.92235
G1 X59.314 Y46.1 E2.92659
G1 X59.238 Y45.556 E2.94486
G1 X59.224 Y45.441 E2.94872
G1 X59.169 Y44.894 E2.967
G1 X59.159 Y44.774 E2.97101
G1 X59.126 Y44.226 E2.98927
G1 X59.111 Y43.556 E3.01156
G1 X59.111 Y43.436 E3.01555
G1 X59.126 Y42.767 E3.0378
G1 X59.159 Y42.219 E3.05606
G1 X59.169 Y42.099 E3.06007
G1 X59.224 Y41.551 E3.07839
G1 X59.238 Y41.435 E3.08227
G1 X59.314 Y40.892 E3.10051
G1 X59.334 Y40.768 E3.10469
G1 X59.454 Y40.121 E3.12657
G1 X59.572 Y39.586 E3.1448
G1 X59.605 Y39.454 E3.14932
G1 X59.747 Y38.925 E3.16754
G1 X59.779 Y38.814 E3.17138
G1 X59.941 Y38.292 E3.18956
G1 X59.977 Y38.183 E3.19338
G1 X60.159 Y37.667 E3.21158
G1 X60.203 Y37.55 E3.21573
G1 X60.406 Y37.043 E3.2339
G1 X60.453 Y36.932 E3.23791
G1 X60.676 Y36.434 E3.25606
G1 X60.731 Y36.318 E3.26032
G1 X60.974 Y35.832 E3.2784
G1 X61.025 Y35.734 E3.28207
G1 X61.286 Y35.257 E3.30016
G1 X61.353 Y35.14 E3.30464
G0 F4800 X61.695 Y35.348
G1 F2100 X61.976 Y34.885 E3.32265
G1 X62.33 Y34.348 E3.34405
G1 X62.389 Y34.261 E3.34754
G1 X62.705 Y33.823 E3.36551
G1 X62.772 Y33.735 E3.36919
G1 X63.106 Y33.311 E3.38714
G1 X63.177 Y33.225 E3.39085
G1 X63.596 Y32.74 E3.41216
G1 X63.966 Y32.343 E3.43021
G1 X64.044 Y32.263 E3.43393
G1 X64.426 Y31.887 E3.45176
G1 X64.9 Y31.455 E3.47309
G1 X64.984 Y31.382 E3.47679
G1 X65.476 Y30.975 E3.49803
G1 X65.9 Y30.651 E3.51578
G1 X65.998 Y30.58 E3.5198
G1 X66.435 Y30.277 E3.53749
G1 X66.962 Y29.938 E3.55833
G1 X67.065 Y29.875 E3.56234
G1 X67.523 Y29.611 E3.57993
G1 X67.617 Y29.559 E3.5835
G1 X68.088 Y29.313 E3.60117
G1 X68.199 Y29.259 E3.60528
G1 X68.678 Y29.037 E3.62284
G1 X68.769 Y28.997 E3.62614
G1 X69.255 Y28.794 E3.64366
G1 X69.367 Y28.75 E3.64766
G1 X69.861 Y28.57 E3.66515
G1 X69.966 Y28.534 E3.66884
G1 X70.468 Y28.375 E3.68636
G1 X70.578 Y28.343 E3.69017
G1 X71.084 Y28.207 E3.7076
G1 X71.195 Y28.18 E3.71139
G1 X71.708 Y28.066 E3.72887
G1 X71.816 Y28.044 E3.73254
G1 X72.333 Y27.952 E3.75001
G1 X72.446 Y27.935 E3.75381
G1 X72.965 Y27.866 E3.77122
G1 X73.08 Y27.853 E3.77507
G1 X73.603 Y27.807 E3.79253
G1 X73.717 Y27.8 E3.79633
G1 X74.239 Y27.777 E3.81371
G1 X74.353 Y27.774 E3.8175
G1 X74.875 Y27.774 E3.83486
G1 X74.989 Y27.777 E3.83866
G1 X75.513 Y27.8 E3.8561
G1 X75.628 Y27.807 E3.85993
G1 X76.149 Y27.853 E3.87733
G1 X76.262 Y27.866 E3.88111
G1 X76.782 Y27.935 E3.89856
G1 X76.901 Y27.953 E3.90256
G1 X77.417 Y28.046 E3.92
G1 X77.52 Y28.067 E3.9235
G1 X78.033 Y28.181 E3.94098
G1 X78.151 Y28.21 E3.94502
G1 X78.659 Y28.348 E3.96253
G1 X78.76 Y28.378 E3.96603
G1 X79.26 Y28.536 E3.98347
G1 X79.364 Y28.571 E3.98712
G1 X79.86 Y28.751 E4.00467
G1 X79.981 Y28.798 E4.00899
G1 X80.466 Y29.002 E4.02649
G1 X81.035 Y29.266 E4.04735
G1 X81.14 Y29.317 E4.05123
G1 X81.609 Y29.562 E4.06883
G1 X82.166 Y29.883 E4.09021
G1 X82.255 Y29.937 E4.09368
G1 X82.704 Y30.222 E4.11137
G1 X82.8 Y30.286 E4.1152
G1 X83.235 Y30.59 E4.13285
G1 X83.319 Y30.651 E4.13631
G1 X83.744 Y30.974 E4.15406
G1 X83.836 Y31.047 E4.15797
G1 X84.246 Y31.389 E4.17573
G1 X84.328 Y31.46 E4.17933
G1 X84.725 Y31.82 E4.19716
G1 X84.807 Y31.898 E4.20092
G1 X85.184 Y32.271 E4.21856
G1 X85.253 Y32.342 E4.22185
G1 X85.621 Y32.735 E4.23976
G1 X85.698 Y32.822 E4.24363
G1 X86.114 Y33.31 E4.26495
G1 X86.448 Y33.733 E4.28288
G1 X86.516 Y33.824 E4.28666
G1 X86.831 Y34.261 E4.30457
G1 X86.888 Y34.343 E4.3079
G1 X87.188 Y34.795 E4.32594
G1 X87.25 Y34.893 E4.3298
G1 X87.577 Y35.44 E4.35099
G1 X87.84 Y35.916 E4.36908
G1 X87.89 Y36.01 E4.37262
G1 X88.134 Y36.498 E4.39077
G1 X88.182 Y36.601 E4.39455
G1 X88.404 Y37.098 E4.41265
G1 X88.444 Y37.192 E4.41605
G1 X88.647 Y37.699 E4.43421
G1 X88.866 Y38.314 E4.45593
G1 X88.899 Y38.412 E4.45937
G1 X89.061 Y38.936 E4.47761
G1 X89.089 Y39.033 E4.48097
G1 X89.23 Y39.561 E4.49914
G1 X89.256 Y39.667 E4.50277
G1 X89.375 Y40.202 E4.521
G1 X89.493 Y40.843 E4.54268
G1 X89.509 Y40.942 E4.54602
G1 X89.586 Y41.485 E4.56426
G1 X89.599 Y41.59 E4.56778
G1 X89.654 Y42.138 E4.58609
G1 X89.663 Y42.246 E4.5897
G1 X89.695 Y42.794 E4.60796
G1 X89.709 Y43.444 E4.62958
G1 X89.71 Y43.544 E4.63291
G1 X89.7 Y44.088 E4.651
G1 X89.662 Y44.749 E4.67303
G1 X89.654 Y44.856 E4.67659
G1 X89.599 Y45.401 E4.69481
G1 X89.509 Y46.049 E4.71657
G1 X89.493 Y46.149 E4.71994
G1 X89.375 Y46.79 E4.74162
G1 X89.256 Y47.325 E4.75985
G1 X89.23 Y47.432 E4.76351
G1 X89.088 Y47.963 E4.78179
G1 X89.061 Y48.057 E4.78504
G1 X88.9 Y48.579 E4.80321
G1 X88.684 Y49.194 E4.82489
G1 X88.647 Y49.294 E4.82844
G1 X88.444 Y49.801 E4.8466
G1 X88.401 Y49.902 E4.85026
G1 X88.177 Y50.4 E4.86842
G1 X87.891 Y50.978 E4.88987
G1 X87.844 Y51.069 E4.89327
G1 X87.583 Y51.545 E4.91133
G1 X87.528 Y51.64 E4.91498
G1 X87.247 Y52.105 E4.93305
G1 X87.19 Y52.196 E4.93662
G1 X86.892 Y52.646 E4.95457
G1 X86.832 Y52.732 E4.95806
G1 X86.515 Y53.171 E4.97607
G1 X86.448 Y53.26 E4.97978
G1 X86.115 Y53.682 E4.99765
G1 X86.049 Y53.762 E5.0011
G1 X85.698 Y54.172 E5.01906
G1 X85.625 Y54.253 E5.02268
G1 X85.256 Y54.649 E5.04069
G1 X85.178 Y54.73 E5.04443
G1 X84.796 Y55.106 E5.06225
G1 X84.713 Y55.184 E5.06604
G1 X84.316 Y55.542 E5.08382
G1 X84.24 Y55.608 E5.08717
G1 X83.83 Y55.95 E5.10493
G1 X83.741 Y56.021 E5.10871
G1 X83.316 Y56.345 E5.12649
G1 X83.226 Y56.41 E5.13018
G1 X82.791 Y56.713 E5.14781
G1 X82.703 Y56.772 E5.15134
G1 X82.256 Y57.057 E5.16897
G1 X82.158 Y57.117 E5.17279
G1 X81.699 Y57.382 E5.19042
G1 X81.599 Y57.437 E5.19421
G1 X81.13 Y57.681 E5.2118
G1 X81.025 Y57.732 E5.21568
G1 X80.545 Y57.955 E5.23328
G1 X80.445 Y57.999 E5.23692
G1 X79.96 Y58.2 E5.25438
G1 X79.861 Y58.239 E5.25792
G1 X79.365 Y58.421 E5.27549
G1 X79.254 Y58.459 E5.27939
G1 X78.752 Y58.618 E5.29691
G1 X78.646 Y58.649 E5.30058
G1 X78.14 Y58.786 E5.31802
G1 X78.021 Y58.815 E5.32209
G1 X77.509 Y58.928 E5.33953
G1 X77.405 Y58.949 E5.34306
G1 X76.888 Y59.041 E5.36052
G1 X76.769 Y59.059 E5.36453
G1 X76.249 Y59.127 E5.38197
G1 X76.141 Y59.139 E5.38558
G1 X75.62 Y59.185 E5.40298
G1 X75.505 Y59.192 E5.40681
G1 X74.981 Y59.215 E5.42426
G1 X74.867 Y59.218 E5.42805
G1 X74.345 Y59.218 E5.44541
G1 X74.231 Y59.215 E5.4492
G1 X73.709 Y59.192 E5.46658
G1 X73.595 Y59.185 E5.47038
G1 X73.072 Y59.139 E5.48784
G1 X72.962 Y59.127 E5.49152
G1 X72.443 Y59.059 E5.50893
G1 X72.321 Y59.04 E5.51304
G1 X71.804 Y58.947 E5.53051
G1 X71.704 Y58.927 E5.5339
G1 X71.192 Y58.814 E5.55134
G1 X71.069 Y58.784 E5.55555
G1 X70.562 Y58.646 E5.57303
G1 X70.457 Y58.615 E5.57667
G1 X69.957 Y58.456 E5.59412
G1 X69.358 Y58.239 E5.61531
G1 X69.246 Y58.196 E5.6193
G1 X68.758 Y57.992 E5.63689
G1 X68.183 Y57.725 E5.65798
G1 X68.084 Y57.677 E5.66164
G1 X67.615 Y57.433 E5.67922
G1 X67.513 Y57.376 E5.68311
G1 X66.961 Y57.055 E5.70435
G1 X66.513 Y56.77 E5.72201
G1 X66.422 Y56.709 E5.72565
G1 X65.986 Y56.405 E5.74333
G1 X65.896 Y56.339 E5.74704
G1 X65.474 Y56.017 E5.7647
G1 X65.382 Y55.944 E5.7686
G1 X64.971 Y55.6 E5.78643
G1 X64.499 Y55.175 E5.80756
G1 X64.417 Y55.098 E5.8113
G1 X64.039 Y54.725 E5.82896
G1 X63.967 Y54.651 E5.83239
G1 X63.599 Y54.258 E5.8503
G1 X63.519 Y54.169 E5.85428
G1 X63.17 Y53.76 E5.87216
G1 X62.773 Y53.26 E5.8934
G1 X62.704 Y53.168 E5.89722
G1 X62.389 Y52.731 E5.91514
G1 X62.332 Y52.649 E5.91846
G1 X62.032 Y52.197 E5.93651
G1 X61.972 Y52.102 E5.94024
G1 X61.639 Y51.547 E5.96177
G1 X61.378 Y51.072 E5.9798
G1 X61.087 Y50.491 E6.00141
G1 X61.041 Y50.394 E6.00498
G1 X60.779 Y49.805 E6.02642
G1 X60.575 Y49.297 E6.04463
G1 X60.355 Y48.679 E6.06645
G1 X60.322 Y48.582 E6.06985
G1 X60.16 Y48.059 E6.08806
G1 X59.991 Y47.426 E6.10986
G1 X59.967 Y47.329 E6.11318
G1 X59.847 Y46.793 E6.13145
G1 X59.827 Y46.694 E6.13481
G1 X59.728 Y46.154 E6.15307
G1 X59.71 Y46.045 E6.15674
G1 X59.634 Y45.501 E6.17501
G1 X59.622 Y45.401 E6.17836
G1 X59.567 Y44.854 E6.19665
G1 X59.559 Y44.75 E6.20011
G1 X59.526 Y44.202 E6.21837
G1 X59.522 Y44.098 E6.22184
G1 X59.511 Y43.548 E6.24013
G1 X59.511 Y43.444 E6.24359
G1 X59.522 Y42.895 E6.26185
G1 X59.526 Y42.791 E6.26532
G1 X59.559 Y42.243 E6.28358
G1 X59.567 Y42.139 E6.28705
G1 X59.622 Y41.591 E6.30536
G1 X59.634 Y41.491 E6.30871
G1 X59.71 Y40.948 E6.32695
G1 X59.727 Y40.84 E6.33059
G1 X59.826 Y40.299 E6.34888
G1 X59.963 Y39.672 E6.37022
G1 X59.991 Y39.558 E6.37413
G1 X60.133 Y39.029 E6.39235
G1 X60.161 Y38.932 E6.3957
G1 X60.323 Y38.41 E6.41388
G1 X60.354 Y38.316 E6.41718
G1 X60.536 Y37.8 E6.43537
