;FLAVOR:Marlin
;TIME:14200
;Filament used: 19.3951m
;Layer height: 0.25
;MINX:82.2
;MINY:37.645
;MINZ:0.2
;MAXX:152.8
;MAXY:110.245
;MAXZ:50.15
;Generated with Cura_SteamEngine master
M140 S30
M105
M190 S30
M104 S218
M105
M109 S218
M82 ;absolute extrusion mode
; Ender 3 Custom Start G-code
G92 E0 ; Reset Extruder
G28 ; Home all axes
G1 Z2.0 F3000 ; Move Z Axis up little to prevent scratching of Heat Bed
G1 X0.1 Y20 Z0.3 F5000.0 ; Move to start position
G1 X0.1 Y200.0 Z0.3 F1500.0 E15 ; Draw the first line
G1 X0.4 Y200.0 Z0.3 F5000.0 ; Move to side a little
G1 X0.4 Y20 Z0.3 F1500.0 E30 ; Draw the second line
G92 E0 ; Reset Extruder
G1 Z2.0 F3000 ; Move Z Axis up little to prevent scratching of Heat Bed
G1 X5 Y20 Z0.3 F5000.0 ; Move over to prevent blob squish
G92 E0
G92 E0
G1 F2700 E-7
;LAYER_COUNT:200
;LAYER:0
M106 S38.3
G1 F300 Z0.4
G0 F4800 X83.179 Y41.779 Z0.4
;TYPE:SKIRT
G1 F300 Z0.2
G1 F2700 E0
G1 F2100 X83.597 Y41.108 E0.02629
G1 X84.08 Y40.484 E0.05254
G1 X84.485 Y40.047 E0.07236
G1 X84.602 Y39.93 E0.07786
G1 X85.188 Y39.4 E0.10414
G1 X85.824 Y38.933 E0.13038
G1 X86.504 Y38.532 E0.15664
G1 X87.222 Y38.202 E0.18292
G1 X87.969 Y37.947 E0.20917
G1 X88.738 Y37.768 E0.23544
G1 X89.522 Y37.668 E0.26172
G1 X90.117 Y37.645 E0.28153
G1 X144.883 Y37.645 E2.10305
G1 X145.672 Y37.685 E2.12933
G1 X146.452 Y37.804 E2.15557
G1 X147.217 Y38.002 E2.18185
G1 X147.957 Y38.276 E2.2081
G1 X148.666 Y38.624 E2.23437
G1 X149.337 Y39.042 E2.26066
G1 X149.961 Y39.525 E2.28691
G1 X150.398 Y39.93 E2.30672
G1 X150.515 Y40.047 E2.31223
G1 X151.045 Y40.633 E2.33851
G1 X151.512 Y41.269 E2.36475
G1 X151.913 Y41.949 E2.39101
G1 X152.243 Y42.667 E2.41729
G1 X152.498 Y43.414 E2.44354
G1 X152.677 Y44.183 E2.4698
G1 X152.777 Y44.967 E2.49609
G1 X152.8 Y45.562 E2.51589
G1 X152.8 Y102.328 E4.40394
G1 X152.76 Y103.117 E4.43022
G1 X152.641 Y103.897 E4.45646
G1 X152.443 Y104.662 E4.48274
G1 X152.169 Y105.402 E4.50899
G1 X151.821 Y106.111 E4.53525
G1 X151.403 Y106.782 E4.56155
G1 X150.92 Y107.406 E4.58779
G1 X150.515 Y107.843 E4.60761
G1 X150.398 Y107.96 E4.61311
G1 X149.812 Y108.49 E4.63939
G1 X149.176 Y108.957 E4.66564
G1 X148.496 Y109.358 E4.69189
G1 X147.778 Y109.688 E4.71818
G1 X147.031 Y109.943 E4.74443
G1 X146.262 Y110.122 E4.77069
G1 X145.478 Y110.222 E4.79698
G1 X144.883 Y110.245 E4.81678
G1 X90.117 Y110.245 E6.63831
G1 X89.328 Y110.205 E6.66458
G1 X88.548 Y110.086 E6.69083
G1 X87.783 Y109.888 E6.71711
G1 X87.043 Y109.614 E6.74335
G1 X86.334 Y109.266 E6.76962
G1 X85.663 Y108.848 E6.79592
G1 X85.039 Y108.365 E6.82216
G1 X84.602 Y107.96 E6.84198
G1 X84.485 Y107.843 E6.84748
G1 X83.955 Y107.257 E6.87376
G1 X83.488 Y106.621 E6.9
G1 X83.087 Y105.941 E6.92626
G1 X82.757 Y105.223 E6.95254
G1 X82.502 Y104.476 E6.9788
G1 X82.323 Y103.707 E7.00506
G1 X82.223 Y102.923 E7.03134
G1 X82.2 Y102.328 E7.05115
G1 X82.2 Y45.562 E8.93919
G1 X82.24 Y44.773 E8.96547
G1 X82.359 Y43.993 E8.99171
G1 X82.557 Y43.228 E9.018
G1 X82.831 Y42.488 E9.04424
G1 X83.179 Y41.779 E9.07051
G0 F4800 X83.578 Y41.886
G1 F2100 X83.994 Y41.239 E9.09609
G1 X84.475 Y40.639 E9.12167
G1 X84.767 Y40.329 E9.13583
G1 X84.884 Y40.212 E9.14134
G1 X85.456 Y39.698 E9.16692
G1 X86.078 Y39.245 E9.19251
G1 X86.743 Y38.859 E9.21808
G1 X87.445 Y38.544 E9.24367
G1 X88.176 Y38.304 E9.26926
G1 X88.927 Y38.141 E9.29482
G1 X89.692 Y38.057 E9.32042
G1 X90.117 Y38.045 E9.33456
G1 X144.883 Y38.045 E11.15609
G1 X145.651 Y38.085 E11.18167
G1 X146.411 Y38.204 E11.20725
G1 X147.154 Y38.402 E11.23283
G1 X147.873 Y38.676 E11.25842
G1 X148.559 Y39.023 E11.28399
G1 X149.206 Y39.439 E11.30957
G1 X149.806 Y39.92 E11.33515
G1 X150.116 Y40.212 E11.34931
G1 X150.233 Y40.329 E11.35481
G1 X150.747 Y40.901 E11.38039
G1 X151.2 Y41.523 E11.40599
G1 X151.586 Y42.188 E11.43156
G1 X151.901 Y42.89 E11.45715
G1 X152.141 Y43.621 E11.48274
G1 X152.304 Y44.372 E11.5083
G1 X152.388 Y45.137 E11.5339
G1 X152.4 Y45.562 E11.54804
G1 X152.4 Y102.328 E13.43608
G1 X152.36 Y103.096 E13.46166
G1 X152.241 Y103.856 E13.48725
G1 X152.043 Y104.599 E13.51282
G1 X151.769 Y105.318 E13.53841
G1 X151.422 Y106.004 E13.56398
G1 X151.006 Y106.651 E13.58957
G1 X150.525 Y107.251 E13.61514
G1 X150.233 Y107.561 E13.62931
G1 X150.116 Y107.678 E13.63481
G1 X149.544 Y108.192 E13.66039
G1 X148.922 Y108.645 E13.68598
G1 X148.257 Y109.031 E13.71156
G1 X147.555 Y109.346 E13.73715
G1 X146.824 Y109.586 E13.76274
G1 X146.073 Y109.749 E13.7883
G1 X145.308 Y109.833 E13.81389
G1 X144.883 Y109.845 E13.82804
G1 X90.117 Y109.845 E15.64956
G1 X89.349 Y109.805 E15.67514
G1 X88.589 Y109.686 E15.70072
G1 X87.846 Y109.488 E15.7263
G1 X87.127 Y109.214 E15.75189
G1 X86.441 Y108.867 E15.77746
G1 X85.794 Y108.451 E15.80304
G1 X85.194 Y107.97 E15.82862
G1 X84.884 Y107.678 E15.84279
G1 X84.767 Y107.561 E15.84829
G1 X84.253 Y106.989 E15.87387
G1 X83.8 Y106.367 E15.89946
G1 X83.414 Y105.702 E15.92503
G1 X83.099 Y105 E15.95062
G1 X82.859 Y104.269 E15.97621
G1 X82.696 Y103.518 E16.00177
G1 X82.612 Y102.753 E16.02737
G1 X82.6 Y102.328 E16.04151
G1 X82.6 Y45.562 E17.92956
G1 X82.64 Y44.794 E17.95514
G1 X82.759 Y44.034 E17.98072
G1 X82.957 Y43.291 E18.0063
G1 X83.231 Y42.572 E18.03189
G1 X83.578 Y41.886 E18.05746
G0 F4800 X83.977 Y41.996
G1 F2100 X84.392 Y41.373 E18.08235
G1 X85.05 Y40.612 E18.11582
G1 X85.167 Y40.495 E18.12132
G1 X85.724 Y39.995 E18.14621
G1 X86.33 Y39.558 E18.17106
G1 X86.98 Y39.187 E18.19596
G1 X87.666 Y38.888 E18.22085
G1 X88.38 Y38.664 E18.24573
G1 X89.113 Y38.517 E18.2706
G1 X90.117 Y38.445 E18.30408
G1 X144.883 Y38.445 E20.1256
G1 X145.63 Y38.485 E20.15048
G1 X146.368 Y38.604 E20.17535
G1 X147.09 Y38.802 E20.20025
G1 X147.786 Y39.075 E20.22511
G1 X148.449 Y39.422 E20.25
G1 X149.072 Y39.837 E20.2749
G1 X149.833 Y40.495 E20.30836
G1 X149.95 Y40.612 E20.31386
G1 X150.45 Y41.169 E20.33876
G1 X150.887 Y41.775 E20.36361
G1 X151.258 Y42.425 E20.3885
G1 X151.557 Y43.111 E20.41339
G1 X151.781 Y43.825 E20.43828
G1 X151.928 Y44.558 E20.46315
G1 X152 Y45.562 E20.49662
G1 X152 Y102.328 E22.38467
G1 X151.96 Y103.075 E22.40955
G1 X151.841 Y103.813 E22.43441
G1 X151.643 Y104.535 E22.45931
G1 X151.37 Y105.231 E22.48418
G1 X151.023 Y105.894 E22.50907
G1 X150.608 Y106.517 E22.53397
G1 X149.95 Y107.278 E22.56743
G1 X149.833 Y107.395 E22.57293
G1 X149.276 Y107.895 E22.59783
G1 X148.67 Y108.332 E22.62267
G1 X148.02 Y108.703 E22.64757
G1 X147.334 Y109.002 E22.67246
G1 X146.62 Y109.226 E22.69735
G1 X145.887 Y109.373 E22.72221
G1 X144.883 Y109.445 E22.75569
G1 X90.117 Y109.445 E24.57721
G1 X89.37 Y109.405 E24.6021
G1 X88.632 Y109.286 E24.62696
G1 X87.91 Y109.088 E24.65186
G1 X87.214 Y108.815 E24.67673
G1 X86.551 Y108.468 E24.70161
G1 X85.928 Y108.053 E24.72651
G1 X85.167 Y107.395 E24.75997
G1 X85.05 Y107.278 E24.76548
G1 X84.55 Y106.721 E24.79037
G1 X84.113 Y106.115 E24.81522
G1 X83.742 Y105.465 E24.84011
G1 X83.443 Y104.779 E24.865
G1 X83.219 Y104.065 E24.88989
G1 X83.072 Y103.332 E24.91476
G1 X83 Y102.328 E24.94824
G1 X83 Y45.562 E26.83628
G1 X83.04 Y44.815 E26.86116
G1 X83.159 Y44.077 E26.88602
G1 X83.357 Y43.355 E26.91093
G1 X83.63 Y42.659 E26.93579
G1 X83.977 Y41.996 E26.96068
G0 F4800 X84.375 Y42.109
G1 F2100 X84.789 Y41.512 E26.98484
G1 X85.333 Y40.895 E27.0122
G1 X85.45 Y40.778 E27.01771
G1 X85.991 Y40.294 E27.04185
G1 X86.582 Y39.871 E27.06602
G1 X87.216 Y39.517 E27.09017
G1 X87.885 Y39.234 E27.11433
G1 X88.581 Y39.026 E27.13849
G1 X89.296 Y38.896 E27.16267
G1 X90.117 Y38.845 E27.19002
G1 X144.883 Y38.845 E29.01155
G1 X145.608 Y38.885 E29.0357
G1 X146.325 Y39.004 E29.05987
G1 X147.024 Y39.202 E29.08404
G1 X147.697 Y39.475 E29.10819
G1 X148.336 Y39.82 E29.13235
G1 X148.933 Y40.234 E29.15651
G1 X149.55 Y40.778 E29.18387
G1 X149.667 Y40.895 E29.18937
G1 X150.151 Y41.436 E29.21351
G1 X150.574 Y42.027 E29.23769
G1 X150.928 Y42.661 E29.26184
G1 X151.211 Y43.33 E29.286
G1 X151.419 Y44.026 E29.31016
G1 X151.549 Y44.741 E29.33433
G1 X151.6 Y45.562 E29.36169
G1 X151.6 Y102.328 E31.24973
G1 X151.56 Y103.053 E31.27388
G1 X151.441 Y103.77 E31.29806
G1 X151.243 Y104.469 E31.32222
G1 X150.97 Y105.142 E31.34638
G1 X150.625 Y105.781 E31.37053
G1 X150.211 Y106.378 E31.39469
G1 X149.667 Y106.995 E31.42205
G1 X149.55 Y107.112 E31.42756
G1 X149.009 Y107.596 E31.4517
G1 X148.418 Y108.019 E31.47587
G1 X147.784 Y108.373 E31.50002
G1 X147.115 Y108.656 E31.52418
G1 X146.419 Y108.864 E31.54835
G1 X145.704 Y108.994 E31.57252
G1 X144.883 Y109.045 E31.59988
G1 X90.117 Y109.045 E33.4214
G1 X89.392 Y109.005 E33.44555
G1 X88.675 Y108.886 E33.46972
G1 X87.976 Y108.688 E33.49389
G1 X87.303 Y108.415 E33.51804
G1 X86.664 Y108.07 E33.5422
G1 X86.067 Y107.656 E33.56636
G1 X85.45 Y107.112 E33.59372
G1 X85.333 Y106.995 E33.59922
G1 X84.849 Y106.454 E33.62337
G1 X84.426 Y105.863 E33.64754
G1 X84.072 Y105.229 E33.67169
G1 X83.789 Y104.56 E33.69585
G1 X83.581 Y103.864 E33.72001
G1 X83.451 Y103.149 E33.74418
G1 X83.4 Y102.328 E33.77154
G1 X83.4 Y45.562 E35.65959
G1 X83.44 Y44.837 E35.68374
G1 X83.559 Y44.12 E35.70791
G1 X83.757 Y43.421 E35.73207
G1 X84.03 Y42.748 E35.75623
G1 X84.375 Y42.109 E35.78038
G0 F4800 X84.429 Y42.841
G1 F2100 X84.774 Y42.227 E35.80381
G1 X85.185 Y41.656 E35.82721
G1 X85.616 Y41.178 E35.84861
G1 X85.733 Y41.061 E35.85412
G1 X86.258 Y40.592 E35.87753
G1 X86.833 Y40.186 E35.90094
G1 X87.451 Y39.848 E35.92437
G1 X88.102 Y39.581 E35.94777
G1 X88.78 Y39.391 E35.97119
G1 X89.475 Y39.278 E35.99461
G1 X90.117 Y39.245 E36.01599
G1 X144.883 Y39.245 E37.83752
G1 X145.586 Y39.285 E37.86094
G1 X146.28 Y39.404 E37.88436
G1 X146.955 Y39.602 E37.90775
G1 X147.604 Y39.874 E37.93116
G1 X148.218 Y40.219 E37.95458
G1 X148.789 Y40.63 E37.97798
G1 X149.267 Y41.061 E37.99939
G1 X149.384 Y41.178 E38.00489
G1 X149.853 Y41.703 E38.02831
G1 X150.259 Y42.278 E38.05172
G1 X150.597 Y42.896 E38.07515
G1 X150.864 Y43.547 E38.09855
G1 X151.054 Y44.225 E38.12197
G1 X151.167 Y44.92 E38.14539
G1 X151.2 Y45.562 E38.16677
G1 X151.2 Y102.328 E40.05481
G1 X151.16 Y103.031 E40.07823
G1 X151.041 Y103.725 E40.10165
G1 X150.843 Y104.4 E40.12505
G1 X150.571 Y105.049 E40.14845
G1 X150.226 Y105.663 E40.17188
G1 X149.815 Y106.234 E40.19528
G1 X149.384 Y106.712 E40.21668
G1 X149.267 Y106.829 E40.22219
G1 X148.742 Y107.298 E40.2456
G1 X148.167 Y107.704 E40.26901
G1 X147.549 Y108.042 E40.29244
G1 X146.898 Y108.309 E40.31585
G1 X146.22 Y108.499 E40.33926
G1 X145.525 Y108.612 E40.36268
G1 X144.883 Y108.645 E40.38406
G1 X90.117 Y108.645 E42.20559
G1 X89.414 Y108.605 E42.22901
G1 X88.72 Y108.486 E42.25243
G1 X88.045 Y108.288 E42.27582
G1 X87.396 Y108.016 E42.29923
G1 X86.782 Y107.671 E42.32265
G1 X86.211 Y107.26 E42.34605
G1 X85.733 Y106.829 E42.36746
G1 X85.616 Y106.712 E42.37296
G1 X85.147 Y106.187 E42.39638
G1 X84.741 Y105.612 E42.41979
G1 X84.403 Y104.994 E42.44322
G1 X84.136 Y104.343 E42.46662
G1 X83.946 Y103.665 E42.49004
G1 X83.833 Y102.97 E42.51346
G1 X83.8 Y102.328 E42.53484
G1 X83.8 Y45.562 E44.42289
G1 X83.84 Y44.859 E44.44631
G1 X83.959 Y44.165 E44.46972
G1 X84.157 Y43.49 E44.49312
G1 X84.429 Y42.841 E44.51653
G0 F4800 X84.828 Y42.936
G1 F2100 X85.172 Y42.348 E44.53918
G1 X85.582 Y41.804 E44.56184
G1 X85.899 Y41.461 E44.57738
G1 X86.016 Y41.344 E44.58288
G1 X86.525 Y40.891 E44.60554
G1 X87.083 Y40.502 E44.62817
G1 X87.683 Y40.18 E44.65081
G1 X88.317 Y39.931 E44.67347
G1 X88.976 Y39.758 E44.69613
G1 X89.65 Y39.664 E44.71876
G1 X90.117 Y39.645 E44.73431
G1 X144.883 Y39.645 E46.55583
G1 X145.563 Y39.685 E46.57849
G1 X146.233 Y39.804 E46.60112
G1 X146.885 Y40.001 E46.62378
G1 X147.509 Y40.273 E46.64642
G1 X148.097 Y40.617 E46.66908
G1 X148.641 Y41.027 E46.69173
G1 X148.984 Y41.344 E46.70727
G1 X149.101 Y41.461 E46.71277
G1 X149.554 Y41.97 E46.73543
G1 X149.943 Y42.528 E46.75806
G1 X150.265 Y43.128 E46.7807
G1 X150.514 Y43.762 E46.80336
G1 X150.687 Y44.421 E46.82602
G1 X150.781 Y45.095 E46.84866
G1 X150.8 Y45.562 E46.8642
G1 X150.8 Y102.328 E48.75225
G1 X150.76 Y103.008 E48.7749
G1 X150.641 Y103.678 E48.79753
G1 X150.444 Y104.33 E48.82019
G1 X150.172 Y104.954 E48.84283
G1 X149.828 Y105.542 E48.86549
G1 X149.418 Y106.086 E48.88814
G1 X149.101 Y106.429 E48.90368
G1 X148.984 Y106.546 E48.90918
G1 X148.475 Y106.999 E48.93184
G1 X147.917 Y107.388 E48.95447
G1 X147.317 Y107.71 E48.97712
G1 X146.683 Y107.959 E48.99977
G1 X146.024 Y108.132 E49.02243
G1 X145.35 Y108.226 E49.04507
G1 X144.883 Y108.245 E49.06061
G1 X90.117 Y108.245 E50.88214
G1 X89.437 Y108.205 E50.90479
G1 X88.767 Y108.086 E50.92743
G1 X88.115 Y107.889 E50.95008
G1 X87.491 Y107.617 E50.97272
G1 X86.903 Y107.273 E50.99538
G1 X86.359 Y106.863 E51.01803
G1 X86.016 Y106.546 E51.03357
G1 X85.899 Y106.429 E51.03907
G1 X85.446 Y105.92 E51.06174
G1 X85.057 Y105.362 E51.08436
G1 X84.735 Y104.762 E51.10701
G1 X84.486 Y104.128 E51.12966
G1 X84.313 Y103.469 E51.15232
G1 X84.219 Y102.795 E51.17496
G1 X84.2 Y102.328 E51.1905
G1 X84.2 Y45.562 E53.07855
G1 X84.24 Y44.882 E53.1012
G1 X84.359 Y44.212 E53.12384
G1 X84.556 Y43.56 E53.14649
G1 X84.828 Y42.936 E53.16913
G0 F4800 X85.228 Y43.035
G1 F2100 X85.57 Y42.474 E53.19098
G1 X86.182 Y41.744 E53.22267
G1 X86.299 Y41.627 E53.22817
G1 X86.791 Y41.191 E53.25004
G1 X87.332 Y40.819 E53.27187
G1 X87.914 Y40.515 E53.29371
G1 X88.529 Y40.284 E53.31556
G1 X89.168 Y40.129 E53.33743
G1 X90.117 Y40.045 E53.36912
G1 X144.883 Y40.045 E55.19064
G1 X145.539 Y40.085 E55.2125
G1 X146.185 Y40.204 E55.23435
G1 X146.812 Y40.401 E55.25621
G1 X147.41 Y40.673 E55.27806
G1 X147.971 Y41.015 E55.29991
G1 X148.701 Y41.627 E55.3316
G1 X148.818 Y41.744 E55.3371
G1 X149.254 Y42.236 E55.35896
G1 X149.626 Y42.777 E55.3808
G1 X149.93 Y43.359 E55.40264
G1 X150.161 Y43.974 E55.42449
G1 X150.316 Y44.613 E55.44636
G1 X150.4 Y45.562 E55.47805
G1 X150.4 Y102.328 E57.36609
G1 X150.36 Y102.984 E57.38795
G1 X150.241 Y103.63 E57.4098
G1 X150.044 Y104.257 E57.43166
G1 X149.772 Y104.855 E57.45351
G1 X149.43 Y105.416 E57.47536
G1 X148.818 Y106.146 E57.50705
G1 X148.701 Y106.263 E57.51255
G1 X148.209 Y106.699 E57.53441
G1 X147.668 Y107.071 E57.55625
G1 X147.086 Y107.375 E57.57809
G1 X146.471 Y107.606 E57.59994
G1 X145.832 Y107.761 E57.62181
G1 X144.883 Y107.845 E57.6535
G1 X90.117 Y107.845 E59.47502
G1 X89.461 Y107.805 E59.49688
G1 X88.815 Y107.686 E59.51873
G1 X88.188 Y107.489 E59.54059
G1 X87.59 Y107.217 E59.56244
G1 X87.029 Y106.875 E59.58429
G1 X86.299 Y106.263 E59.61597
G1 X86.182 Y106.146 E59.62148
G1 X85.746 Y105.654 E59.64334
G1 X85.374 Y105.113 E59.66518
G1 X85.07 Y104.531 E59.68702
G1 X84.839 Y103.916 E59.70887
G1 X84.684 Y103.277 E59.73074
G1 X84.6 Y102.328 E59.76243
G1 X84.6 Y45.562 E61.65047
G1 X84.64 Y44.906 E61.67233
G1 X84.759 Y44.26 E61.69418
G1 X84.956 Y43.633 E61.71604
G1 X85.228 Y43.035 E61.73789
G0 F4800 X85.627 Y43.138
G1 F2100 X85.967 Y42.606 E61.75889
G1 X86.464 Y42.026 E61.78429
G1 X86.581 Y41.909 E61.78979
G1 X87.056 Y41.492 E61.81082
G1 X87.579 Y41.137 E61.83184
G1 X88.143 Y40.851 E61.85287
G1 X88.738 Y40.639 E61.87388
G1 X89.356 Y40.503 E61.89493
G1 X90.117 Y40.445 E61.92031
G1 X144.883 Y40.445 E63.74184
G1 X145.514 Y40.485 E63.76287
G1 X146.135 Y40.604 E63.7839
G1 X146.735 Y40.801 E63.8049
G1 X147.307 Y41.072 E63.82595
G1 X147.839 Y41.412 E63.84695
G1 X148.419 Y41.909 E63.87236
G1 X148.536 Y42.026 E63.87786
G1 X148.953 Y42.501 E63.89888
G1 X149.308 Y43.024 E63.91991
G1 X149.594 Y43.588 E63.94094
G1 X149.806 Y44.183 E63.96195
G1 X149.942 Y44.801 E63.98299
G1 X150 Y45.562 E64.00838
G1 X150 Y102.328 E65.89642
G1 X149.96 Y102.959 E65.91745
G1 X149.841 Y103.58 E65.93848
G1 X149.644 Y104.18 E65.95949
G1 X149.373 Y104.752 E65.98054
G1 X149.033 Y105.284 E66.00154
G1 X148.536 Y105.864 E66.02694
G1 X148.419 Y105.981 E66.03245
G1 X147.944 Y106.398 E66.05347
G1 X147.421 Y106.753 E66.07449
G1 X146.857 Y107.039 E66.09553
G1 X146.262 Y107.251 E66.11653
G1 X145.644 Y107.387 E66.13758
G1 X144.883 Y107.445 E66.16296
G1 X90.117 Y107.445 E67.98449
G1 X89.486 Y107.405 E68.00552
G1 X88.865 Y107.286 E68.02655
G1 X88.265 Y107.089 E68.04755
G1 X87.693 Y106.818 E68.06861
G1 X87.161 Y106.478 E68.0896
G1 X86.581 Y105.981 E68.11501
G1 X86.464 Y105.864 E68.12051
G1 X86.047 Y105.389 E68.14154
G1 X85.692 Y104.866 E68.16256
G1 X85.406 Y104.302 E68.18359
G1 X85.194 Y103.707 E68.2046
