;FLAVOR:Marlin
;TIME:533
;Filament used: 0.534876m
;Layer height: 0.3
;MINX:93.7
;MINY:25.815
;MINZ:0.2
;MAXX:141.3
;MAXY:45.415
;MAXZ:8.2
;Generated with Cura_SteamEngine master
M140 S30
M105
M190 S30
M104 S218
M105
M109 S218
M82 ;absolute extrusion mode
; Ender 3 Custom Start G-code
G92 E0 ; Reset Extruder
G28 ; Home all axes
G1 Z2.0 F3000 ; Move Z Axis up little to prevent scratching of Heat Bed
G1 X0.1 Y20 Z0.3 F5000.0 ; Move to start position
G1 X0.1 Y200.0 Z0.3 F1500.0 E15 ; Draw the first line
G1 X0.4 Y200.0 Z0.3 F5000.0 ; Move to side a little
G1 X0.4 Y20 Z0.3 F1500.0 E30 ; Draw the second line
G92 E0 ; Reset Extruder
G1 Z2.0 F3000 ; Move Z Axis up little to prevent scratching of Heat Bed
G1 X5 Y20 Z0.3 F5000.0 ; Move over to prevent blob squish
G92 E0
G92 E0
G1 F2700 E-5
;LAYER_COUNT:27
;LAYER:0
M107
G1 F300 Z0.4
;MESH:ClawLimitSwitch_X_Left.stl
G0 F4800 X133.3 Y37.415 Z0.4
;TYPE:WALL-INNER
G1 F300 Z0.2
G1 F2700 E0
G1 F1800 X133.3 Y27.415 E0.3326
G1 X139.7 Y27.415 E0.54547
G1 X139.7 Y43.815 E1.09093
G1 X95.3 Y43.815 E2.56768
G1 X95.3 Y37.415 E2.78055
G1 X133.3 Y37.415 E4.04443
G0 F4800 X132.9 Y37.015
G1 F1800 X132.9 Y27.015 E4.37703
G1 X140.1 Y27.015 E4.61651
G1 X140.1 Y44.215 E5.18858
G1 X94.9 Y44.215 E6.69194
G1 X94.9 Y37.015 E6.93141
G1 X132.9 Y37.015 E8.1953
G0 F4800 X132.5 Y36.615
G1 F1800 X132.5 Y26.615 E8.5279
G1 X140.5 Y26.615 E8.79398
G1 X140.5 Y44.615 E9.39266
G1 X94.5 Y44.615 E10.92263
G1 X94.5 Y36.615 E11.18871
G1 X132.5 Y36.615 E12.45259
G0 F4800 X132.1 Y36.215
G1 F1800 X132.1 Y26.215 E12.7852
G1 X140.9 Y26.215 E13.07789
G1 X140.9 Y45.015 E13.70318
G1 X94.1 Y45.015 E15.25975
G1 X94.1 Y36.215 E15.55244
G1 X132.1 Y36.215 E16.81632
G0 F4800 X131.7 Y35.815
;TYPE:WALL-OUTER
G1 F1800 X131.7 Y25.815 E17.14893
G1 X141.3 Y25.815 E17.46822
G1 X141.3 Y45.415 E18.12012
G1 X93.7 Y45.415 E19.7033
G1 X93.7 Y35.815 E20.0226
G1 X131.7 Y35.815 E21.28649
G1 F2700 E16.28649
G1 F300 Z0.4
G0 F4800 X133.69 Y37.805 Z0.4
;TYPE:SKIN
G1 F300 Z0.2
G1 F2700 E21.28649
G1 F1800 X133.69 Y27.805 E21.61909
G1 X139.31 Y27.805 E21.80601
G1 X139.31 Y43.425 E22.32553
G1 X95.69 Y43.425 E23.77634
G1 X95.69 Y37.805 E23.96326
G1 X133.69 Y37.805 E25.22715
G1 F2700 E20.22715
G1 F300 Z0.4
G0 F4800 X139.149 Y28.275 Z0.4
G1 F300 Z0.2
G1 F2700 E25.22715
G1 F1800 X138.839 Y27.965 E25.24173
G0 F4800 X138.274 Y27.965
G1 F1800 X139.149 Y28.84 E25.28289
G0 F4800 X139.149 Y29.406
G1 F1800 X137.708 Y27.965 E25.35067
G0 F4800 X137.142 Y27.965
G1 F1800 X139.149 Y29.972 E25.44507
G0 F4800 X139.149 Y30.537
G1 F1800 X136.576 Y27.965 E25.56607
G0 F4800 X136.011 Y27.965
G1 F1800 X139.149 Y31.103 E25.71367
G0 F4800 X139.149 Y31.669
G1 F1800 X135.445 Y27.965 E25.8879
G0 F4800 X134.879 Y27.965
G1 F1800 X139.149 Y32.234 E26.08872
G0 F4800 X139.149 Y32.8
G1 F1800 X134.314 Y27.965 E26.31615
G0 F4800 X133.848 Y28.065
G1 F1800 X139.149 Y33.366 E26.56549
G0 F4800 X139.149 Y33.931
G1 F1800 X133.848 Y28.631 E26.81481
G0 F4800 X133.848 Y29.197
G1 F1800 X139.149 Y34.497 E27.06413
G0 F4800 X139.149 Y35.063
G1 F1800 X133.848 Y29.762 E27.31347
G0 F4800 X133.848 Y30.328
G1 F1800 X139.149 Y35.628 E27.56279
G0 F4800 X139.149 Y36.194
G1 F1800 X133.848 Y30.894 E27.81211
G0 F4800 X133.848 Y31.459
G1 F1800 X139.149 Y36.76 E28.06145
G0 F4800 X139.149 Y37.326
G1 F1800 X133.848 Y32.025 E28.31079
G0 F4800 X133.848 Y32.591
G1 F1800 X139.149 Y37.891 E28.56011
G0 F4800 X139.149 Y38.457
G1 F1800 X133.848 Y33.156 E28.80946
G0 F4800 X133.848 Y33.722
G1 F1800 X139.149 Y39.023 E29.0588
G0 F4800 X139.149 Y39.588
G1 F1800 X133.848 Y34.288 E29.30812
G0 F4800 X133.848 Y34.854
G1 F1800 X139.149 Y40.154 E29.55744
G0 F4800 X139.149 Y40.72
G1 F1800 X133.848 Y35.419 E29.80678
G0 F4800 X133.848 Y35.985
G1 F1800 X139.149 Y41.285 E30.0561
G0 F4800 X139.149 Y41.851
G1 F1800 X133.848 Y36.551 E30.30542
G0 F4800 X133.848 Y37.116
G1 F1800 X139.149 Y42.417 E30.55476
G0 F4800 X139.149 Y42.982
G1 F1800 X133.848 Y37.682 E30.80408
G0 F4800 X133.566 Y37.965
G1 F1800 X138.865 Y43.265 E31.05335
G0 F4800 X138.3 Y43.265
G1 F1800 X133 Y37.965 E31.30265
G0 F4800 X132.434 Y37.965
G1 F1800 X137.734 Y43.265 E31.55195
G0 F4800 X137.168 Y43.265
G1 F1800 X131.869 Y37.965 E31.80122
G0 F4800 X131.303 Y37.965
G1 F1800 X136.603 Y43.265 E32.05051
G0 F4800 X136.037 Y43.265
G1 F1800 X130.737 Y37.965 E32.29981
G0 F4800 X130.171 Y37.965
G1 F1800 X135.471 Y43.265 E32.5491
G0 F4800 X134.906 Y43.265
G1 F1800 X129.606 Y37.965 E32.7984
G0 F4800 X129.04 Y37.965
G1 F1800 X134.34 Y43.265 E33.0477
G0 F4800 X133.774 Y43.265
G1 F1800 X128.474 Y37.965 E33.29699
G0 F4800 X127.909 Y37.965
G1 F1800 X133.209 Y43.265 E33.54629
G0 F4800 X132.643 Y43.265
G1 F1800 X127.343 Y37.965 E33.79558
G0 F4800 X126.777 Y37.965
G1 F1800 X132.077 Y43.265 E34.04488
G0 F4800 X131.511 Y43.265
G1 F1800 X126.212 Y37.965 E34.29415
G0 F4800 X125.646 Y37.965
G1 F1800 X130.946 Y43.265 E34.54345
G0 F4800 X130.38 Y43.265
G1 F1800 X125.08 Y37.965 E34.79274
G0 F4800 X124.515 Y37.965
G1 F1800 X129.814 Y43.265 E35.04202
G0 F4800 X129.249 Y43.265
G1 F1800 X123.949 Y37.965 E35.29131
G0 F4800 X123.383 Y37.965
G1 F1800 X128.683 Y43.265 E35.54061
G0 F4800 X128.117 Y43.265
G1 F1800 X122.818 Y37.965 E35.78988
G0 F4800 X122.252 Y37.965
G1 F1800 X127.552 Y43.265 E36.03917
G0 F4800 X126.986 Y43.265
G1 F1800 X121.686 Y37.965 E36.28847
G0 F4800 X121.121 Y37.965
G1 F1800 X126.42 Y43.265 E36.53774
G0 F4800 X125.855 Y43.265
G1 F1800 X120.555 Y37.965 E36.78704
G0 F4800 X119.989 Y37.965
G1 F1800 X125.289 Y43.265 E37.03633
G0 F4800 X124.723 Y43.265
G1 F1800 X119.423 Y37.965 E37.28563
G0 F4800 X118.858 Y37.965
G1 F1800 X124.158 Y43.265 E37.53493
G0 F4800 X123.592 Y43.265
G1 F1800 X118.292 Y37.965 E37.78422
G0 F4800 X117.726 Y37.965
G1 F1800 X123.026 Y43.265 E38.03352
G0 F4800 X122.46 Y43.265
G1 F1800 X117.161 Y37.965 E38.28279
G0 F4800 X116.595 Y37.965
G1 F1800 X121.895 Y43.265 E38.53208
G0 F4800 X121.329 Y43.265
G1 F1800 X116.029 Y37.965 E38.78138
G0 F4800 X115.464 Y37.965
G1 F1800 X120.763 Y43.265 E39.03065
G0 F4800 X120.198 Y43.265
G1 F1800 X114.898 Y37.965 E39.27995
G0 F4800 X114.332 Y37.965
G1 F1800 X119.632 Y43.265 E39.52924
G0 F4800 X119.066 Y43.265
G1 F1800 X113.767 Y37.965 E39.77852
G0 F4800 X113.201 Y37.965
G1 F1800 X118.501 Y43.265 E40.02781
G0 F4800 X117.935 Y43.265
G1 F1800 X112.635 Y37.965 E40.27711
G0 F4800 X112.07 Y37.965
G1 F1800 X117.369 Y43.265 E40.52638
G0 F4800 X116.804 Y43.265
G1 F1800 X111.504 Y37.965 E40.77568
G0 F4800 X110.938 Y37.965
G1 F1800 X116.238 Y43.265 E41.02497
G0 F4800 X115.672 Y43.265
G1 F1800 X110.373 Y37.965 E41.27424
G0 F4800 X109.807 Y37.965
G1 F1800 X115.107 Y43.265 E41.52354
G0 F4800 X114.541 Y43.265
G1 F1800 X109.241 Y37.965 E41.77284
G0 F4800 X108.675 Y37.965
G1 F1800 X113.975 Y43.265 E42.02213
G0 F4800 X113.41 Y43.265
G1 F1800 X108.11 Y37.965 E42.27143
G0 F4800 X107.544 Y37.965
G1 F1800 X112.844 Y43.265 E42.52072
G0 F4800 X112.278 Y43.265
G1 F1800 X106.978 Y37.965 E42.77002
G0 F4800 X106.413 Y37.965
G1 F1800 X111.712 Y43.265 E43.01929
G0 F4800 X111.147 Y43.265
G1 F1800 X105.847 Y37.965 E43.26859
G0 F4800 X105.281 Y37.965
G1 F1800 X110.581 Y43.265 E43.51788
G0 F4800 X110.015 Y43.265
G1 F1800 X104.716 Y37.965 E43.76715
G0 F4800 X104.15 Y37.965
G1 F1800 X109.45 Y43.265 E44.01645
G0 F4800 X108.884 Y43.265
G1 F1800 X103.584 Y37.965 E44.26575
G0 F4800 X103.019 Y37.965
G1 F1800 X108.318 Y43.265 E44.51502
G0 F4800 X107.753 Y43.265
G1 F1800 X102.453 Y37.965 E44.76431
G0 F4800 X101.887 Y37.965
G1 F1800 X107.187 Y43.265 E45.01361
G0 F4800 X106.621 Y43.265
G1 F1800 X101.322 Y37.965 E45.26288
G0 F4800 X100.756 Y37.965
G1 F1800 X106.056 Y43.265 E45.51218
G0 F4800 X105.49 Y43.265
G1 F1800 X100.19 Y37.965 E45.76147
G0 F4800 X99.624 Y37.965
G1 F1800 X104.924 Y43.265 E46.01077
G0 F4800 X104.359 Y43.265
G1 F1800 X99.059 Y37.965 E46.26007
G0 F4800 X98.493 Y37.965
G1 F1800 X103.793 Y43.265 E46.50936
G0 F4800 X103.227 Y43.265
G1 F1800 X97.927 Y37.965 E46.75866
G0 F4800 X97.362 Y37.965
G1 F1800 X102.662 Y43.265 E47.00795
G0 F4800 X102.096 Y43.265
G1 F1800 X96.796 Y37.965 E47.25725
G0 F4800 X96.23 Y37.965
G1 F1800 X101.53 Y43.265 E47.50654
G0 F4800 X100.964 Y43.265
G1 F1800 X95.849 Y38.149 E47.74716
G0 F4800 X95.849 Y38.714
G1 F1800 X100.399 Y43.265 E47.9612
G0 F4800 X99.833 Y43.265
G1 F1800 X95.849 Y39.28 E48.14862
G0 F4800 X95.849 Y39.846
G1 F1800 X99.267 Y43.265 E48.30942
G0 F4800 X98.702 Y43.265
G1 F1800 X95.849 Y40.411 E48.44364
G0 F4800 X95.849 Y40.977
G1 F1800 X98.136 Y43.265 E48.55123
G0 F4800 X97.57 Y43.265
G1 F1800 X95.849 Y41.543 E48.63221
G0 F4800 X95.849 Y42.108
G1 F1800 X97.005 Y43.265 E48.68661
G0 F4800 X96.439 Y43.265
G1 F1800 X95.849 Y42.674 E48.71438
G1 F2700 E43.71438
G1 F300 Z0.4
;MESH:NONMESH
G0 F4800 X133.3 Y37.415 Z0.4
;TIME_ELAPSED:64.787595
;LAYER:1
M106 S10.2
;MESH:ClawLimitSwitch_X_Left.stl
G0 F6000 X133.3 Y37.415 Z0.7
;TYPE:WALL-INNER
G1 F300 Z0.5
G1 F2700 E48.71438
G1 F2250 X133.3 Y27.415 E49.21328
G1 X139.7 Y27.415 E49.53258
G1 X139.7 Y43.815 E50.35078
G1 X95.3 Y43.815 E52.56591
G1 X95.3 Y37.415 E52.8852
G1 X133.3 Y37.415 E54.78103
G0 F6000 X132.9 Y37.015
G1 F2250 X132.9 Y27.015 E55.27993
G1 X140.1 Y27.015 E55.63914
G1 X140.1 Y44.215 E56.49725
G1 X94.9 Y44.215 E58.75229
G1 X94.9 Y37.015 E59.1115
G1 X132.9 Y37.015 E61.00733
G0 F6000 X132.5 Y36.615
G1 F2250 X132.5 Y26.615 E61.50623
G1 X140.5 Y26.615 E61.90535
G1 X140.5 Y44.615 E62.80338
G1 X94.5 Y44.615 E65.09832
G1 X94.5 Y36.615 E65.49745
G1 X132.5 Y36.615 E67.39327
G0 F6000 X132.1 Y36.215
G1 F2250 X132.1 Y26.215 E67.89218
G1 X140.9 Y26.215 E68.33121
G1 X140.9 Y45.015 E69.26915
G1 X94.1 Y45.015 E71.60401
G1 X94.1 Y36.215 E72.04304
G1 X132.1 Y36.215 E73.93887
G0 F6000 X131.7 Y35.815
;TYPE:WALL-OUTER
G1 F2250 X131.7 Y25.815 E74.43777
G1 X141.3 Y25.815 E74.91672
G1 X141.3 Y45.415 E75.89456
G1 X93.7 Y45.415 E78.26934
G1 X93.7 Y35.815 E78.74828
G1 X131.7 Y35.815 E80.64411
G1 F2700 E75.64411
G1 F300 Z0.7
G0 F6000 X133.69 Y37.805 Z0.7
;TYPE:SKIN
G1 F300 Z0.5
G1 F2700 E80.64411
G1 F2100 X133.69 Y27.805 E81.14301
G1 X139.31 Y27.805 E81.4234
G1 X139.31 Y43.425 E82.20268
G1 X95.69 Y43.425 E84.37889
G1 X95.69 Y37.805 E84.65927
G1 X133.69 Y37.805 E86.5551
G1 F2700 E81.5551
G1 F300 Z0.7
G0 F6000 X139.148 Y43.001 Z0.7
G1 F300 Z0.5
G1 F2700 E86.5551
G1 F2100 X138.885 Y43.265 E86.57369
G0 F6000 X138.319 Y43.265
G1 F2100 X139.148 Y42.436 E86.63218
G0 F6000 X139.148 Y41.87
G1 F2100 X137.754 Y43.265 E86.73057
G0 F6000 X137.188 Y43.265
G1 F2100 X139.148 Y41.304 E86.8689
G0 F6000 X139.148 Y40.739
G1 F2100 X136.622 Y43.265 E87.04712
G0 F6000 X136.057 Y43.265
G1 F2100 X139.148 Y40.173 E87.26524
G0 F6000 X139.148 Y39.607
G1 F2100 X135.491 Y43.265 E87.5233
G0 F6000 X134.925 Y43.265
G1 F2100 X139.148 Y39.042 E87.82125
G0 F6000 X139.148 Y38.476
G1 F2100 X134.36 Y43.265 E88.15911
G0 F6000 X133.794 Y43.265
G1 F2100 X139.148 Y37.91 E88.5369
G0 F6000 X139.148 Y37.345
G1 F2100 X133.228 Y43.265 E88.95459
G0 F6000 X132.663 Y43.265
G1 F2100 X139.148 Y36.779 E89.41217
G0 F6000 X139.148 Y36.213
G1 F2100 X132.097 Y43.265 E89.90969
G0 F6000 X131.531 Y43.265
G1 F2100 X139.148 Y35.648 E90.44712
G0 F6000 X139.148 Y35.082
G1 F2100 X130.966 Y43.265 E91.02443
G0 F6000 X130.4 Y43.265
G1 F2100 X139.148 Y34.516 E91.64169
G0 F6000 X139.148 Y33.951
G1 F2100 X129.834 Y43.265 E92.29884
G0 F6000 X129.269 Y43.265
G1 F2100 X139.148 Y33.385 E92.99589
G0 F6000 X139.148 Y32.819
G1 F2100 X128.703 Y43.265 E93.73288
G0 F6000 X128.137 Y43.265
G1 F2100 X133.437 Y37.965 E94.10682
G0 F6000 X132.871 Y37.965
G1 F2100 X127.571 Y43.265 E94.48077
G0 F6000 X127.006 Y43.265
G1 F2100 X132.306 Y37.965 E94.85471
G0 F6000 X131.74 Y37.965
G1 F2100 X126.44 Y43.265 E95.22865
G0 F6000 X125.874 Y43.265
G1 F2100 X131.174 Y37.965 E95.6026
G0 F6000 X130.608 Y37.965
G1 F2100 X125.309 Y43.265 E95.97651
G0 F6000 X124.743 Y43.265
G1 F2100 X130.043 Y37.965 E96.35045
G0 F6000 X129.477 Y37.965
G1 F2100 X124.177 Y43.265 E96.72439
G0 F6000 X123.612 Y43.265
G1 F2100 X128.911 Y37.965 E97.0983
G0 F6000 X128.346 Y37.965
G1 F2100 X123.046 Y43.265 E97.47225
G0 F6000 X122.48 Y43.265
G1 F2100 X127.78 Y37.965 E97.84619
G0 F6000 X127.214 Y37.965
G1 F2100 X121.915 Y43.265 E98.2201
G0 F6000 X121.349 Y43.265
G1 F2100 X126.649 Y37.965 E98.59404
G0 F6000 X126.083 Y37.965
G1 F2100 X120.783 Y43.265 E98.96798
G0 F6000 X120.218 Y43.265
G1 F2100 X125.517 Y37.965 E99.34189
G0 F6000 X124.952 Y37.965
G1 F2100 X119.652 Y43.265 E99.71584
G0 F6000 X119.086 Y43.265
G1 F2100 X124.386 Y37.965 E100.08978
G0 F6000 X123.82 Y37.965
G1 F2100 X118.52 Y43.265 E100.46372
G0 F6000 X117.955 Y43.265
G1 F2100 X123.255 Y37.965 E100.83767
G0 F6000 X122.689 Y37.965
G1 F2100 X117.389 Y43.265 E101.21161
G0 F6000 X116.823 Y43.265
G1 F2100 X122.123 Y37.965 E101.58556
G0 F6000 X121.558 Y37.965
G1 F2100 X116.258 Y43.265 E101.9595
G0 F6000 X115.692 Y43.265
G1 F2100 X120.992 Y37.965 E102.33344
G0 F6000 X120.426 Y37.965
G1 F2100 X115.126 Y43.265 E102.70739
G0 F6000 X114.561 Y43.265
G1 F2100 X119.86 Y37.965 E103.08129
G0 F6000 X119.295 Y37.965
G1 F2100 X113.995 Y43.265 E103.45524
G0 F6000 X113.429 Y43.265
G1 F2100 X118.729 Y37.965 E103.82918
G0 F6000 X118.163 Y37.965
G1 F2100 X112.864 Y43.265 E104.20309
G0 F6000 X112.298 Y43.265
G1 F2100 X117.598 Y37.965 E104.57703
G0 F6000 X117.032 Y37.965
G1 F2100 X111.732 Y43.265 E104.95098
G0 F6000 X111.167 Y43.265
G1 F2100 X116.466 Y37.965 E105.32489
G0 F6000 X115.901 Y37.965
G1 F2100 X110.601 Y43.265 E105.69883
G0 F6000 X110.035 Y43.265
G1 F2100 X115.335 Y37.965 E106.07277
G0 F6000 X114.769 Y37.965
G1 F2100 X109.47 Y43.265 E106.44668
G0 F6000 X108.904 Y43.265
G1 F2100 X114.204 Y37.965 E106.82062
G0 F6000 X113.638 Y37.965
G1 F2100 X108.338 Y43.265 E107.19457
G0 F6000 X107.772 Y43.265
G1 F2100 X113.072 Y37.965 E107.56851
G0 F6000 X112.507 Y37.965
G1 F2100 X107.207 Y43.265 E107.94246
G0 F6000 X106.641 Y43.265
G1 F2100 X111.941 Y37.965 E108.3164
G0 F6000 X111.375 Y37.965
G1 F2100 X106.075 Y43.265 E108.69034
G0 F6000 X105.51 Y43.265
G1 F2100 X110.809 Y37.965 E109.06425
G0 F6000 X110.244 Y37.965
G1 F2100 X104.944 Y43.265 E109.43819
G0 F6000 X104.378 Y43.265
G1 F2100 X109.678 Y37.965 E109.81214
G0 F6000 X109.112 Y37.965
G1 F2100 X103.813 Y43.265 E110.18605
G0 F6000 X103.247 Y43.265
G1 F2100 X108.547 Y37.965 E110.55999
G0 F6000 X107.981 Y37.965
G1 F2100 X102.681 Y43.265 E110.93393
G0 F6000 X102.116 Y43.265
G1 F2100 X107.415 Y37.965 E111.30784
G0 F6000 X106.85 Y37.965
G1 F2100 X101.55 Y43.265 E111.68179
G0 F6000 X100.984 Y43.265
G1 F2100 X106.284 Y37.965 E112.05573
G0 F6000 X105.718 Y37.965
G1 F2100 X100.419 Y43.265 E112.42964
G0 F6000 X99.853 Y43.265
G1 F2100 X105.153 Y37.965 E112.80358
G0 F6000 X104.587 Y37.965
G1 F2100 X99.287 Y43.265 E113.17753
G0 F6000 X98.722 Y43.265
G1 F2100 X104.021 Y37.965 E113.55143
G0 F6000 X103.456 Y37.965
G1 F2100 X98.156 Y43.265 E113.92538
G0 F6000 X97.59 Y43.265
G1 F2100 X102.89 Y37.965 E114.29932
G0 F6000 X102.324 Y37.965
G1 F2100 X97.024 Y43.265 E114.67326
G0 F6000 X96.459 Y43.265
G1 F2100 X101.759 Y37.965 E115.04721
G0 F6000 X101.193 Y37.965
G1 F2100 X95.893 Y43.265 E115.42115
G0 F6000 X95.849 Y42.743
G1 F2100 X100.627 Y37.965 E115.75827
G0 F6000 X100.061 Y37.965
G1 F2100 X95.849 Y42.177 E116.05544
G0 F6000 X95.849 Y41.611
G1 F2100 X99.496 Y37.965 E116.31273
G0 F6000 X98.93 Y37.965
G1 F2100 X95.849 Y41.046 E116.53011
G0 F6000 X95.849 Y40.48
G1 F2100 X98.364 Y37.965 E116.70755
G0 F6000 X97.799 Y37.965
G1 F2100 X95.849 Y39.914 E116.8451
G0 F6000 X95.849 Y39.349
G1 F2100 X97.233 Y37.965 E116.94275
G0 F6000 X96.667 Y37.965
G1 F2100 X95.849 Y38.783 E117.00046
G0 F6000 X95.849 Y38.217
G1 F2100 X96.102 Y37.965 E117.01828
G1 F2700 E112.01828
G1 F300 Z0.7
G0 F6000 X133.849 Y37.553 Z0.7
G1 F300 Z0.5
G1 F2700 E117.01828
G1 F2100 X139.148 Y32.253 E117.39219
G0 F6000 X139.148 Y31.688
G1 F2100 X133.849 Y36.987 E117.76606
G0 F6000 X133.849 Y36.421
G1 F2100 X139.148 Y31.122 E118.13993
G0 F6000 X139.148 Y30.556
G1 F2100 X133.849 Y35.855 E118.51381
G0 F6000 X133.849 Y35.29
G1 F2100 X139.148 Y29.991 E118.88768
G0 F6000 X139.148 Y29.425
G1 F2100 X133.849 Y34.724 E119.26155
G0 F6000 X133.849 Y34.158
G1 F2100 X139.148 Y28.859 E119.63543
G0 F6000 X139.148 Y28.294
