;FLAVOR:Marlin
;TIME:4182
;Filament used: 4.70353m
;Layer height: 0.2
;MINX:108.696
;MINY:42.7
;MINZ:0.2
;MAXX:126.296
;MAXY:192.3
;MAXZ:5.2
;Generated with Cura_SteamEngine master
M140 S30
M105
M190 S30
M104 S218
M105
M109 S218
M82 ;absolute extrusion mode
; Ender 3 Custom Start G-code
G92 E0 ; Reset Extruder
G28 ; Home all axes
G1 Z2.0 F3000 ; Move Z Axis up little to prevent scratching of Heat Bed
G1 X0.1 Y20 Z0.3 F5000.0 ; Move to start position
G1 X0.1 Y200.0 Z0.3 F1500.0 E15 ; Draw the first line
G1 X0.4 Y200.0 Z0.3 F5000.0 ; Move to side a little
G1 X0.4 Y20 Z0.3 F1500.0 E30 ; Draw the second line
G92 E0 ; Reset Extruder
G1 Z2.0 F3000 ; Move Z Axis up little to prevent scratching of Heat Bed
G1 X5 Y20 Z0.3 F5000.0 ; Move over to prevent blob squish
G92 E0
G92 E0
G1 F2700 E-5
;LAYER_COUNT:25
;LAYER:0
M107
G1 F300 Z0.4
;MESH:ClawLongPIllarHelper.stl
G0 F4800 X124.696 Y190.7 Z0.4
;TYPE:WALL-INNER
G1 F300 Z0.2
G1 F2700 E0
G1 F1800 X110.296 Y190.7 E0.47895
G1 X110.296 Y44.3 E5.34823
G1 X124.696 Y44.3 E5.82718
G1 X124.696 Y190.7 E10.69646
G0 F4800 X125.096 Y191.1
G1 F1800 X109.896 Y191.1 E11.20201
G1 X109.896 Y43.9 E16.09791
G1 X125.096 Y43.9 E16.60346
G1 X125.096 Y191.1 E21.49935
G0 F4800 X125.496 Y191.5
G1 F1800 X109.496 Y191.5 E22.03151
G1 X109.496 Y43.5 E26.95401
G1 X125.496 Y43.5 E27.48618
G1 X125.496 Y191.5 E32.40868
G0 F4800 X125.896 Y191.9
G1 F1800 X109.096 Y191.9 E32.96745
G1 X109.096 Y43.1 E37.91655
G1 X125.896 Y43.1 E38.47532
G1 X125.896 Y191.9 E43.42443
G0 F4800 X126.296 Y192.3
;TYPE:WALL-OUTER
G1 F1800 X108.696 Y192.3 E44.00981
G1 X108.696 Y42.7 E48.98553
G1 X126.296 Y42.7 E49.57091
G1 X126.296 Y192.3 E54.54662
G1 F2700 E49.54662
G1 F300 Z0.4
G0 F4800 X124.306 Y190.31 Z0.4
;TYPE:SKIN
G1 F300 Z0.2
G1 F2700 E54.54662
G1 F1800 X110.686 Y190.31 E54.99962
G1 X110.686 Y44.69 E59.84297
G1 X124.306 Y44.69 E60.29597
G1 X124.306 Y190.31 E65.13931
G1 F2700 E60.13931
G1 F300 Z0.4
G0 F4800 X110.952 Y190.148 Z0.4
G1 F300 Z0.2
G1 F2700 E65.13931
G1 F1800 X110.845 Y190.041 E65.14434
G0 F4800 X110.845 Y189.475
G1 F1800 X111.518 Y190.148 E65.176
G0 F4800 X112.084 Y190.148
G1 F1800 X110.845 Y188.909 E65.23428
G0 F4800 X110.845 Y188.344
G1 F1800 X112.649 Y190.148 E65.31913
G0 F4800 X113.215 Y190.148
G1 F1800 X110.845 Y187.778 E65.43061
G0 F4800 X110.845 Y187.212
G1 F1800 X113.781 Y190.148 E65.56871
G0 F4800 X114.346 Y190.148
G1 F1800 X110.845 Y186.647 E65.73339
G0 F4800 X110.845 Y186.081
G1 F1800 X114.912 Y190.148 E65.92468
G0 F4800 X115.478 Y190.148
G1 F1800 X110.845 Y185.515 E66.14261
G0 F4800 X110.845 Y184.95
G1 F1800 X116.044 Y190.148 E66.38713
G0 F4800 X116.609 Y190.148
G1 F1800 X110.845 Y184.384 E66.65825
G0 F4800 X110.845 Y183.818
G1 F1800 X117.175 Y190.148 E66.95599
G0 F4800 X117.741 Y190.148
G1 F1800 X110.845 Y183.253 E67.28034
G0 F4800 X110.845 Y182.687
G1 F1800 X118.306 Y190.148 E67.63128
G0 F4800 X118.872 Y190.148
G1 F1800 X110.845 Y182.121 E68.00884
G0 F4800 X110.845 Y181.556
G1 F1800 X119.438 Y190.148 E68.41301
G0 F4800 X120.003 Y190.148
G1 F1800 X110.845 Y180.99 E68.84377
G0 F4800 X110.845 Y180.424
G1 F1800 X120.569 Y190.148 E69.30116
G0 F4800 X121.135 Y190.148
G1 F1800 X110.845 Y179.858 E69.78517
G0 F4800 X110.845 Y179.293
G1 F1800 X121.7 Y190.148 E70.29576
G0 F4800 X122.266 Y190.148
G1 F1800 X110.845 Y178.727 E70.83297
G0 F4800 X110.845 Y178.161
G1 F1800 X122.832 Y190.148 E71.3968
G0 F4800 X123.397 Y190.148
G1 F1800 X110.845 Y177.596 E71.9872
G0 F4800 X110.845 Y177.03
G1 F1800 X123.963 Y190.148 E72.60424
G0 F4800 X124.146 Y189.765
G1 F1800 X110.845 Y176.464 E73.22987
G0 F4800 X110.845 Y175.899
G1 F1800 X124.146 Y189.199 E73.85549
G0 F4800 X124.146 Y188.634
G1 F1800 X110.845 Y175.333 E74.48113
G0 F4800 X110.845 Y174.767
G1 F1800 X124.146 Y188.068 E75.10676
G0 F4800 X124.146 Y187.502
G1 F1800 X110.845 Y174.202 E75.73238
G0 F4800 X110.845 Y173.636
G1 F1800 X124.146 Y186.937 E76.35802
G0 F4800 X124.146 Y186.371
G1 F1800 X110.845 Y173.07 E76.98366
G0 F4800 X110.845 Y172.505
G1 F1800 X124.146 Y185.805 E77.60927
G0 F4800 X124.146 Y185.24
G1 F1800 X110.845 Y171.939 E78.23491
G0 F4800 X110.845 Y171.373
G1 F1800 X124.146 Y184.674 E78.86055
G0 F4800 X124.146 Y184.108
G1 F1800 X110.845 Y170.808 E79.48616
G0 F4800 X110.845 Y170.242
G1 F1800 X124.146 Y183.543 E80.1118
G0 F4800 X124.146 Y182.977
G1 F1800 X110.845 Y169.676 E80.73744
G0 F4800 X110.845 Y169.11
G1 F1800 X124.146 Y182.411 E81.36308
G0 F4800 X124.146 Y181.845
G1 F1800 X110.845 Y168.545 E81.98869
G0 F4800 X110.845 Y167.979
G1 F1800 X124.146 Y181.28 E82.61433
G0 F4800 X124.146 Y180.714
G1 F1800 X110.845 Y167.413 E83.23997
G0 F4800 X110.845 Y166.848
G1 F1800 X124.146 Y180.148 E83.86558
G0 F4800 X124.146 Y179.583
G1 F1800 X110.845 Y166.282 E84.49122
G0 F4800 X110.845 Y165.716
G1 F1800 X124.146 Y179.017 E85.11686
G0 F4800 X124.146 Y178.451
G1 F1800 X110.845 Y165.151 E85.74247
G0 F4800 X110.845 Y164.585
G1 F1800 X124.146 Y177.886 E86.36811
G0 F4800 X124.146 Y177.32
G1 F1800 X110.845 Y164.019 E86.99375
G0 F4800 X110.845 Y163.454
G1 F1800 X124.146 Y176.754 E87.61937
G0 F4800 X124.146 Y176.189
G1 F1800 X110.845 Y162.888 E88.245
G0 F4800 X110.845 Y162.322
G1 F1800 X124.146 Y175.623 E88.87064
G0 F4800 X124.146 Y175.057
G1 F1800 X110.845 Y161.757 E89.49626
G0 F4800 X110.845 Y161.191
G1 F1800 X124.146 Y174.492 E90.12189
G0 F4800 X124.146 Y173.926
G1 F1800 X110.845 Y160.625 E90.74753
G0 F4800 X110.845 Y160.059
G1 F1800 X124.146 Y173.36 E91.37317
G0 F4800 X124.146 Y172.794
G1 F1800 X110.845 Y159.494 E91.99879
G0 F4800 X110.845 Y158.928
G1 F1800 X124.146 Y172.229 E92.62442
G0 F4800 X124.146 Y171.663
G1 F1800 X110.845 Y158.362 E93.25006
G0 F4800 X110.845 Y157.797
G1 F1800 X124.146 Y171.097 E93.87568
G0 F4800 X124.146 Y170.532
G1 F1800 X110.845 Y157.231 E94.50132
G0 F4800 X110.845 Y156.665
G1 F1800 X124.146 Y169.966 E95.12695
G0 F4800 X124.146 Y169.4
G1 F1800 X110.845 Y156.1 E95.75257
G0 F4800 X110.845 Y155.534
G1 F1800 X124.146 Y168.835 E96.37821
G0 F4800 X124.146 Y168.269
G1 F1800 X110.845 Y154.968 E97.00385
G0 F4800 X110.845 Y154.403
G1 F1800 X124.146 Y167.703 E97.62946
G0 F4800 X124.146 Y167.138
G1 F1800 X110.845 Y153.837 E98.2551
G0 F4800 X110.845 Y153.271
G1 F1800 X124.146 Y166.572 E98.88074
G0 F4800 X124.146 Y166.006
G1 F1800 X110.845 Y152.706 E99.50635
G0 F4800 X110.845 Y152.14
G1 F1800 X124.146 Y165.441 E100.13199
G0 F4800 X124.146 Y164.875
G1 F1800 X110.845 Y151.574 E100.75763
G0 F4800 X110.845 Y151.009
G1 F1800 X124.146 Y164.309 E101.38324
G0 F4800 X124.146 Y163.744
G1 F1800 X110.845 Y150.443 E102.00888
G0 F4800 X110.845 Y149.877
G1 F1800 X124.146 Y163.178 E102.63452
G0 F4800 X124.146 Y162.612
G1 F1800 X110.845 Y149.311 E103.26016
G0 F4800 X110.845 Y148.746
G1 F1800 X124.146 Y162.046 E103.88577
G0 F4800 X124.146 Y161.481
G1 F1800 X110.845 Y148.18 E104.51141
G0 F4800 X110.845 Y147.614
G1 F1800 X124.146 Y160.915 E105.13705
G0 F4800 X124.146 Y160.349
G1 F1800 X110.845 Y147.049 E105.76266
G0 F4800 X110.845 Y146.483
G1 F1800 X124.146 Y159.784 E106.3883
G0 F4800 X124.146 Y159.218
G1 F1800 X110.845 Y145.917 E107.01394
G0 F4800 X110.845 Y145.352
G1 F1800 X124.146 Y158.652 E107.63955
G0 F4800 X124.146 Y158.087
G1 F1800 X110.845 Y144.786 E108.26519
G0 F4800 X110.845 Y144.22
G1 F1800 X124.146 Y157.521 E108.89083
G0 F4800 X124.146 Y156.955
G1 F1800 X110.845 Y143.655 E109.51645
G0 F4800 X110.845 Y143.089
G1 F1800 X124.146 Y156.39 E110.14208
G0 F4800 X124.146 Y155.824
G1 F1800 X110.845 Y142.523 E110.76772
G0 F4800 X110.845 Y141.958
G1 F1800 X124.146 Y155.258 E111.39334
G0 F4800 X124.146 Y154.693
G1 F1800 X110.845 Y141.392 E112.01898
G0 F4800 X110.845 Y140.826
G1 F1800 X124.146 Y154.127 E112.64461
G0 F4800 X124.146 Y153.561
G1 F1800 X110.845 Y140.26 E113.27025
G0 F4800 X110.845 Y139.695
G1 F1800 X124.146 Y152.995 E113.89587
G0 F4800 X124.146 Y152.43
G1 F1800 X110.845 Y139.129 E114.5215
G0 F4800 X110.845 Y138.563
G1 F1800 X124.146 Y151.864 E115.14714
G0 F4800 X124.146 Y151.298
G1 F1800 X110.845 Y137.998 E115.77276
G0 F4800 X110.845 Y137.432
G1 F1800 X124.146 Y150.733 E116.3984
G0 F4800 X124.146 Y150.167
G1 F1800 X110.845 Y136.866 E117.02403
G0 F4800 X110.845 Y136.301
G1 F1800 X124.146 Y149.601 E117.64965
G0 F4800 X124.146 Y149.036
G1 F1800 X110.845 Y135.735 E118.27529
G0 F4800 X110.845 Y135.169
G1 F1800 X124.146 Y148.47 E118.90093
G0 F4800 X124.146 Y147.904
G1 F1800 X110.845 Y134.604 E119.52654
G0 F4800 X110.845 Y134.038
G1 F1800 X124.146 Y147.339 E120.15218
G0 F4800 X124.146 Y146.773
G1 F1800 X110.845 Y133.472 E120.77782
G0 F4800 X110.845 Y132.907
G1 F1800 X124.146 Y146.207 E121.40343
G0 F4800 X124.146 Y145.642
G1 F1800 X110.845 Y132.341 E122.02907
G0 F4800 X110.845 Y131.775
G1 F1800 X124.146 Y145.076 E122.65471
G0 F4800 X124.146 Y144.51
G1 F1800 X110.845 Y131.21 E123.28032
G0 F4800 X110.845 Y130.644
G1 F1800 X124.146 Y143.945 E123.90596
G0 F4800 X124.146 Y143.379
G1 F1800 X110.845 Y130.078 E124.5316
G0 F4800 X110.845 Y129.512
G1 F1800 X124.146 Y142.813 E125.15724
G0 F4800 X124.146 Y142.247
G1 F1800 X110.845 Y128.947 E125.78285
G0 F4800 X110.845 Y128.381
G1 F1800 X124.146 Y141.682 E126.40849
G0 F4800 X124.146 Y141.116
G1 F1800 X110.845 Y127.815 E127.03413
G0 F4800 X110.845 Y127.25
G1 F1800 X124.146 Y140.55 E127.65974
G0 F4800 X124.146 Y139.985
G1 F1800 X110.845 Y126.684 E128.28538
G0 F4800 X110.845 Y126.118
G1 F1800 X124.146 Y139.419 E128.91102
G0 F4800 X124.146 Y138.853
G1 F1800 X110.845 Y125.553 E129.53663
G0 F4800 X110.845 Y124.987
G1 F1800 X124.146 Y138.288 E130.16227
G0 F4800 X124.146 Y137.722
G1 F1800 X110.845 Y124.421 E130.78791
G0 F4800 X110.845 Y123.856
G1 F1800 X124.146 Y137.156 E131.41353
G0 F4800 X124.146 Y136.591
G1 F1800 X110.845 Y123.29 E132.03916
G0 F4800 X110.845 Y122.724
G1 F1800 X124.146 Y136.025 E132.6648
G0 F4800 X124.146 Y135.459
G1 F1800 X110.845 Y122.159 E133.29042
G0 F4800 X110.845 Y121.593
G1 F1800 X124.146 Y134.894 E133.91606
G0 F4800 X124.146 Y134.328
G1 F1800 X110.845 Y121.027 E134.54169
G0 F4800 X110.845 Y120.462
G1 F1800 X124.146 Y133.762 E135.16731
G0 F4800 X124.146 Y133.196
G1 F1800 X110.845 Y119.896 E135.79292
G0 F4800 X110.845 Y119.33
G1 F1800 X124.146 Y132.631 E136.41856
G0 F4800 X124.146 Y132.065
G1 F1800 X110.845 Y118.764 E137.0442
G0 F4800 X110.845 Y118.199
G1 F1800 X124.146 Y131.499 E137.66981
G0 F4800 X124.146 Y130.934
G1 F1800 X110.845 Y117.633 E138.29545
G0 F4800 X110.845 Y117.067
G1 F1800 X124.146 Y130.368 E138.92109
G0 F4800 X124.146 Y129.802
G1 F1800 X110.845 Y116.502 E139.54671
G0 F4800 X110.845 Y115.936
G1 F1800 X124.146 Y129.237 E140.17234
G0 F4800 X124.146 Y128.671
G1 F1800 X110.845 Y115.37 E140.79798
G0 F4800 X110.845 Y114.805
G1 F1800 X124.146 Y128.105 E141.4236
G0 F4800 X124.146 Y127.54
G1 F1800 X110.845 Y114.239 E142.04924
G0 F4800 X110.845 Y113.673
G1 F1800 X124.146 Y126.974 E142.67487
G0 F4800 X124.146 Y126.408
G1 F1800 X110.845 Y113.108 E143.30049
G0 F4800 X110.845 Y112.542
G1 F1800 X124.146 Y125.843 E143.92613
G0 F4800 X124.146 Y125.277
G1 F1800 X110.845 Y111.976 E144.55177
G0 F4800 X110.845 Y111.411
G1 F1800 X124.146 Y124.711 E145.17738
G0 F4800 X124.146 Y124.146
G1 F1800 X110.845 Y110.845 E145.80302
G0 F4800 X110.845 Y110.279
G1 F1800 X124.146 Y123.58 E146.42866
G0 F4800 X124.146 Y123.014
G1 F1800 X110.845 Y109.713 E147.05429
G0 F4800 X110.845 Y109.148
G1 F1800 X124.146 Y122.448 E147.67991
G0 F4800 X124.146 Y121.883
G1 F1800 X110.845 Y108.582 E148.30555
G0 F4800 X110.845 Y108.016
G1 F1800 X124.146 Y121.317 E148.93119
G0 F4800 X124.146 Y120.751
G1 F1800 X110.845 Y107.451 E149.5568
G0 F4800 X110.845 Y106.885
G1 F1800 X124.146 Y120.186 E150.18244
G0 F4800 X124.146 Y119.62
G1 F1800 X110.845 Y106.319 E150.80808
G0 F4800 X110.845 Y105.754
G1 F1800 X124.146 Y119.054 E151.43369
G0 F4800 X124.146 Y118.489
G1 F1800 X110.845 Y105.188 E152.05933
G0 F4800 X110.845 Y104.622
G1 F1800 X124.146 Y117.923 E152.68497
G0 F4800 X124.146 Y117.357
G1 F1800 X110.845 Y104.057 E153.31058
G0 F4800 X110.845 Y103.491
G1 F1800 X124.146 Y116.792 E153.93622
G0 F4800 X124.146 Y116.226
G1 F1800 X110.845 Y102.925 E154.56186
G0 F4800 X110.845 Y102.36
G1 F1800 X124.146 Y115.66 E155.18747
G0 F4800 X124.146 Y115.095
G1 F1800 X110.845 Y101.794 E155.81311
G0 F4800 X110.845 Y101.228
G1 F1800 X124.146 Y114.529 E156.43875
G0 F4800 X124.146 Y113.963
G1 F1800 X110.845 Y100.663 E157.06437
G0 F4800 X110.845 Y100.097
G1 F1800 X124.146 Y113.398 E157.69
G0 F4800 X124.146 Y112.832
G1 F1800 X110.845 Y99.531 E158.31564
G0 F4800 X110.845 Y98.965
G1 F1800 X124.146 Y112.266 E158.94128
G0 F4800 X124.146 Y111.7
G1 F1800 X110.845 Y98.4 E159.5669
G0 F4800 X110.845 Y97.834
G1 F1800 X124.146 Y111.135 E160.19253
G0 F4800 X124.146 Y110.569
G1 F1800 X110.845 Y97.268 E160.81817
G0 F4800 X110.845 Y96.703
G1 F1800 X124.146 Y110.003 E161.44379
G0 F4800 X124.146 Y109.438
G1 F1800 X110.845 Y96.137 E162.06942
G0 F4800 X110.845 Y95.571
G1 F1800 X124.146 Y108.872 E162.69506
G0 F4800 X124.146 Y108.306
G1 F1800 X110.845 Y95.006 E163.32068
G0 F4800 X110.845 Y94.44
G1 F1800 X124.146 Y107.741 E163.94632
G0 F4800 X124.146 Y107.175
G1 F1800 X110.845 Y93.874 E164.57195
G0 F4800 X110.845 Y93.309
G1 F1800 X124.146 Y106.609 E165.19757
G0 F4800 X124.146 Y106.044
G1 F1800 X110.845 Y92.743 E165.82321
G0 F4800 X110.845 Y92.177
G1 F1800 X124.146 Y105.478 E166.44885
G0 F4800 X124.146 Y104.912
G1 F1800 X110.845 Y91.612 E167.07446
G0 F4800 X110.845 Y91.046
G1 F1800 X124.146 Y104.347 E167.7001
G0 F4800 X124.146 Y103.781
G1 F1800 X110.845 Y90.48 E168.32574
G0 F4800 X110.845 Y89.914
G1 F1800 X124.146 Y103.215 E168.95138
G0 F4800 X124.146 Y102.649
G1 F1800 X110.845 Y89.349 E169.57699
G0 F4800 X110.845 Y88.783
G1 F1800 X124.146 Y102.084 E170.20263
G0 F4800 X124.146 Y101.518
G1 F1800 X110.845 Y88.217 E170.82827
G0 F4800 X110.845 Y87.652
G1 F1800 X124.146 Y100.952 E171.45388
G0 F4800 X124.146 Y100.387
G1 F1800 X110.845 Y87.086 E172.07952
G0 F4800 X110.845 Y86.52
G1 F1800 X124.146 Y99.821 E172.70516
G0 F4800 X124.146 Y99.255
G1 F1800 X110.845 Y85.955 E173.33077
G0 F4800 X110.845 Y85.389
G1 F1800 X124.146 Y98.69 E173.95641
G0 F4800 X124.146 Y98.124
G1 F1800 X110.845 Y84.823 E174.58205
G0 F4800 X110.845 Y84.258
G1 F1800 X124.146 Y97.558 E175.20766
G0 F4800 X124.146 Y96.993
G1 F1800 X110.845 Y83.692 E175.8333
G0 F4800 X110.845 Y83.126
G1 F1800 X124.146 Y96.427 E176.45894
G0 F4800 X124.146 Y95.861
G1 F1800 X110.845 Y82.561 E177.08455
G0 F4800 X110.845 Y81.995
G1 F1800 X124.146 Y95.296 E177.71019
G0 F4800 X124.146 Y94.73
G1 F1800 X110.845 Y81.429 E178.33583
G0 F4800 X110.845 Y80.864
G1 F1800 X124.146 Y94.164 E178.96145
G0 F4800 X124.146 Y93.599
G1 F1800 X110.845 Y80.298 E179.58708
G0 F4800 X110.845 Y79.732
G1 F1800 X124.146 Y93.033 E180.21272
G0 F4800 X124.146 Y92.467
G1 F1800 X110.845 Y79.166 E180.83836
G0 F4800 X110.845 Y78.601
G1 F1800 X124.146 Y91.901 E181.46398
G0 F4800 X124.146 Y91.336
G1 F1800 X110.845 Y78.035 E182.08961
G0 F4800 X110.845 Y77.469
G1 F1800 X124.146 Y90.77 E182.71525
G0 F4800 X124.146 Y90.204
G1 F1800 X110.845 Y76.904 E183.34087
G0 F4800 X110.845 Y76.338
G1 F1800 X124.146 Y89.639 E183.96651
G0 F4800 X124.146 Y89.073
G1 F1800 X110.845 Y75.772 E184.59214
G0 F4800 X110.845 Y75.207
G1 F1800 X124.146 Y88.507 E185.21776
G0 F4800 X124.146 Y87.942
G1 F1800 X110.845 Y74.641 E185.8434
G0 F4800 X110.845 Y74.075
G1 F1800 X124.146 Y87.376 E186.46903
G0 F4800 X124.146 Y86.81
G1 F1800 X110.845 Y73.51 E187.09465
G0 F4800 X110.845 Y72.944
G1 F1800 X124.146 Y86.245 E187.72029
G0 F4800 X124.146 Y85.679
G1 F1800 X110.845 Y72.378 E188.34593
G0 F4800 X110.845 Y71.813
G1 F1800 X124.146 Y85.113 E188.97154
G0 F4800 X124.146 Y84.548
G1 F1800 X110.845 Y71.247 E189.59718
G0 F4800 X110.845 Y70.681
G1 F1800 X124.146 Y83.982 E190.22282
G0 F4800 X124.146 Y83.416
G1 F1800 X110.845 Y70.116 E190.84843
G0 F4800 X110.845 Y69.55
G1 F1800 X124.146 Y82.85 E191.47405
G0 F4800 X124.146 Y82.285
G1 F1800 X110.845 Y68.984 E192.09968
G0 F4800 X110.845 Y68.418
G1 F1800 X124.146 Y81.719 E192.72532
G0 F4800 X124.146 Y81.153
G1 F1800 X110.845 Y67.853 E193.35094
G0 F4800 X110.845 Y67.287
G1 F1800 X124.146 Y80.588 E193.97658
G0 F4800 X124.146 Y80.022
G1 F1800 X110.845 Y66.721 E194.60221
G0 F4800 X110.845 Y66.156
