;FLAVOR:Marlin
;TIME:637
;Filament used: 0.734825m
;Layer height: 0.3
;MINX:97.504
;MINY:19.871
;MINZ:0.2
;MAXX:137.496
;MAXY:55.869
;MAXZ:2.7
;Generated with Cura_SteamEngine master
M140 S30
M105
M190 S30
M104 S218
M105
M109 S218
M82 ;absolute extrusion mode
; Ender 3 Custom Start G-code
G92 E0 ; Reset Extruder
G28 ; Home all axes
G1 Z2.0 F3000 ; Move Z Axis up little to prevent scratching of Heat Bed
G1 X0.1 Y20 Z0.3 F5000.0 ; Move to start position
G1 X0.1 Y200.0 Z0.3 F1500.0 E15 ; Draw the first line
G1 X0.4 Y200.0 Z0.3 F5000.0 ; Move to side a little
G1 X0.4 Y20 Z0.3 F1500.0 E30 ; Draw the second line
G92 E0 ; Reset Extruder
G1 Z2.0 F3000 ; Move Z Axis up little to prevent scratching of Heat Bed
G1 X5 Y20 Z0.3 F5000.0 ; Move over to prevent blob squish
G92 E0
G92 E0
G1 F2700 E-5
;LAYER_COUNT:8
;LAYER:0
M106 S25.5
G1 F300 Z0.6
G0 F4800 X97.787 Y25.321 Z0.6
;TYPE:SKIRT
G1 F300 Z0.2
G1 F2700 E0
G1 F2100 X97.859 Y25.082 E0.0083
G1 X97.983 Y24.726 E0.02084
G1 X98.074 Y24.497 E0.02904
G1 X98.227 Y24.152 E0.04159
G1 X98.344 Y23.916 E0.05035
G1 X98.526 Y23.587 E0.06286
G1 X98.65 Y23.382 E0.07082
G1 X98.858 Y23.068 E0.08335
G1 X99.009 Y22.86 E0.0919
G1 X99.244 Y22.564 E0.10447
G1 X99.411 Y22.371 E0.11296
G1 X99.674 Y22.092 E0.12571
G1 X99.848 Y21.922 E0.1338
G1 X100.123 Y21.674 E0.14612
G1 X100.32 Y21.511 E0.15462
G1 X100.626 Y21.279 E0.1674
G1 X100.839 Y21.132 E0.176
G1 X101.158 Y20.931 E0.18854
G1 X101.371 Y20.808 E0.19672
G1 X101.705 Y20.634 E0.20925
G1 X101.934 Y20.527 E0.21766
G1 X102.281 Y20.382 E0.23017
G1 X102.511 Y20.297 E0.23832
G1 X102.871 Y20.18 E0.25091
G1 X103.121 Y20.11 E0.25955
G1 X103.488 Y20.025 E0.27208
G1 X103.736 Y19.979 E0.28047
G1 X104.11 Y19.925 E0.29303
G1 X104.354 Y19.9 E0.30119
G1 X104.726 Y19.877 E0.31359
G1 X104.911 Y19.871 E0.31974
G1 X130.102 Y19.871 E1.1576
G1 X130.294 Y19.877 E1.16399
G1 X130.669 Y19.901 E1.17649
G1 X130.916 Y19.927 E1.18475
G1 X131.288 Y19.982 E1.19726
G1 X131.545 Y20.032 E1.20596
G1 X131.914 Y20.12 E1.21858
G1 X132.15 Y20.186 E1.22673
G1 X132.508 Y20.303 E1.23926
G1 X132.742 Y20.391 E1.24757
G1 X133.088 Y20.537 E1.26006
G1 X133.317 Y20.645 E1.26848
G1 X133.652 Y20.821 E1.28107
G1 X133.861 Y20.942 E1.2891
G1 X134.177 Y21.142 E1.30154
G1 X134.393 Y21.292 E1.31029
G1 X134.693 Y21.521 E1.32284
G1 X134.882 Y21.678 E1.33101
G1 X135.157 Y21.926 E1.34333
G1 X135.336 Y22.101 E1.35166
G1 X135.594 Y22.376 E1.3642
G1 X135.755 Y22.563 E1.3724
G1 X135.991 Y22.86 E1.38502
G1 X136.142 Y23.067 E1.39354
G1 X136.349 Y23.379 E1.406
G1 X136.478 Y23.593 E1.41431
G1 X136.66 Y23.924 E1.42687
G1 X136.774 Y24.154 E1.43541
G1 X136.926 Y24.497 E1.44789
G1 X137.015 Y24.723 E1.45597
G1 X137.14 Y25.081 E1.46858
G1 X137.212 Y25.318 E1.47682
G1 X137.306 Y25.681 E1.48929
G1 X137.36 Y25.932 E1.49783
G1 X137.423 Y26.304 E1.51038
G1 X137.455 Y26.558 E1.51889
G1 X137.486 Y26.933 E1.53141
G1 X137.496 Y27.18 E1.53963
G1 X137.496 Y27.557 E1.55217
G1 X137.486 Y27.804 E1.56039
G1 X137.455 Y28.18 E1.57294
G1 X137.423 Y28.433 E1.58142
G1 X137.36 Y28.806 E1.594
G1 X137.306 Y29.058 E1.60257
G1 X137.212 Y29.421 E1.61505
G1 X137.143 Y29.651 E1.62303
G1 X137.019 Y30.009 E1.63563
G1 X136.925 Y30.246 E1.64411
G1 X136.772 Y30.59 E1.65664
G1 X136.656 Y30.823 E1.66529
G1 X136.474 Y31.152 E1.6778
G1 X136.35 Y31.357 E1.68577
G1 X136.142 Y31.671 E1.69829
G1 X135.991 Y31.879 E1.70684
G1 X135.756 Y32.175 E1.71941
G1 X135.593 Y32.364 E1.72771
G1 X135.353 Y32.619 E1.73936
G1 X135.594 Y32.876 E1.75108
G1 X135.755 Y33.063 E1.75929
G1 X135.991 Y33.36 E1.7719
G1 X136.142 Y33.567 E1.78043
G1 X136.349 Y33.879 E1.79288
G1 X136.478 Y34.093 E1.80119
G1 X136.66 Y34.424 E1.81375
G1 X136.774 Y34.654 E1.82229
G1 X136.926 Y34.997 E1.83477
G1 X137.015 Y35.223 E1.84285
G1 X137.14 Y35.581 E1.85546
G1 X137.212 Y35.818 E1.8637
G1 X137.306 Y36.181 E1.87617
G1 X137.36 Y36.432 E1.88471
G1 X137.423 Y36.804 E1.89726
G1 X137.455 Y37.058 E1.90577
G1 X137.486 Y37.433 E1.91829
G1 X137.496 Y37.68 E1.92651
G1 X137.496 Y38.057 E1.93905
G1 X137.486 Y38.304 E1.94727
G1 X137.455 Y38.68 E1.95982
G1 X137.423 Y38.933 E1.9683
G1 X137.36 Y39.306 E1.98088
G1 X137.306 Y39.558 E1.98945
G1 X137.212 Y39.921 E2.00193
G1 X137.143 Y40.151 E2.00991
G1 X137.019 Y40.509 E2.02251
G1 X136.925 Y40.746 E2.03099
G1 X136.772 Y41.09 E2.04352
G1 X136.656 Y41.323 E2.05217
G1 X136.474 Y41.652 E2.06468
G1 X136.35 Y41.857 E2.07265
G1 X136.142 Y42.171 E2.08517
G1 X135.991 Y42.379 E2.09372
G1 X135.756 Y42.675 E2.10629
G1 X135.593 Y42.864 E2.1146
G1 X135.353 Y43.119 E2.12624
G1 X135.594 Y43.376 E2.13796
G1 X135.755 Y43.563 E2.14617
G1 X135.991 Y43.86 E2.15878
G1 X136.142 Y44.067 E2.16731
G1 X136.349 Y44.379 E2.17976
G1 X136.478 Y44.593 E2.18807
G1 X136.66 Y44.924 E2.20063
G1 X136.774 Y45.154 E2.20917
G1 X136.926 Y45.497 E2.22165
G1 X137.015 Y45.723 E2.22973
G1 X137.14 Y46.081 E2.24234
G1 X137.212 Y46.318 E2.25058
G1 X137.306 Y46.681 E2.26305
G1 X137.36 Y46.932 E2.27159
G1 X137.423 Y47.304 E2.28414
G1 X137.455 Y47.558 E2.29265
G1 X137.486 Y47.933 E2.30517
G1 X137.496 Y48.18 E2.31339
G1 X137.496 Y48.557 E2.32593
G1 X137.486 Y48.804 E2.33415
G1 X137.455 Y49.18 E2.3467
G1 X137.423 Y49.433 E2.35518
G1 X137.36 Y49.806 E2.36776
G1 X137.306 Y50.058 E2.37634
G1 X137.212 Y50.421 E2.38881
G1 X137.143 Y50.651 E2.39679
G1 X137.019 Y51.009 E2.4094
G1 X136.925 Y51.246 E2.41788
G1 X136.772 Y51.59 E2.4304
G1 X136.656 Y51.823 E2.43905
G1 X136.474 Y52.152 E2.45156
G1 X136.35 Y52.357 E2.45953
G1 X136.142 Y52.671 E2.47206
G1 X135.991 Y52.879 E2.4806
G1 X135.756 Y53.175 E2.49318
G1 X135.593 Y53.364 E2.50148
G1 X135.33 Y53.644 E2.51425
G1 X135.142 Y53.827 E2.52298
G1 X134.86 Y54.079 E2.53556
G1 X134.674 Y54.232 E2.54357
G1 X134.376 Y54.458 E2.55601
G1 X134.164 Y54.605 E2.56459
G1 X133.844 Y54.807 E2.57717
G1 X133.527 Y54.988 E2.58932
G1 X133.352 Y55.077 E2.59585
G1 X133.011 Y55.237 E2.60837
G1 X132.774 Y55.336 E2.61692
G1 X132.421 Y55.466 E2.62943
G1 X132.188 Y55.541 E2.63757
G1 X131.825 Y55.642 E2.6501
G1 X131.576 Y55.7 E2.65861
G1 X131.204 Y55.77 E2.6712
G1 X130.96 Y55.806 E2.6794
G1 X130.586 Y55.845 E2.69191
G1 X130.218 Y55.866 E2.70416
G1 X130.089 Y55.869 E2.70846
G1 X104.898 Y55.869 E3.54631
G1 X104.699 Y55.862 E3.55294
G1 X104.323 Y55.837 E3.56547
G1 X104.083 Y55.812 E3.57349
G1 X103.711 Y55.757 E3.586
G1 X103.458 Y55.708 E3.59457
G1 X103.091 Y55.621 E3.60712
G1 X102.846 Y55.552 E3.61558
G1 X102.487 Y55.434 E3.62815
G1 X102.261 Y55.349 E3.63618
G1 X101.914 Y55.203 E3.6487
G1 X101.681 Y55.094 E3.65726
G1 X101.348 Y54.919 E3.66977
G1 X101.135 Y54.795 E3.67797
G1 X100.817 Y54.593 E3.6905
G1 X100.606 Y54.446 E3.69905
G1 X100.306 Y54.217 E3.71161
G1 X100.121 Y54.064 E3.71959
G1 X99.846 Y53.817 E3.73188
G1 X99.659 Y53.634 E3.74059
G1 X99.401 Y53.358 E3.75315
G1 X99.247 Y53.178 E3.76103
G1 X99.012 Y52.883 E3.77358
G1 X98.859 Y52.674 E3.78219
G1 X98.651 Y52.361 E3.79469
G1 X98.521 Y52.146 E3.80305
G1 X98.339 Y51.815 E3.81561
G1 X98.225 Y51.585 E3.82415
G1 X98.073 Y51.242 E3.83663
G1 X97.982 Y51.011 E3.84488
G1 X97.858 Y50.654 E3.85745
G1 X97.787 Y50.418 E3.86565
G1 X97.693 Y50.053 E3.87819
G1 X97.64 Y49.807 E3.88656
G1 X97.577 Y49.436 E3.89907
G1 X97.545 Y49.181 E3.90762
G1 X97.514 Y48.805 E3.92017
G1 X97.504 Y48.558 E3.92839
G1 X97.504 Y48.181 E3.94093
G1 X97.514 Y47.934 E3.94915
G1 X97.545 Y47.559 E3.96167
G1 X97.577 Y47.305 E3.97018
G1 X97.64 Y46.933 E3.98273
G1 X97.693 Y46.686 E3.99113
G1 X97.787 Y46.321 E4.00367
G1 X97.859 Y46.082 E4.01197
G1 X97.983 Y45.726 E4.02451
G1 X98.074 Y45.497 E4.03271
G1 X98.227 Y45.152 E4.04526
G1 X98.344 Y44.916 E4.05402
G1 X98.526 Y44.587 E4.06652
G1 X98.65 Y44.382 E4.07449
G1 X98.858 Y44.068 E4.08702
G1 X99.009 Y43.86 E4.09557
G1 X99.244 Y43.564 E4.10814
G1 X99.411 Y43.371 E4.11663
G1 X99.647 Y43.121 E4.12806
G1 X99.401 Y42.858 E4.14004
G1 X99.247 Y42.678 E4.14792
G1 X99.012 Y42.383 E4.16046
G1 X98.859 Y42.174 E4.16908
G1 X98.651 Y41.861 E4.18158
G1 X98.521 Y41.646 E4.18994
G1 X98.339 Y41.315 E4.2025
G1 X98.225 Y41.085 E4.21104
G1 X98.073 Y40.742 E4.22352
G1 X97.982 Y40.511 E4.23177
G1 X97.858 Y40.154 E4.24434
G1 X97.787 Y39.918 E4.25254
G1 X97.693 Y39.553 E4.26508
G1 X97.64 Y39.307 E4.27345
G1 X97.577 Y38.936 E4.28596
G1 X97.545 Y38.681 E4.29451
G1 X97.514 Y38.305 E4.30706
G1 X97.504 Y38.058 E4.31528
G1 X97.504 Y37.681 E4.32782
G1 X97.514 Y37.434 E4.33604
G1 X97.545 Y37.059 E4.34856
G1 X97.577 Y36.805 E4.35707
G1 X97.64 Y36.433 E4.36962
G1 X97.693 Y36.186 E4.37802
G1 X97.787 Y35.821 E4.39056
G1 X97.859 Y35.582 E4.39886
G1 X97.983 Y35.226 E4.4114
G1 X98.074 Y34.997 E4.41959
G1 X98.227 Y34.652 E4.43215
G1 X98.344 Y34.416 E4.44091
G1 X98.526 Y34.087 E4.45341
G1 X98.65 Y33.882 E4.46138
G1 X98.858 Y33.568 E4.47391
G1 X99.009 Y33.36 E4.48246
G1 X99.244 Y33.064 E4.49503
G1 X99.411 Y32.871 E4.50352
G1 X99.647 Y32.621 E4.51495
G1 X99.401 Y32.358 E4.52693
G1 X99.247 Y32.178 E4.53481
G1 X99.012 Y31.883 E4.54735
G1 X98.859 Y31.674 E4.55597
G1 X98.651 Y31.361 E4.56847
G1 X98.521 Y31.146 E4.57682
G1 X98.339 Y30.815 E4.58939
G1 X98.225 Y30.585 E4.59792
G1 X98.073 Y30.242 E4.6104
G1 X97.982 Y30.011 E4.61866
G1 X97.858 Y29.654 E4.63123
G1 X97.787 Y29.418 E4.63943
G1 X97.693 Y29.053 E4.65196
G1 X97.64 Y28.807 E4.66033
G1 X97.577 Y28.436 E4.67285
G1 X97.545 Y28.181 E4.6814
G1 X97.514 Y27.805 E4.69395
G1 X97.504 Y27.558 E4.70217
G1 X97.504 Y27.181 E4.71471
G1 X97.514 Y26.934 E4.72293
G1 X97.545 Y26.559 E4.73544
G1 X97.577 Y26.305 E4.74396
G1 X97.64 Y25.933 E4.75651
G1 X97.693 Y25.686 E4.76491
G1 X97.787 Y25.321 E4.77745
G0 F4800 X98.174 Y25.421
G1 F2100 X98.237 Y25.214 E4.78464
G1 X98.361 Y24.858 E4.79718
G1 X98.439 Y24.659 E4.80429
G1 X98.592 Y24.314 E4.81684
G1 X98.694 Y24.109 E4.82446
G1 X98.876 Y23.78 E4.83696
G1 X98.983 Y23.603 E4.84384
G1 X99.191 Y23.289 E4.85637
G1 X99.323 Y23.108 E4.86382
G1 X99.558 Y22.812 E4.87639
G1 X99.702 Y22.646 E4.8837
G1 X99.965 Y22.367 E4.89645
G1 X100.116 Y22.219 E4.90349
G1 X100.391 Y21.971 E4.9158
G1 X100.561 Y21.83 E4.92315
G1 X100.867 Y21.598 E4.93592
G1 X101.052 Y21.47 E4.9434
G1 X101.371 Y21.269 E4.95594
G1 X101.556 Y21.163 E4.96303
G1 X101.89 Y20.989 E4.97556
G1 X102.089 Y20.896 E4.98287
G1 X102.436 Y20.751 E4.99537
G1 X102.634 Y20.677 E5.0024
G1 X102.994 Y20.56 E5.01499
G1 X103.211 Y20.5 E5.02248
G1 X103.578 Y20.415 E5.03501
G1 X103.793 Y20.375 E5.04229
G1 X104.167 Y20.321 E5.05485
G1 X104.379 Y20.299 E5.06194
G1 X104.751 Y20.276 E5.07434
G1 X104.911 Y20.271 E5.07966
G1 X130.102 Y20.271 E5.91752
G1 X130.268 Y20.276 E5.92304
G1 X130.643 Y20.3 E5.93554
G1 X130.857 Y20.323 E5.9427
G1 X131.229 Y20.378 E5.95521
G1 X131.452 Y20.421 E5.96276
G1 X131.821 Y20.509 E5.97538
G1 X132.026 Y20.567 E5.98246
G1 X132.384 Y20.684 E5.99499
G1 X132.587 Y20.76 E6.0022
G1 X132.933 Y20.906 E6.01469
G1 X133.131 Y20.999 E6.02197
G1 X133.466 Y21.175 E6.03455
G1 X133.647 Y21.28 E6.04151
G1 X133.963 Y21.48 E6.05395
G1 X134.151 Y21.61 E6.06155
G1 X134.451 Y21.839 E6.07411
G1 X134.614 Y21.975 E6.08117
G1 X134.889 Y22.223 E6.09348
G1 X135.044 Y22.375 E6.1007
G1 X135.302 Y22.65 E6.11325
G1 X135.442 Y22.811 E6.12034
G1 X135.678 Y23.108 E6.13296
G1 X135.809 Y23.289 E6.14039
G1 X136.016 Y23.601 E6.15284
G1 X136.127 Y23.785 E6.15999
G1 X136.309 Y24.116 E6.17256
G1 X136.408 Y24.316 E6.17998
G1 X136.56 Y24.659 E6.19246
G1 X136.638 Y24.855 E6.19947
G1 X136.763 Y25.213 E6.21208
G1 X136.825 Y25.418 E6.21921
G1 X136.919 Y25.781 E6.23168
G1 X136.965 Y25.999 E6.23909
G1 X137.028 Y26.371 E6.25164
G1 X137.056 Y26.591 E6.25901
G1 X137.087 Y26.966 E6.27153
G1 X137.096 Y27.18 E6.27865
G1 X137.096 Y27.557 E6.29119
G1 X137.087 Y27.771 E6.29832
G1 X137.056 Y28.147 E6.31087
G1 X137.029 Y28.366 E6.3182
G1 X136.966 Y28.739 E6.33079
G1 X136.919 Y28.958 E6.33824
G1 X136.825 Y29.321 E6.35071
G1 X136.765 Y29.52 E6.35762
G1 X136.641 Y29.878 E6.37022
G1 X136.56 Y30.084 E6.37758
G1 X136.407 Y30.428 E6.39011
G1 X136.306 Y30.63 E6.39762
G1 X136.124 Y30.959 E6.41012
G1 X136.017 Y31.136 E6.417
G1 X135.809 Y31.45 E6.42953
G1 X135.677 Y31.631 E6.43698
G1 X135.442 Y31.927 E6.44955
G1 X135.301 Y32.09 E6.45672
G1 X135.038 Y32.37 E6.4695
G1 X134.774 Y32.619 E6.48157
G1 X135.044 Y32.875 E6.49394
G1 X135.302 Y33.15 E6.50648
G1 X135.442 Y33.311 E6.51358
G1 X135.678 Y33.608 E6.5262
G1 X135.809 Y33.789 E6.53363
G1 X136.016 Y34.101 E6.54608
G1 X136.127 Y34.285 E6.55323
G1 X136.309 Y34.616 E6.56579
G1 X136.408 Y34.816 E6.57321
G1 X136.56 Y35.159 E6.58569
G1 X136.638 Y35.355 E6.59271
G1 X136.763 Y35.713 E6.60532
G1 X136.825 Y35.918 E6.61244
G1 X136.919 Y36.281 E6.62492
G1 X136.965 Y36.499 E6.63233
G1 X137.028 Y36.871 E6.64488
G1 X137.056 Y37.091 E6.65225
G1 X137.087 Y37.466 E6.66477
G1 X137.096 Y37.68 E6.67189
G1 X137.096 Y38.057 E6.68443
G1 X137.087 Y38.271 E6.69155
G1 X137.056 Y38.647 E6.7041
G1 X137.029 Y38.866 E6.71144
G1 X136.966 Y39.239 E6.72402
G1 X136.919 Y39.458 E6.73147
G1 X136.825 Y39.821 E6.74394
G1 X136.765 Y40.02 E6.75086
G1 X136.641 Y40.378 E6.76346
G1 X136.56 Y40.584 E6.77082
G1 X136.407 Y40.928 E6.78334
G1 X136.306 Y41.13 E6.79085
G1 X136.124 Y41.459 E6.80336
G1 X136.017 Y41.636 E6.81024
G1 X135.809 Y41.95 E6.82277
G1 X135.677 Y42.131 E6.83022
G1 X135.442 Y42.427 E6.84279
G1 X135.301 Y42.59 E6.84996
G1 X135.038 Y42.87 E6.86273
G1 X134.774 Y43.119 E6.8748
G1 X135.044 Y43.375 E6.88718
G1 X135.302 Y43.65 E6.89972
G1 X135.442 Y43.811 E6.90682
G1 X135.678 Y44.108 E6.91943
G1 X135.809 Y44.289 E6.92686
G1 X136.016 Y44.601 E6.93932
G1 X136.127 Y44.785 E6.94646
G1 X136.309 Y45.116 E6.95903
G1 X136.408 Y45.316 E6.96645
G1 X136.56 Y45.659 E6.97893
G1 X136.638 Y45.855 E6.98595
G1 X136.763 Y46.213 E6.99856
G1 X136.825 Y46.418 E7.00568
G1 X136.919 Y46.781 E7.01815
G1 X136.965 Y46.999 E7.02556
G1 X137.028 Y47.371 E7.03811
G1 X137.056 Y47.591 E7.04549
G1 X137.087 Y47.966 E7.058
G1 X137.096 Y48.18 E7.06513
G1 X137.096 Y48.557 E7.07767
G1 X137.087 Y48.771 E7.08479
G1 X137.056 Y49.147 E7.09734
G1 X137.029 Y49.366 E7.10468
G1 X136.966 Y49.739 E7.11726
G1 X136.919 Y49.958 E7.12471
G1 X136.825 Y50.321 E7.13718
G1 X136.765 Y50.52 E7.14409
G1 X136.641 Y50.878 E7.15669
G1 X136.56 Y51.084 E7.16406
G1 X136.407 Y51.428 E7.17658
G1 X136.306 Y51.63 E7.18409
G1 X136.124 Y51.959 E7.1966
G1 X136.017 Y52.136 E7.20347
G1 X135.809 Y52.45 E7.216
G1 X135.677 Y52.631 E7.22345
G1 X135.442 Y52.927 E7.23602
G1 X135.301 Y53.09 E7.24319
G1 X135.038 Y53.37 E7.25597
G1 X134.875 Y53.529 E7.26354
G1 X134.593 Y53.781 E7.27612
G1 X134.432 Y53.914 E7.28307
G1 X134.134 Y54.14 E7.29551
G1 X133.951 Y54.267 E7.30291
G1 X133.631 Y54.469 E7.3155
G1 X133.334 Y54.638 E7.32687
G1 X133.182 Y54.715 E7.33253
G1 X132.841 Y54.875 E7.34506
G1 X132.636 Y54.961 E7.35246
G1 X132.283 Y55.091 E7.36497
G1 X132.081 Y55.156 E7.37203
G1 X131.718 Y55.257 E7.38456
G1 X131.502 Y55.307 E7.39193
G1 X131.13 Y55.377 E7.40452
G1 X130.919 Y55.408 E7.41161
G1 X130.545 Y55.447 E7.42412
G1 X130.201 Y55.467 E7.43558
G1 X130.089 Y55.469 E7.43931
G1 X104.898 Y55.469 E8.27716
G1 X104.726 Y55.463 E8.28289
G1 X104.35 Y55.438 E8.29542
G1 X104.142 Y55.416 E8.30238
G1 X103.77 Y55.361 E8.31489
G1 X103.55 Y55.319 E8.32234
G1 X103.183 Y55.232 E8.33488
G1 X102.971 Y55.172 E8.34221
G1 X102.612 Y55.054 E8.35478
G1 X102.416 Y54.981 E8.36173
G1 X102.069 Y54.835 E8.37425
G1 X101.867 Y54.74 E8.38168
G1 X101.534 Y54.565 E8.39419
G1 X101.35 Y54.458 E8.40127
G1 X101.032 Y54.256 E8.4138
G1 X100.848 Y54.128 E8.42126
G1 X100.548 Y53.899 E8.43381
G1 X100.389 Y53.766 E8.4407
G1 X100.114 Y53.519 E8.453
G1 X99.952 Y53.36 E8.46055
G1 X99.694 Y53.084 E8.47311
G1 X99.559 Y52.929 E8.47995
G1 X99.324 Y52.634 E8.49249
G1 X99.193 Y52.453 E8.49993
G1 X98.985 Y52.14 E8.51242
G1 X98.872 Y51.954 E8.51966
G1 X98.69 Y51.623 E8.53223
G1 X98.591 Y51.423 E8.53965
G1 X98.439 Y51.08 E8.55213
G1 X98.36 Y50.88 E8.55928
G1 X98.236 Y50.523 E8.57185
G1 X98.174 Y50.318 E8.57897
G1 X98.08 Y49.953 E8.59151
G1 X98.035 Y49.74 E8.59875
G1 X97.972 Y49.369 E8.61127
G1 X97.944 Y49.148 E8.61868
G1 X97.913 Y48.772 E8.63122
G1 X97.904 Y48.558 E8.63835
G1 X97.904 Y48.181 E8.65089
G1 X97.913 Y47.967 E8.65801
G1 X97.944 Y47.592 E8.67053
G1 X97.972 Y47.372 E8.6779
G1 X98.035 Y47 E8.69045
G1 X98.08 Y46.786 E8.69772
G1 X98.174 Y46.421 E8.71026
