;FLAVOR:Marlin
;TIME:1950
;Filament used: 2.0874m
;Layer height: 0.3
;MINX:98.834
;MINY:37.741
;MINZ:0.2
;MAXX:147.251
;MAXY:86.516
;MAXZ:15.3
;Generated with Cura_SteamEngine master
M140 S30
M105
M190 S30
M104 S218
M105
M109 S218
M82 ;absolute extrusion mode
; Ender 3 Custom Start G-code
G92 E0 ; Reset Extruder
G28 ; Home all axes
G1 Z2.0 F3000 ; Move Z Axis up little to prevent scratching of Heat Bed
G1 X0.1 Y20 Z0.3 F5000.0 ; Move to start position
G1 X0.1 Y200.0 Z0.3 F1500.0 E15 ; Draw the first line
G1 X0.4 Y200.0 Z0.3 F5000.0 ; Move to side a little
G1 X0.4 Y20 Z0.3 F1500.0 E30 ; Draw the second line
G92 E0 ; Reset Extruder
G1 Z2.0 F3000 ; Move Z Axis up little to prevent scratching of Heat Bed
G1 X5 Y20 Z0.3 F5000.0 ; Move over to prevent blob squish
G92 E0
G92 E0
G1 F2700 E-5
;LAYER_COUNT:50
;LAYER:0
M106 S25.5
G1 F300 Z0.6
G0 F4800 X108.334 Y68.241 Z0.6
;TYPE:SKIRT
G1 F300 Z0.2
G1 F2700 E0
G1 F2100 X108.334 Y70.927 E0.08934
G1 X123.5 Y70.927 E0.59376
G1 X123.5 Y68.241 E0.6831
G1 X108.334 Y68.241 E1.18752
G0 F4800 X107.934 Y67.841
G1 F2100 X107.934 Y71.327 E1.30346
G1 X123.9 Y71.327 E1.8345
G1 X123.9 Y67.841 E1.95044
G1 X107.934 Y67.841 E2.48147
G0 F4800 X107.534 Y67.441
G1 F2100 X107.534 Y71.727 E2.62403
G1 X124.3 Y71.727 E3.18166
G1 X124.3 Y67.441 E3.32422
G1 X107.534 Y67.441 E3.88186
G0 F4800 X107.134 Y67.041
G1 F2100 X107.134 Y72.127 E4.05102
G1 X124.7 Y72.127 E4.63527
G1 X124.7 Y67.041 E4.80443
G1 X107.134 Y67.041 E5.38867
G0 F4800 X106.734 Y66.927
G1 F2100 X106.734 Y72.527 E5.57493
G1 X125.138 Y72.527 E6.18705
G1 X125.1 Y72.241 E6.19665
G1 X125.1 Y66.641 E6.3829
G1 X106.696 Y66.641 E6.99502
G1 X106.734 Y66.927 E7.00462
G0 F4800 X106.334 Y66.927
G1 F2100 X106.334 Y72.927 E7.20418
G1 X125.778 Y72.927 E7.85089
G1 X125.749 Y72.902 E7.85216
G1 X125.595 Y72.666 E7.86154
G1 X125.512 Y72.396 E7.87093
G1 X125.5 Y72.241 E7.8761
G1 X125.5 Y66.241 E8.07566
G1 X106.056 Y66.241 E8.72237
G1 X106.085 Y66.266 E8.72365
G1 X106.239 Y66.502 E8.73302
G1 X106.322 Y66.772 E8.74241
G1 X106.334 Y66.927 E8.74758
G0 F4800 X105.934 Y66.927
G1 F2100 X105.934 Y73.327 E8.96045
G1 X126.834 Y73.327 E9.65559
G1 X127.049 Y73.367 E9.66286
G1 X127.235 Y73.48 E9.6701
G1 X127.368 Y73.653 E9.67736
G1 X127.434 Y73.927 E9.68673
G1 X127.434 Y81.927 E9.95281
G1 X127.394 Y82.142 E9.96008
G1 X127.281 Y82.328 E9.96732
G1 X127.108 Y82.461 E9.97458
G1 X126.834 Y82.527 E9.98396
G1 X101.834 Y82.527 E10.81546
G1 X101.619 Y82.487 E10.82273
G1 X101.433 Y82.374 E10.82997
G1 X101.3 Y82.201 E10.83723
G1 X101.234 Y81.927 E10.8466
G1 X101.234 Y66.927 E11.3455
G1 X101.274 Y66.712 E11.35278
G1 X101.387 Y66.526 E11.36002
G1 X101.56 Y66.393 E11.36727
G1 X101.834 Y66.327 E11.37665
G1 X105.334 Y66.327 E11.49306
G1 X105.549 Y66.367 E11.50033
G1 X105.735 Y66.48 E11.50757
G1 X105.868 Y66.653 E11.51483
G1 X105.934 Y66.927 E11.5242
G0 F4800 X105.534 Y66.927
G1 F2100 X105.534 Y73.727 E11.75037
G1 X126.834 Y73.727 E12.45881
G1 X126.953 Y73.766 E12.46298
G1 X127.034 Y73.927 E12.46897
G1 X127.034 Y81.927 E12.73505
G1 X126.995 Y82.046 E12.73922
G1 X126.834 Y82.127 E12.74521
G1 X101.834 Y82.127 E13.57672
G1 X101.715 Y82.088 E13.58088
G1 X101.634 Y81.927 E13.58688
G1 X101.634 Y66.927 E14.08578
G1 X101.673 Y66.808 E14.08994
G1 X101.834 Y66.727 E14.09594
G1 X105.334 Y66.727 E14.21235
G1 X105.453 Y66.766 E14.21651
G1 X105.534 Y66.927 E14.22251
G0 F4800 X105 Y65.841
G1 F2100 X104.785 Y65.801 E14.22978
G1 X104.599 Y65.688 E14.23702
G1 X104.466 Y65.515 E14.24428
G1 X104.4 Y65.241 E14.25365
G1 X104.4 Y57.241 E14.51973
G1 X104.44 Y57.026 E14.52701
G1 X104.553 Y56.84 E14.53424
G1 X104.726 Y56.707 E14.5415
G1 X105 Y56.641 E14.55088
G1 X130 Y56.641 E15.38238
G1 X130.215 Y56.681 E15.38965
G1 X130.401 Y56.794 E15.39689
G1 X130.534 Y56.967 E15.40415
G1 X130.6 Y57.241 E15.41352
G1 X130.6 Y72.241 E15.91243
G1 X130.56 Y72.456 E15.9197
G1 X130.447 Y72.642 E15.92694
G1 X130.274 Y72.775 E15.9342
G1 X130 Y72.841 E15.94357
G1 X126.5 Y72.841 E16.05998
G1 X126.285 Y72.801 E16.06725
G1 X126.099 Y72.688 E16.07449
G1 X125.966 Y72.515 E16.08175
G1 X125.9 Y72.241 E16.09112
G1 X125.9 Y65.841 E16.30399
G1 X105 Y65.841 E16.99913
G0 F4800 X105 Y65.441
G1 F2100 X104.881 Y65.402 E17.00329
G1 X104.8 Y65.241 E17.00929
G1 X104.8 Y57.241 E17.27537
G1 X104.839 Y57.122 E17.27953
G1 X105 Y57.041 E17.28553
G1 X130 Y57.041 E18.11703
G1 X130.119 Y57.08 E18.12119
G1 X130.2 Y57.241 E18.12719
G1 X130.2 Y72.241 E18.62609
G1 X130.161 Y72.36 E18.63026
G1 X130 Y72.441 E18.63625
G1 X126.5 Y72.441 E18.75266
G1 X126.381 Y72.402 E18.75683
G1 X126.3 Y72.241 E18.76282
G1 X126.3 Y65.441 E18.98899
G1 X105 Y65.441 E19.69743
G0 F4800 X104.278 Y65.927
G1 F2100 X104.249 Y65.902 E19.6987
G1 X104.095 Y65.666 E19.70808
G1 X104.012 Y65.396 E19.71747
G1 X104 Y65.241 E19.72264
G1 X104 Y57.241 E19.98872
G1 X104.04 Y56.962 E19.9981
G1 X104.156 Y56.705 E20.00748
G1 X104.339 Y56.49 E20.01687
G1 X104.575 Y56.336 E20.02624
G1 X104.845 Y56.253 E20.03563
G1 X105 Y56.241 E20.0408
G1 X125.644 Y56.241 E20.72743
G1 X125.595 Y56.166 E20.73041
G1 X125.512 Y55.896 E20.7398
G1 X125.5 Y55.741 E20.74497
G1 X125.5 Y49.741 E20.94453
G1 X105 Y49.741 E21.62637
G1 X104.721 Y49.701 E21.63574
G1 X104.464 Y49.585 E21.64512
G1 X104.249 Y49.402 E21.65451
G1 X104.095 Y49.166 E21.66388
G1 X104.012 Y48.896 E21.67328
G1 X104 Y48.741 E21.67845
G1 X104 Y40.741 E21.94453
G1 X104.04 Y40.462 E21.9539
G1 X104.156 Y40.205 E21.96328
G1 X104.339 Y39.99 E21.97267
G1 X104.575 Y39.836 E21.98204
G1 X104.845 Y39.753 E21.99144
G1 X105 Y39.741 E21.99661
G1 X130 Y39.741 E22.82811
G1 X130.279 Y39.781 E22.83749
G1 X130.536 Y39.897 E22.84687
G1 X130.751 Y40.08 E22.85626
G1 X130.905 Y40.316 E22.86563
G1 X130.988 Y40.586 E22.87502
G1 X131 Y40.741 E22.8802
G1 X131 Y55.741 E23.3791
G1 X130.96 Y56.02 E23.38847
G1 X130.844 Y56.277 E23.39785
G1 X130.661 Y56.492 E23.40724
G1 X130.751 Y56.58 E23.41143
G1 X130.905 Y56.816 E23.4208
G1 X130.988 Y57.086 E23.4302
G1 X131 Y57.241 E23.43537
G1 X131 Y72.241 E23.93427
G1 X130.96 Y72.52 E23.94364
G1 X130.844 Y72.777 E23.95302
G1 X130.661 Y72.992 E23.96241
G1 X130.425 Y73.146 E23.97178
G1 X130.155 Y73.229 E23.98118
G1 X130 Y73.241 E23.98635
G1 X127.556 Y73.241 E24.06764
G1 X127.585 Y73.266 E24.06891
G1 X127.739 Y73.502 E24.07828
G1 X127.822 Y73.772 E24.08768
G1 X127.834 Y73.927 E24.09285
G1 X127.834 Y81.927 E24.35893
G1 X127.794 Y82.206 E24.3683
G1 X127.678 Y82.463 E24.37768
G1 X127.495 Y82.678 E24.38707
G1 X127.259 Y82.832 E24.39645
G1 X126.989 Y82.915 E24.40584
G1 X126.834 Y82.927 E24.41101
G1 X101.834 Y82.927 E25.24252
G1 X101.555 Y82.887 E25.25189
G1 X101.298 Y82.771 E25.26127
G1 X101.083 Y82.588 E25.27066
G1 X100.929 Y82.352 E25.28003
G1 X100.846 Y82.082 E25.28943
G1 X100.834 Y81.927 E25.2946
G1 X100.834 Y66.927 E25.7935
G1 X100.874 Y66.648 E25.80287
G1 X100.99 Y66.391 E25.81225
G1 X101.173 Y66.176 E25.82164
G1 X101.409 Y66.022 E25.83102
G1 X101.679 Y65.939 E25.84041
G1 X101.834 Y65.927 E25.84558
G1 X104.278 Y65.927 E25.92687
G0 F4800 X103.638 Y65.527
G1 F2100 X103.6 Y65.241 E25.93646
G1 X103.6 Y57.241 E26.20255
G1 X103.64 Y56.909 E26.21367
G1 X103.757 Y56.597 E26.22475
G1 X103.945 Y56.32 E26.23589
G1 X104.193 Y56.097 E26.24698
G1 X104.487 Y55.938 E26.2581
G1 X104.811 Y55.854 E26.26923
G1 X105 Y55.841 E26.27553
G1 X125.107 Y55.841 E26.94429
G1 X125.1 Y55.741 E26.94762
G1 X125.1 Y50.141 E27.13388
G1 X105 Y50.141 E27.80241
G1 X104.668 Y50.101 E27.81353
G1 X104.356 Y49.984 E27.82462
G1 X104.079 Y49.796 E27.83575
G1 X103.856 Y49.548 E27.84684
G1 X103.697 Y49.254 E27.85796
G1 X103.613 Y48.93 E27.86909
G1 X103.6 Y48.741 E27.87539
G1 X103.6 Y40.741 E28.14147
G1 X103.64 Y40.409 E28.1526
G1 X103.757 Y40.097 E28.16368
G1 X103.945 Y39.82 E28.17481
G1 X104.193 Y39.597 E28.18591
G1 X104.487 Y39.438 E28.19702
G1 X104.811 Y39.354 E28.20816
G1 X105 Y39.341 E28.21446
G1 X130 Y39.341 E29.04596
G1 X130.332 Y39.381 E29.05708
G1 X130.644 Y39.498 E29.06817
G1 X130.921 Y39.686 E29.0793
G1 X131.144 Y39.934 E29.09039
G1 X131.303 Y40.228 E29.10151
G1 X131.387 Y40.552 E29.11264
G1 X131.4 Y40.741 E29.11894
G1 X131.4 Y55.741 E29.61785
G1 X131.36 Y56.073 E29.62897
G1 X131.243 Y56.385 E29.64005
G1 X131.173 Y56.488 E29.64419
G1 X131.303 Y56.728 E29.65327
G1 X131.387 Y57.052 E29.6644
G1 X131.4 Y57.241 E29.6707
G1 X131.4 Y72.241 E30.16961
G1 X131.36 Y72.573 E30.18073
G1 X131.243 Y72.885 E30.19181
G1 X131.055 Y73.162 E30.20295
G1 X130.807 Y73.385 E30.21404
G1 X130.513 Y73.544 E30.22516
G1 X130.189 Y73.628 E30.23629
G1 X130 Y73.641 E30.24259
G1 X128.196 Y73.641 E30.30259
G1 X128.234 Y73.927 E30.31219
G1 X128.234 Y79.061 E30.48294
G1 X128.444 Y78.872 E30.49234
G1 X128.738 Y78.713 E30.50346
G1 X129.062 Y78.629 E30.51459
G1 X129.251 Y78.616 E30.52089
G1 X134.851 Y78.616 E30.70715
G1 X134.851 Y58.516 E31.37568
G1 X134.891 Y58.184 E31.3868
G1 X135.008 Y57.872 E31.39788
G1 X135.196 Y57.595 E31.40902
G1 X135.444 Y57.372 E31.42011
G1 X135.738 Y57.213 E31.43123
G1 X136.062 Y57.129 E31.44236
G1 X136.251 Y57.116 E31.44866
G1 X144.251 Y57.116 E31.71474
G1 X144.583 Y57.156 E31.72586
G1 X144.895 Y57.273 E31.73695
G1 X145.172 Y57.461 E31.74808
G1 X145.395 Y57.709 E31.75917
G1 X145.554 Y58.003 E31.77029
G1 X145.638 Y58.327 E31.78142
G1 X145.651 Y58.516 E31.78772
G1 X145.651 Y83.516 E32.61923
G1 X145.611 Y83.848 E32.63035
G1 X145.494 Y84.16 E32.64143
G1 X145.306 Y84.437 E32.65257
G1 X145.058 Y84.66 E32.66366
G1 X144.764 Y84.819 E32.67478
G1 X144.44 Y84.903 E32.68591
G1 X144.251 Y84.916 E32.69221
G1 X129.251 Y84.916 E33.19111
G1 X128.919 Y84.876 E33.20223
G1 X128.607 Y84.759 E33.21332
G1 X128.33 Y84.571 E33.22445
G1 X128.107 Y84.323 E33.23554
G1 X127.948 Y84.029 E33.24666
G1 X127.864 Y83.705 E33.25779
G1 X127.851 Y83.516 E33.26409
G1 X127.851 Y82.882 E33.28518
G1 X127.641 Y83.071 E33.29458
G1 X127.347 Y83.23 E33.3057
G1 X127.023 Y83.314 E33.31683
G1 X126.834 Y83.327 E33.32313
G1 X101.834 Y83.327 E34.15463
G1 X101.502 Y83.287 E34.16575
G1 X101.19 Y83.17 E34.17684
G1 X100.913 Y82.982 E34.18797
G1 X100.69 Y82.734 E34.19906
G1 X100.531 Y82.44 E34.21018
G1 X100.447 Y82.116 E34.22131
G1 X100.434 Y81.927 E34.22762
G1 X100.434 Y66.927 E34.72652
G1 X100.474 Y66.595 E34.73764
G1 X100.591 Y66.283 E34.74872
G1 X100.779 Y66.006 E34.75986
G1 X101.027 Y65.783 E34.77095
G1 X101.321 Y65.624 E34.78207
G1 X101.645 Y65.54 E34.7932
G1 X101.834 Y65.527 E34.7995
G1 X103.638 Y65.527 E34.8595
G0 F4800 X103.2 Y65.127
G1 F2100 X103.2 Y57.241 E35.12179
G1 X103.24 Y56.864 E35.1344
G1 X103.358 Y56.504 E35.147
G1 X103.548 Y56.177 E35.15958
G1 X103.803 Y55.896 E35.1722
G1 X104.112 Y55.676 E35.18482
G1 X104.459 Y55.524 E35.19742
G1 X105 Y55.441 E35.21562
G1 X124.7 Y55.441 E35.87085
G1 X124.7 Y50.541 E36.03382
G1 X105 Y50.541 E36.68904
G1 X104.623 Y50.501 E36.70165
G1 X104.263 Y50.383 E36.71425
G1 X103.936 Y50.193 E36.72683
G1 X103.655 Y49.938 E36.73945
G1 X103.435 Y49.629 E36.75207
G1 X103.283 Y49.282 E36.76467
G1 X103.2 Y48.741 E36.78287
G1 X103.2 Y40.741 E37.04896
G1 X103.24 Y40.364 E37.06156
G1 X103.358 Y40.004 E37.07417
G1 X103.548 Y39.677 E37.08674
G1 X103.803 Y39.396 E37.09936
G1 X104.112 Y39.176 E37.11198
G1 X104.459 Y39.024 E37.12458
G1 X105 Y38.941 E37.14279
G1 X130 Y38.941 E37.97429
G1 X130.377 Y38.981 E37.9869
G1 X130.737 Y39.099 E37.9995
G1 X131.064 Y39.289 E38.01208
G1 X131.345 Y39.544 E38.0247
G1 X131.565 Y39.853 E38.03731
G1 X131.717 Y40.2 E38.04991
G1 X131.8 Y40.741 E38.06812
G1 X131.8 Y55.741 E38.56702
G1 X131.76 Y56.118 E38.57963
G1 X131.642 Y56.478 E38.59223
G1 X131.717 Y56.7 E38.60002
G1 X131.8 Y57.241 E38.61823
G1 X131.8 Y72.241 E39.11713
G1 X131.76 Y72.618 E39.12974
G1 X131.642 Y72.978 E39.14234
G1 X131.452 Y73.305 E39.15492
G1 X131.197 Y73.586 E39.16754
G1 X130.888 Y73.806 E39.18016
G1 X130.541 Y73.958 E39.19276
G1 X130 Y74.041 E39.21096
G1 X128.634 Y74.041 E39.25639
G1 X128.634 Y78.332 E39.39911
G1 X128.71 Y78.299 E39.40187
G1 X129.251 Y78.216 E39.42007
G1 X134.451 Y78.216 E39.59303
G1 X134.451 Y58.516 E40.24825
G1 X134.491 Y58.139 E40.26086
G1 X134.609 Y57.779 E40.27346
G1 X134.799 Y57.452 E40.28604
G1 X135.054 Y57.171 E40.29866
G1 X135.363 Y56.951 E40.31128
G1 X135.71 Y56.799 E40.32388
G1 X136.251 Y56.716 E40.34208
G1 X144.251 Y56.716 E40.60816
G1 X144.628 Y56.756 E40.62077
G1 X144.988 Y56.874 E40.63337
G1 X145.315 Y57.064 E40.64595
G1 X145.596 Y57.319 E40.65857
G1 X145.816 Y57.628 E40.67119
G1 X145.968 Y57.975 E40.68379
G1 X146.051 Y58.516 E40.70199
G1 X146.051 Y83.516 E41.53349
G1 X146.011 Y83.893 E41.5461
G1 X145.893 Y84.253 E41.5587
G1 X145.703 Y84.58 E41.57128
G1 X145.448 Y84.861 E41.5839
G1 X145.139 Y85.081 E41.59652
G1 X144.792 Y85.233 E41.60912
G1 X144.251 Y85.316 E41.62732
G1 X129.251 Y85.316 E42.12623
G1 X128.874 Y85.276 E42.13883
G1 X128.514 Y85.158 E42.15144
G1 X128.187 Y84.968 E42.16401
G1 X127.906 Y84.713 E42.17663
G1 X127.686 Y84.404 E42.18925
G1 X127.534 Y84.057 E42.20185
G1 X127.465 Y83.605 E42.21706
G1 X127.375 Y83.644 E42.22032
G1 X126.834 Y83.727 E42.23853
G1 X101.834 Y83.727 E43.07003
G1 X101.457 Y83.687 E43.08264
G1 X101.097 Y83.569 E43.09524
G1 X100.77 Y83.379 E43.10782
G1 X100.489 Y83.124 E43.12044
G1 X100.269 Y82.815 E43.13305
G1 X100.117 Y82.468 E43.14565
G1 X100.034 Y81.927 E43.16386
G1 X100.034 Y66.927 E43.66276
G1 X100.074 Y66.55 E43.67537
G1 X100.192 Y66.19 E43.68797
G1 X100.382 Y65.863 E43.70055
G1 X100.637 Y65.582 E43.71317
G1 X100.946 Y65.362 E43.72579
G1 X101.293 Y65.21 E43.73839
G1 X101.834 Y65.127 E43.75659
G1 X103.2 Y65.127 E43.80202
G0 F4800 X102.8 Y64.727
G1 F2100 X102.8 Y57.241 E44.05101
G1 X102.84 Y56.824 E44.06494
G1 X102.958 Y56.422 E44.07888
G1 X103.151 Y56.05 E44.09282
G1 X103.41 Y55.721 E44.10674
G1 X103.727 Y55.447 E44.12068
G1 X104.09 Y55.238 E44.13461
G1 X104.487 Y55.102 E44.14857
G1 X105 Y55.041 E44.16575
G1 X124.3 Y55.041 E44.80767
G1 X124.3 Y50.941 E44.94404
G1 X105 Y50.941 E45.58596
G1 X104.583 Y50.901 E45.59989
G1 X104.181 Y50.783 E45.61383
G1 X103.809 Y50.59 E45.62776
G1 X103.48 Y50.331 E45.64169
G1 X103.206 Y50.014 E45.65563
G1 X102.997 Y49.651 E45.66956
G1 X102.861 Y49.254 E45.68352
G1 X102.8 Y48.741 E45.7007
G1 X102.8 Y40.741 E45.96678
G1 X102.84 Y40.324 E45.98071
G1 X102.958 Y39.922 E45.99465
G1 X103.151 Y39.55 E46.00859
G1 X103.41 Y39.221 E46.02251
G1 X103.727 Y38.947 E46.03645
G1 X104.09 Y38.738 E46.05038
G1 X104.487 Y38.602 E46.06434
G1 X105 Y38.541 E46.08152
G1 X130 Y38.541 E46.91302
G1 X130.417 Y38.581 E46.92696
G1 X130.819 Y38.699 E46.94089
G1 X131.191 Y38.892 E46.95483
G1 X131.52 Y39.151 E46.96876
G1 X131.794 Y39.468 E46.98269
G1 X132.003 Y39.831 E46.99663
G1 X132.139 Y40.228 E47.01058
G1 X132.2 Y40.741 E47.02777
G1 X132.2 Y55.741 E47.52667
G1 X132.16 Y56.158 E47.5406
G1 X132.06 Y56.498 E47.55239
G1 X132.139 Y56.728 E47.56048
G1 X132.2 Y57.241 E47.57766
G1 X132.2 Y72.241 E48.07656
G1 X132.16 Y72.658 E48.09049
G1 X132.042 Y73.06 E48.10443
G1 X131.849 Y73.432 E48.11837
G1 X131.59 Y73.761 E48.13229
G1 X131.273 Y74.035 E48.14623
G1 X130.91 Y74.244 E48.16016
G1 X130.513 Y74.38 E48.17412
G1 X130 Y74.441 E48.1913
G1 X129.034 Y74.441 E48.22343
G1 X129.034 Y77.842 E48.33655
G1 X129.251 Y77.816 E48.34382
G1 X134.051 Y77.816 E48.50347
G1 X134.051 Y58.516 E49.14539
G1 X134.091 Y58.099 E49.15932
G1 X134.209 Y57.697 E49.17326
G1 X134.402 Y57.325 E49.18719
G1 X134.661 Y56.996 E49.20112
G1 X134.978 Y56.722 E49.21506
G1 X135.341 Y56.513 E49.22899
G1 X135.738 Y56.377 E49.24295
G1 X136.251 Y56.316 E49.26013
G1 X144.251 Y56.316 E49.52621
G1 X144.668 Y56.356 E49.54014
G1 X145.07 Y56.474 E49.55408
G1 X145.442 Y56.667 E49.56802
G1 X145.771 Y56.926 E49.58194
G1 X146.045 Y57.243 E49.59588
G1 X146.254 Y57.606 E49.60981
G1 X146.39 Y58.003 E49.62377
G1 X146.451 Y58.516 E49.64095
G1 X146.451 Y83.516 E50.47245
G1 X146.411 Y83.933 E50.48639
G1 X146.293 Y84.335 E50.50032
G1 X146.1 Y84.707 E50.51426
G1 X145.841 Y85.036 E50.52819
G1 X145.524 Y85.31 E50.54212
G1 X145.161 Y85.519 E50.55606
G1 X144.764 Y85.655 E50.57001
G1 X144.251 Y85.716 E50.5872
G1 X129.251 Y85.716 E51.0861
G1 X128.834 Y85.676 E51.10003
G1 X128.432 Y85.558 E51.11397
G1 X128.06 Y85.365 E51.1279
G1 X127.731 Y85.106 E51.14183
G1 X127.457 Y84.789 E51.15577
G1 X127.248 Y84.426 E51.1697
