;FLAVOR:Marlin
;TIME:5945
;Filament used: 5.93004m
;Layer height: 0.3
;MINX:91.736
;MINY:93.182
;MINZ:0.2
;MAXX:140.065
;MAXY:141.818
;MAXZ:44.4
;Generated with Cura_SteamEngine master
M140 S30
M105
M190 S30
M104 S218
M105
M109 S218
M82 ;absolute extrusion mode
; Ender 3 Custom Start G-code
G92 E0 ; Reset Extruder
G28 ; Home all axes
G1 Z2.0 F3000 ; Move Z Axis up little to prevent scratching of Heat Bed
G1 X0.1 Y20 Z0.3 F5000.0 ; Move to start position
G1 X0.1 Y200.0 Z0.3 F1500.0 E15 ; Draw the first line
G1 X0.4 Y200.0 Z0.3 F5000.0 ; Move to side a little
G1 X0.4 Y20 Z0.3 F1500.0 E30 ; Draw the second line
G92 E0 ; Reset Extruder
G1 Z2.0 F3000 ; Move Z Axis up little to prevent scratching of Heat Bed
G1 X5 Y20 Z0.3 F5000.0 ; Move over to prevent blob squish
G92 E0
G92 E0
G1 F2700 E-5
;LAYER_COUNT:147
;LAYER:0
M106 S25.5
G1 F300 Z0.6
G0 F4800 X98.086 Y102.454 Z0.6
;TYPE:SKIRT
G1 F300 Z0.2
G1 F2700 E0
G1 F2100 X98.634 Y101.938 E0.02503
G1 X98.735 Y101.848 E0.02953
G1 X99.307 Y101.356 E0.05463
G1 X99.398 Y101.28 E0.05857
G1 X99.989 Y100.811 E0.08367
G1 X100.092 Y100.733 E0.08796
G1 X100.701 Y100.291 E0.11299
G1 X100.802 Y100.221 E0.11708
G1 X101.429 Y99.804 E0.14212
G1 X101.537 Y99.735 E0.14639
G1 X102.185 Y99.343 E0.17158
G1 X102.292 Y99.281 E0.17569
G1 X102.952 Y98.918 E0.20074
G1 X103.066 Y98.859 E0.20501
G1 X103.74 Y98.525 E0.23003
G1 X103.853 Y98.472 E0.23418
G1 X104.541 Y98.166 E0.25923
G1 X104.655 Y98.118 E0.26334
G1 X105.357 Y97.84 E0.28845
G1 X105.475 Y97.796 E0.29264
G1 X106.187 Y97.548 E0.31772
G1 X106.307 Y97.509 E0.32191
G1 X107.029 Y97.291 E0.347
G1 X107.153 Y97.256 E0.35128
G1 X107.885 Y97.069 E0.37641
G1 X108.607 Y96.913 E0.40098
G1 X109.092 Y96.849 E0.41725
G1 X109.581 Y96.866 E0.43353
G1 X110.061 Y96.962 E0.44981
G1 X110.519 Y97.135 E0.46609
G1 X110.943 Y97.38 E0.48238
G1 X111.321 Y97.69 E0.49864
G1 X111.644 Y98.058 E0.51492
G1 X111.903 Y98.474 E0.53122
G1 X112.09 Y98.926 E0.54749
G1 X112.202 Y99.403 E0.56379
G1 X112.235 Y99.846 E0.57856
G1 X112.235 Y103.5 E0.7001
G1 X113.235 Y103.5 E0.73336
G1 X113.235 Y99.846 E0.85489
G1 X113.275 Y99.358 E0.87117
G1 X113.394 Y98.883 E0.88746
G1 X113.588 Y98.434 E0.90373
G1 X113.853 Y98.022 E0.92002
G1 X114.181 Y97.659 E0.93629
G1 X114.564 Y97.354 E0.95258
G1 X114.992 Y97.116 E0.96887
G1 X115.452 Y96.95 E0.98513
G1 X115.933 Y96.861 E1.0014
G1 X116.423 Y96.852 E1.0177
G1 X116.858 Y96.911 E1.0323
G1 X117.47 Y97.041 E1.05311
G1 X117.594 Y97.071 E1.05735
G1 X118.443 Y97.291 E1.08652
G1 X119.164 Y97.508 E1.11157
G1 X119.286 Y97.548 E1.11584
G1 X119.998 Y97.796 E1.14091
G1 X120.113 Y97.839 E1.145
G1 X120.814 Y98.116 E1.17007
G1 X120.939 Y98.169 E1.17458
G1 X121.73 Y98.525 E1.20343
G1 X122.407 Y98.86 E1.22856
G1 X122.523 Y98.921 E1.23292
G1 X123.184 Y99.285 E1.25801
G1 X123.291 Y99.347 E1.26213
G1 X123.935 Y99.737 E1.28717
G1 X124.04 Y99.803 E1.29129
G1 X124.667 Y100.219 E1.31632
G1 X124.772 Y100.292 E1.32057
G1 X125.383 Y100.736 E1.34569
G1 X125.483 Y100.813 E1.34989
G1 X126.073 Y101.281 E1.37494
G1 X126.168 Y101.359 E1.37903
G1 X126.74 Y101.852 E1.40414
G1 X126.833 Y101.936 E1.40831
G1 X127.381 Y102.45 E1.4333
G1 X127.474 Y102.541 E1.43763
G1 X128.002 Y103.081 E1.46275
G1 X128.087 Y103.171 E1.46687
G1 X128.591 Y103.731 E1.49192
G1 X128.672 Y103.825 E1.49605
G1 X129.153 Y104.406 E1.52114
G1 X129.231 Y104.505 E1.52533
G1 X129.688 Y105.107 E1.55047
G1 X129.763 Y105.21 E1.55471
G1 X130.192 Y105.828 E1.57973
G1 X130.26 Y105.93 E1.58381
G1 X130.664 Y106.566 E1.60887
G1 X130.73 Y106.675 E1.6131
G1 X131.107 Y107.328 E1.63818
G1 X131.169 Y107.44 E1.64244
G1 X131.518 Y108.109 E1.66754
G1 X131.572 Y108.219 E1.67161
G1 X131.893 Y108.901 E1.69668
G1 X131.946 Y109.019 E1.70099
G1 X132.237 Y109.713 E1.72602
G1 X132.544 Y110.531 E1.75508
G1 X132.586 Y110.65 E1.75927
G1 X132.82 Y111.368 E1.78439
G1 X132.858 Y111.494 E1.78877
G1 X133.06 Y112.22 E1.81383
G1 X133.092 Y112.342 E1.81803
G1 X133.263 Y113.075 E1.84306
G1 X133.429 Y113.933 E1.87213
G1 X133.45 Y114.056 E1.87628
G1 X133.561 Y114.801 E1.90133
G1 X133.578 Y114.933 E1.90576
G1 X133.656 Y115.684 E1.93087
G1 X133.666 Y115.803 E1.93484
G1 X133.714 Y116.554 E1.95987
G1 X133.719 Y116.686 E1.96426
G1 X133.734 Y117.445 E1.98951
G1 X133.734 Y117.564 E1.99347
G1 X133.719 Y118.316 E2.01849
G1 X133.714 Y118.448 E2.02288
G1 X133.666 Y119.198 E2.04788
G1 X133.656 Y119.317 E2.05185
G1 X133.578 Y120.066 E2.0769
G1 X133.561 Y120.196 E2.08126
G1 X133.45 Y120.943 E2.10637
G1 X133.431 Y121.059 E2.11028
G1 X133.291 Y121.8 E2.13537
G1 X133.263 Y121.932 E2.13985
G1 X133.09 Y122.665 E2.1649
G1 X133.059 Y122.784 E2.16899
G1 X132.856 Y123.51 E2.19407
G1 X132.821 Y123.628 E2.19816
G1 X132.588 Y124.346 E2.22327
G1 X132.546 Y124.466 E2.2275
G1 X132.283 Y125.173 E2.25258
G1 X132.236 Y125.29 E2.25678
G1 X131.944 Y125.984 E2.28182
G1 X131.893 Y126.099 E2.286
G1 X131.572 Y126.781 E2.31107
G1 X131.518 Y126.891 E2.31515
G1 X131.169 Y127.56 E2.34025
G1 X131.105 Y127.675 E2.34462
G1 X130.728 Y128.326 E2.36965
G1 X130.667 Y128.428 E2.3736
G1 X130.263 Y129.066 E2.39872
G1 X130.191 Y129.174 E2.40303
G1 X129.761 Y129.792 E2.42807
G1 X129.689 Y129.89 E2.43212
G1 X129.233 Y130.492 E2.45724
G1 X129.153 Y130.594 E2.46155
G1 X128.672 Y131.175 E2.48663
G1 X128.591 Y131.269 E2.49076
G1 X128.087 Y131.829 E2.51582
G1 X127.998 Y131.923 E2.52013
G1 X127.469 Y132.462 E2.54524
G1 X127.385 Y132.545 E2.54917
G1 X126.836 Y133.062 E2.57425
G1 X126.735 Y133.152 E2.57875
G1 X126.163 Y133.644 E2.60385
G1 X126.074 Y133.718 E2.6077
G1 X125.484 Y134.187 E2.63277
G1 X125.379 Y134.267 E2.63716
G1 X124.77 Y134.709 E2.66218
G1 X124.668 Y134.78 E2.66632
G1 X124.039 Y135.198 E2.69144
G1 X123.928 Y135.268 E2.6958
G1 X123.283 Y135.657 E2.72085
G1 X123.186 Y135.713 E2.72458
G1 X122.526 Y136.078 E2.74966
G1 X122.405 Y136.142 E2.75422
G1 X121.728 Y136.477 E2.77934
G1 X121.618 Y136.528 E2.78337
G1 X120.931 Y136.834 E2.80839
G1 X120.812 Y136.884 E2.81268
G1 X120.111 Y137.161 E2.83775
G1 X119.996 Y137.204 E2.84183
G1 X119.284 Y137.452 E2.86691
G1 X119.163 Y137.491 E2.87114
G1 X118.44 Y137.709 E2.89625
G1 X118.319 Y137.743 E2.90043
G1 X117.59 Y137.93 E2.92547
G1 X117.47 Y137.958 E2.92956
G1 X116.733 Y138.115 E2.95463
G1 X116.609 Y138.139 E2.95883
G1 X115.865 Y138.265 E2.98393
G1 X115.738 Y138.284 E2.9882
G1 X114.99 Y138.378 E3.01327
G1 X114.867 Y138.39 E3.01738
G1 X114.116 Y138.453 E3.04245
G1 X113.992 Y138.461 E3.04658
G1 X113.237 Y138.493 E3.07171
G1 X113.11 Y138.496 E3.07594
G1 X112.357 Y138.496 E3.10098
G1 X112.229 Y138.493 E3.10524
G1 X111.477 Y138.461 E3.13028
G1 X111.355 Y138.454 E3.13434
G1 X110.603 Y138.391 E3.15944
G1 X110.479 Y138.378 E3.16359
G1 X109.731 Y138.284 E3.18866
G1 X109.603 Y138.265 E3.19297
G1 X108.86 Y138.139 E3.21803
G1 X108.739 Y138.116 E3.22213
G1 X108 Y137.959 E3.24726
G1 X107.878 Y137.93 E3.25143
G1 X107.149 Y137.743 E3.27646
G1 X107.026 Y137.709 E3.2807
G1 X106.305 Y137.491 E3.30575
G1 X106.187 Y137.452 E3.30989
G1 X105.474 Y137.204 E3.335
G1 X105.358 Y137.161 E3.33911
G1 X104.657 Y136.884 E3.36418
G1 X104.537 Y136.834 E3.3685
G1 X103.849 Y136.527 E3.39356
G1 X103.736 Y136.473 E3.39773
G1 X103.062 Y136.138 E3.42276
G1 X102.95 Y136.08 E3.42696
G1 X102.285 Y135.714 E3.4522
G1 X102.175 Y135.65 E3.45644
G1 X101.531 Y135.259 E3.48149
G1 X101.43 Y135.195 E3.48547
G1 X100.804 Y134.78 E3.51045
G1 X100.698 Y134.707 E3.51473
G1 X100.087 Y134.263 E3.53985
G1 X99.987 Y134.186 E3.54405
G1 X99.397 Y133.718 E3.5691
G1 X99.301 Y133.639 E3.57323
G1 X98.731 Y133.147 E3.59828
G1 X98.639 Y133.064 E3.6024
G1 X98.09 Y132.549 E3.62744
G1 X97.997 Y132.458 E3.63176
G1 X97.469 Y131.918 E3.65688
G1 X97.386 Y131.83 E3.66091
G1 X96.882 Y131.271 E3.68594
G1 X96.799 Y131.175 E3.69016
G1 X96.318 Y130.594 E3.71525
G1 X96.239 Y130.494 E3.71949
G1 X95.783 Y129.893 E3.74458
G1 X95.708 Y129.79 E3.74882
G1 X95.278 Y129.17 E3.77391
G1 X95.211 Y129.069 E3.77794
G1 X94.807 Y128.433 E3.803
G1 X94.741 Y128.324 E3.80724
G1 X94.364 Y127.671 E3.83232
G1 X94.303 Y127.56 E3.83653
G1 X93.954 Y126.892 E3.8616
G1 X93.899 Y126.781 E3.86572
G1 X93.578 Y126.099 E3.89079
G1 X93.528 Y125.986 E3.8949
G1 X93.235 Y125.291 E3.91999
G1 X93.187 Y125.171 E3.92428
G1 X92.925 Y124.466 E3.9493
G1 X92.883 Y124.347 E3.9535
G1 X92.65 Y123.629 E3.9786
G1 X92.614 Y123.509 E3.98277
G1 X92.411 Y122.781 E4.00791
G1 X92.38 Y122.66 E4.01206
G1 X92.208 Y121.927 E4.0371
G1 X92.182 Y121.804 E4.04129
G1 X92.041 Y121.065 E4.06631
G1 X92.021 Y120.944 E4.07039
G1 X91.91 Y120.197 E4.09551
G1 X91.893 Y120.066 E4.0999
G1 X91.815 Y119.315 E4.12501
G1 X91.805 Y119.196 E4.12898
G1 X91.757 Y118.445 E4.15401
G1 X91.752 Y118.318 E4.15824
G1 X91.736 Y117.564 E4.18332
G1 X91.736 Y117.436 E4.18758
G1 X91.752 Y116.682 E4.21267
G1 X91.757 Y116.555 E4.21689
G1 X91.805 Y115.804 E4.24192
G1 X91.815 Y115.685 E4.24589
G1 X91.893 Y114.934 E4.27101
G1 X91.91 Y114.802 E4.27543
G1 X92.021 Y114.057 E4.30049
G1 X92.041 Y113.938 E4.3045
G1 X92.182 Y113.197 E4.32959
G1 X92.208 Y113.074 E4.33377
G1 X92.38 Y112.339 E4.35887
G1 X92.412 Y112.215 E4.36313
G1 X92.615 Y111.489 E4.38821
G1 X92.651 Y111.369 E4.39237
G1 X92.884 Y110.653 E4.41742
G1 X92.924 Y110.539 E4.42144
G1 X93.186 Y109.832 E4.44651
G1 X93.235 Y109.707 E4.45098
G1 X93.529 Y109.011 E4.47611
G1 X93.578 Y108.902 E4.48008
G1 X93.898 Y108.221 E4.50511
G1 X93.952 Y108.111 E4.50919
G1 X94.3 Y107.443 E4.53424
G1 X94.365 Y107.326 E4.53869
G1 X94.743 Y106.673 E4.56378
G1 X94.804 Y106.572 E4.56771
G1 X95.207 Y105.935 E4.59278
G1 X95.28 Y105.825 E4.59717
G1 X95.711 Y105.206 E4.62226
G1 X95.783 Y105.107 E4.62633
G1 X96.238 Y104.507 E4.65137
G1 X96.317 Y104.406 E4.65564
G1 X96.799 Y103.824 E4.68077
G1 X96.88 Y103.731 E4.68487
G1 X97.383 Y103.172 E4.70989
G1 X97.47 Y103.08 E4.7141
G1 X98 Y102.539 E4.73929
G1 X98.086 Y102.454 E4.74331
G0 F4800 X98.361 Y102.745
G1 F2100 X98.909 Y102.229 E4.76834
G1 X98.996 Y102.151 E4.77223
G1 X99.647 Y101.593 E4.80075
G1 X100.238 Y101.124 E4.82584
G1 X100.327 Y101.057 E4.82955
G1 X100.936 Y100.615 E4.85458
G1 X101.023 Y100.554 E4.85811
G1 X101.65 Y100.137 E4.88315
G1 X101.744 Y100.077 E4.88686
G1 X102.392 Y99.685 E4.91205
G1 X102.485 Y99.632 E4.91561
G1 X103.145 Y99.269 E4.94067
G1 X103.244 Y99.217 E4.94439
G1 X103.918 Y98.883 E4.9694
G1 X104.015 Y98.837 E4.97297
G1 X104.703 Y98.531 E4.99802
G1 X105.505 Y98.212 E5.02673
G1 X105.607 Y98.174 E5.03035
G1 X106.319 Y97.926 E5.05542
G1 X106.422 Y97.892 E5.05903
G1 X107.144 Y97.674 E5.08412
G1 X107.252 Y97.644 E5.08784
G1 X107.984 Y97.457 E5.11297
G1 X108.691 Y97.304 E5.13703
G1 X109.143 Y97.248 E5.15218
G1 X109.598 Y97.271 E5.16733
G1 X110.042 Y97.374 E5.18249
G1 X110.461 Y97.553 E5.19765
G1 X110.842 Y97.802 E5.21278
G1 X111.174 Y98.114 E5.22794
G1 X111.447 Y98.479 E5.2431
G1 X111.651 Y98.886 E5.25824
G1 X111.782 Y99.323 E5.27341
G1 X111.835 Y99.846 E5.2909
G1 X111.835 Y103.9 E5.42573
G1 X113.635 Y103.9 E5.4856
G1 X113.635 Y99.846 E5.62044
G1 X113.675 Y99.392 E5.6356
G1 X113.793 Y98.952 E5.65075
G1 X113.987 Y98.54 E5.6659
G1 X114.25 Y98.167 E5.68108
G1 X114.573 Y97.846 E5.69622
G1 X114.948 Y97.587 E5.71138
G1 X115.362 Y97.397 E5.72653
G1 X115.803 Y97.282 E5.74169
G1 X116.257 Y97.246 E5.75684
G1 X116.775 Y97.303 E5.77417
G1 X117.387 Y97.433 E5.79498
G1 X117.495 Y97.458 E5.79867
G1 X118.226 Y97.646 E5.82377
G1 X118.327 Y97.674 E5.82726
G1 X119.048 Y97.891 E5.8523
G1 X119.154 Y97.926 E5.85601
G1 X119.866 Y98.174 E5.88109
G1 X119.966 Y98.211 E5.88463
G1 X120.667 Y98.488 E5.9097
G1 X120.776 Y98.534 E5.91364
G1 X121.463 Y98.842 E5.93868
G1 X121.552 Y98.884 E5.94195
G1 X122.229 Y99.219 E5.96708
G1 X122.33 Y99.271 E5.97085
G1 X122.991 Y99.635 E5.99595
G1 X123.084 Y99.689 E5.99953
G1 X123.728 Y100.079 E6.02457
G1 X123.818 Y100.136 E6.02811
G1 X124.445 Y100.552 E6.05314
G1 X124.536 Y100.616 E6.05684
G1 X125.147 Y101.06 E6.08196
G1 X125.235 Y101.126 E6.08562
G1 X125.825 Y101.594 E6.11067
G1 X126.478 Y102.155 E6.1393
G1 X126.56 Y102.228 E6.14295
G1 X127.108 Y102.742 E6.16794
G1 X127.188 Y102.82 E6.17166
G1 X127.716 Y103.36 E6.19678
G1 X127.79 Y103.439 E6.20038
G1 X128.294 Y103.999 E6.22544
G1 X128.364 Y104.08 E6.229
G1 X128.845 Y104.661 E6.25408
G1 X128.913 Y104.747 E6.25773
G1 X129.37 Y105.349 E6.28287
G1 X129.435 Y105.438 E6.28653
G1 X129.864 Y106.056 E6.31156
G1 X129.923 Y106.145 E6.31511
G1 X130.327 Y106.781 E6.34017
G1 X130.384 Y106.875 E6.34382
G1 X130.761 Y107.528 E6.3689
G1 X130.814 Y107.625 E6.37258
G1 X131.163 Y108.294 E6.39768
G1 X131.21 Y108.39 E6.40123
G1 X131.531 Y109.072 E6.4263
G1 X131.577 Y109.174 E6.43002
G1 X131.868 Y109.868 E6.45505
G1 X131.906 Y109.963 E6.45846
G1 X132.17 Y110.67 E6.48356
G1 X132.206 Y110.774 E6.48722
G1 X132.44 Y111.492 E6.51233
G1 X132.473 Y111.601 E6.51612
G1 X132.675 Y112.327 E6.54119
G1 X132.702 Y112.433 E6.54482
G1 X132.873 Y113.166 E6.56986
G1 X132.895 Y113.268 E6.57333
G1 X133.037 Y114.009 E6.59842
G1 X133.055 Y114.115 E6.602
G1 X133.166 Y114.86 E6.62705
G1 X133.18 Y114.974 E6.63087
G1 X133.258 Y115.725 E6.65598
G1 X133.267 Y115.828 E6.65942
G1 X133.315 Y116.579 E6.68445
G1 X133.319 Y116.694 E6.68828
G1 X133.334 Y117.453 E6.71353
G1 X133.334 Y117.556 E6.71696
G1 X133.319 Y118.308 E6.74197
G1 X133.315 Y118.422 E6.74577
G1 X133.267 Y119.172 E6.77076
G1 X133.258 Y119.275 E6.7742
G1 X133.18 Y120.024 E6.79925
G1 X133.166 Y120.137 E6.80303
G1 X133.055 Y120.884 E6.82815
G1 X133.038 Y120.985 E6.83156
G1 X132.898 Y121.726 E6.85664
G1 X132.873 Y121.84 E6.86052
G1 X132.7 Y122.573 E6.88557
G1 X132.674 Y122.676 E6.88911
G1 X132.471 Y123.402 E6.91418
G1 X132.44 Y123.505 E6.91776
G1 X132.207 Y124.223 E6.94286
G1 X132.171 Y124.326 E6.94649
G1 X131.908 Y125.033 E6.97158
G1 X131.868 Y125.135 E6.97523
G1 X131.576 Y125.829 E7.00027
G1 X131.21 Y126.61 E7.02895
G1 X131.163 Y126.706 E7.03251
G1 X130.814 Y127.375 E7.05761
G1 X130.759 Y127.475 E7.0614
G1 X130.382 Y128.126 E7.08642
G1 X130.329 Y128.214 E7.08984
G1 X129.925 Y128.852 E7.11496
G1 X129.862 Y128.946 E7.11872
G1 X129.371 Y129.649 E7.14724
G1 X128.915 Y130.251 E7.17236
G1 X128.845 Y130.339 E7.1761
G1 X128.364 Y130.92 E7.20119
G1 X128.294 Y131.001 E7.20475
G1 X127.79 Y131.561 E7.22981
G1 X127.713 Y131.643 E7.23355
G1 X127.184 Y132.182 E7.25867
G1 X127.11 Y132.254 E7.2621
G1 X126.561 Y132.771 E7.28718
G1 X126.474 Y132.849 E7.29107
G1 X125.902 Y133.341 E7.31616
G1 X125.825 Y133.405 E7.31949
G1 X125.235 Y133.874 E7.34456
G1 X125.144 Y133.943 E7.34836
G1 X124.535 Y134.385 E7.37339
G1 X124.447 Y134.446 E7.37695
G1 X123.818 Y134.864 E7.40207
G1 X123.722 Y134.925 E7.40585
G1 X123.077 Y135.314 E7.4309
G1 X122.992 Y135.363 E7.43417
G1 X122.332 Y135.728 E7.45925
G1 X122.227 Y135.783 E7.46319
G1 X121.55 Y136.118 E7.48832
G1 X121.455 Y136.163 E7.49181
G1 X120.768 Y136.469 E7.51683
G1 X120.665 Y136.512 E7.52054
G1 X119.964 Y136.789 E7.54561
G1 X119.864 Y136.826 E7.54915
G1 X119.152 Y137.074 E7.57423
G1 X119.048 Y137.108 E7.57787
G1 X118.325 Y137.326 E7.60299
G1 X118.22 Y137.355 E7.60661
G1 X117.491 Y137.542 E7.63164
G1 X117.387 Y137.567 E7.6352
G1 X116.65 Y137.724 E7.66026
G1 X116.542 Y137.744 E7.66391
G1 X115.688 Y137.887 E7.69271
G1 X114.94 Y137.981 E7.71779
G1 X114.833 Y137.992 E7.72137
G1 X114.082 Y138.055 E7.74643
G1 X113.975 Y138.062 E7.75
G1 X113.22 Y138.094 E7.77513
G1 X113.11 Y138.096 E7.77879
G1 X112.357 Y138.096 E7.80384
G1 X112.246 Y138.094 E7.80753
G1 X111.494 Y138.062 E7.83256
G1 X111.388 Y138.055 E7.8361
G1 X110.636 Y137.992 E7.8612
G1 X110.529 Y137.981 E7.86477
G1 X109.781 Y137.887 E7.88985
G1 X109.67 Y137.87 E7.89358
G1 X108.927 Y137.744 E7.91865
G1 X108.822 Y137.724 E7.9222
G1 X108.083 Y137.567 E7.94733
G1 X107.977 Y137.542 E7.95095
G1 X107.248 Y137.355 E7.97598
G1 X107.142 Y137.326 E7.97964
G1 X106.421 Y137.108 E8.00469
G1 X106.319 Y137.075 E8.00826
G1 X105.606 Y136.827 E8.03337
G1 X105.505 Y136.789 E8.03696
G1 X104.804 Y136.512 E8.06203
G1 X104.7 Y136.468 E8.06578
G1 X104.012 Y136.161 E8.09084
G1 X103.914 Y136.115 E8.09444
G1 X103.143 Y135.73 E8.1231
G1 X102.478 Y135.364 E8.14835
G1 X101.739 Y134.917 E8.17707
G1 X101.651 Y134.862 E8.18053
G1 X101.025 Y134.447 E8.20551
G1 X100.934 Y134.383 E8.20921
G1 X100.323 Y133.939 E8.23433
G1 X100.235 Y133.873 E8.23799
