;FLAVOR:Marlin
;TIME:272
;Filament used: 0.328435m
;Layer height: 0.3
;MINX:76.439
;MINY:27.642
;MINZ:0.2
;MAXX:112.457
;MAXY:48.726
;MAXZ:2.5
;Generated with Cura_SteamEngine master
M140 S30
M105
M190 S30
M104 S218
M105
M109 S218
M82 ;absolute extrusion mode
; Ender 3 Custom Start G-code
G92 E0 ; Reset Extruder
G28 ; Home all axes
G1 Z2.0 F3000 ; Move Z Axis up little to prevent scratching of Heat Bed
G1 X0.1 Y20 Z0.3 F5000.0 ; Move to start position
G1 X0.1 Y200.0 Z0.3 F1500.0 E15 ; Draw the first line
G1 X0.4 Y200.0 Z0.3 F5000.0 ; Move to side a little
G1 X0.4 Y20 Z0.3 F1500.0 E30 ; Draw the second line
G92 E0 ; Reset Extruder
G1 Z2.0 F3000 ; Move Z Axis up little to prevent scratching of Heat Bed
G1 X5 Y20 Z0.3 F5000.0 ; Move over to prevent blob squish
G92 E0
G92 E0
G1 F2700 E-5
;LAYER_COUNT:8
;LAYER:0
M107
G1 F300 Z0.4
G0 F4800 X76.85 Y30.558 Z0.4
;TYPE:SKIRT
G1 F300 Z0.2
G1 F2700 E0
G1 F2100 X76.951 Y30.343 E0.0079
G1 X77.134 Y30.01 E0.02054
G1 X77.263 Y29.807 E0.02854
G1 X77.486 Y29.5 E0.04116
G1 X77.642 Y29.312 E0.04928
G1 X77.919 Y29.021 E0.06265
G1 X78.095 Y28.859 E0.0706
G1 X78.364 Y28.639 E0.08216
G1 X78.554 Y28.501 E0.08997
G1 X78.888 Y28.29 E0.10311
G1 X79.091 Y28.18 E0.11079
G1 X79.433 Y28.022 E0.12332
G1 X79.662 Y27.933 E0.13149
G1 X79.99 Y27.827 E0.14296
G1 X80.208 Y27.77 E0.15045
G1 X80.599 Y27.695 E0.16369
G1 X80.842 Y27.665 E0.17184
G1 X81.21 Y27.642 E0.1841
G1 X107.7 Y27.643 E1.06516
G1 X108.089 Y27.668 E1.07813
G1 X108.326 Y27.699 E1.08608
G1 X108.7 Y27.773 E1.09876
G1 X108.928 Y27.833 E1.1066
G1 X109.268 Y27.944 E1.11849
G1 X109.483 Y28.029 E1.12618
G1 X109.834 Y28.195 E1.1391
G1 X110.047 Y28.313 E1.1472
G1 X110.368 Y28.518 E1.15986
G1 X110.552 Y28.653 E1.16745
G1 X110.822 Y28.877 E1.17912
G1 X110.997 Y29.04 E1.18708
G1 X111.268 Y29.328 E1.20023
G1 X111.417 Y29.509 E1.20803
G1 X111.633 Y29.807 E1.22027
G1 X111.762 Y30.01 E1.22827
G1 X111.946 Y30.344 E1.24095
G1 X112.046 Y30.557 E1.24878
G1 X112.184 Y30.906 E1.26126
G1 X112.257 Y31.131 E1.26913
G1 X112.35 Y31.495 E1.28162
G1 X112.395 Y31.731 E1.28961
G1 X112.442 Y32.101 E1.30202
G1 X112.457 Y32.335 E1.30982
G1 X112.457 Y32.717 E1.32252
G1 X112.442 Y32.953 E1.33039
G1 X112.395 Y33.325 E1.34286
G1 X112.35 Y33.561 E1.35085
G1 X112.259 Y33.917 E1.36307
G1 X112.187 Y34.141 E1.3709
G1 X112.046 Y34.499 E1.3837
G1 X111.945 Y34.714 E1.3916
G1 X111.758 Y35.053 E1.40447
G1 X111.575 Y35.329 E1.41549
G1 X111.759 Y35.607 E1.42658
G1 X111.942 Y35.938 E1.43915
G1 X112.043 Y36.152 E1.44703
G1 X112.185 Y36.51 E1.45984
G1 X112.258 Y36.736 E1.46773
G1 X112.35 Y37.096 E1.48009
G1 X112.395 Y37.332 E1.48808
G1 X112.442 Y37.702 E1.50049
G1 X112.457 Y37.936 E1.50829
G1 X112.457 Y38.318 E1.52099
G1 X112.442 Y38.554 E1.52886
G1 X112.395 Y38.926 E1.54133
G1 X112.35 Y39.162 E1.54932
G1 X112.259 Y39.518 E1.56154
G1 X112.187 Y39.742 E1.56937
G1 X112.046 Y40.1 E1.58216
G1 X111.945 Y40.315 E1.59007
G1 X111.758 Y40.654 E1.60294
G1 X111.537 Y40.983 E1.61612
G1 X111.759 Y41.314 E1.62938
G1 X111.942 Y41.645 E1.64196
G1 X112.043 Y41.859 E1.64983
G1 X112.185 Y42.217 E1.66264
G1 X112.258 Y42.443 E1.67054
G1 X112.35 Y42.803 E1.6829
G1 X112.395 Y43.039 E1.69089
G1 X112.442 Y43.409 E1.70329
G1 X112.457 Y43.643 E1.71109
G1 X112.457 Y44.025 E1.7238
G1 X112.442 Y44.261 E1.73166
G1 X112.395 Y44.633 E1.74413
G1 X112.35 Y44.869 E1.75212
G1 X112.259 Y45.225 E1.76435
G1 X112.187 Y45.449 E1.77217
G1 X112.046 Y45.807 E1.78497
G1 X111.945 Y46.022 E1.79287
G1 X111.758 Y46.361 E1.80575
G1 X111.629 Y46.563 E1.81372
G1 X111.41 Y46.864 E1.8261
G1 X111.254 Y47.052 E1.83422
G1 X110.977 Y47.343 E1.84759
G1 X110.801 Y47.505 E1.85554
G1 X110.532 Y47.725 E1.8671
G1 X110.342 Y47.863 E1.87491
G1 X110.008 Y48.074 E1.88805
G1 X109.805 Y48.184 E1.89573
G1 X109.473 Y48.338 E1.9079
G1 X109.244 Y48.428 E1.91609
G1 X108.906 Y48.538 E1.92791
G1 X108.688 Y48.595 E1.9354
G1 X108.285 Y48.672 E1.94905
G1 X108.042 Y48.701 E1.95719
G1 X107.696 Y48.722 E1.96872
G1 X106.489 Y48.726 E2.00886
G1 X81.323 Y48.726 E2.84589
G1 X81.078 Y48.719 E2.85404
G1 X80.819 Y48.697 E2.86269
G1 X80.582 Y48.667 E2.87063
G1 X80.196 Y48.592 E2.88371
G1 X79.968 Y48.532 E2.89155
G1 X79.617 Y48.416 E2.90385
G1 X79.402 Y48.33 E2.91155
G1 X79.057 Y48.166 E2.92425
G1 X78.845 Y48.048 E2.93232
G1 X78.536 Y47.85 E2.94453
G1 X78.351 Y47.715 E2.95215
G1 X78.074 Y47.487 E2.96408
G1 X77.899 Y47.324 E2.97203
G1 X77.628 Y47.036 E2.98519
G1 X77.479 Y46.855 E2.99298
G1 X77.267 Y46.563 E3.00499
G1 X77.138 Y46.361 E3.01296
G1 X76.951 Y46.022 E3.02583
G1 X76.85 Y45.807 E3.03374
G1 X76.709 Y45.449 E3.04653
G1 X76.637 Y45.225 E3.05436
G1 X76.546 Y44.869 E3.06658
G1 X76.501 Y44.633 E3.07457
G1 X76.454 Y44.263 E3.08698
G1 X76.439 Y44.029 E3.09477
G1 X76.439 Y43.647 E3.10748
G1 X76.454 Y43.411 E3.11535
G1 X76.501 Y43.039 E3.12782
G1 X76.546 Y42.803 E3.13581
G1 X76.638 Y42.443 E3.14817
G1 X76.71 Y42.22 E3.15596
G1 X76.85 Y41.866 E3.16862
G1 X76.951 Y41.651 E3.17652
G1 X77.134 Y41.318 E3.18916
G1 X77.359 Y40.983 E3.20258
G1 X77.138 Y40.654 E3.21576
G1 X76.951 Y40.315 E3.22864
G1 X76.85 Y40.1 E3.23654
G1 X76.709 Y39.742 E3.24934
G1 X76.637 Y39.518 E3.25716
G1 X76.546 Y39.162 E3.26939
G1 X76.501 Y38.926 E3.27738
G1 X76.454 Y38.556 E3.28978
G1 X76.439 Y38.322 E3.29758
G1 X76.439 Y37.94 E3.31029
G1 X76.454 Y37.704 E3.31815
G1 X76.501 Y37.332 E3.33062
G1 X76.546 Y37.096 E3.33861
G1 X76.638 Y36.736 E3.35097
G1 X76.71 Y36.513 E3.35877
G1 X76.85 Y36.159 E3.37143
G1 X76.951 Y35.944 E3.37933
G1 X77.134 Y35.611 E3.39197
G1 X77.321 Y35.329 E3.40322
G1 X77.138 Y35.053 E3.41423
G1 X76.951 Y34.714 E3.42711
G1 X76.85 Y34.499 E3.43501
G1 X76.709 Y34.141 E3.44781
G1 X76.637 Y33.917 E3.45563
G1 X76.546 Y33.561 E3.46786
G1 X76.501 Y33.325 E3.47585
G1 X76.454 Y32.955 E3.48825
G1 X76.439 Y32.721 E3.49605
G1 X76.439 Y32.339 E3.50876
G1 X76.454 Y32.103 E3.51662
G1 X76.501 Y31.731 E3.52909
G1 X76.546 Y31.495 E3.53708
G1 X76.638 Y31.135 E3.54944
G1 X76.71 Y30.912 E3.55724
G1 X76.85 Y30.558 E3.5699
G0 F4800 X77.212 Y30.729
G1 F2100 X77.313 Y30.514 E3.5778
G1 X77.472 Y30.225 E3.58877
G1 X77.601 Y30.022 E3.59677
G1 X77.794 Y29.756 E3.6077
G1 X77.95 Y29.568 E3.61582
G1 X78.19 Y29.315 E3.62742
G1 X78.366 Y29.153 E3.63538
G1 X78.599 Y28.962 E3.6454
G1 X78.789 Y28.824 E3.65321
G1 X79.078 Y28.642 E3.66457
G1 X79.281 Y28.532 E3.67225
G1 X79.578 Y28.395 E3.68313
G1 X79.807 Y28.306 E3.6913
G1 X80.091 Y28.214 E3.70123
G1 X80.309 Y28.157 E3.70872
G1 X80.648 Y28.092 E3.7202
G1 X80.891 Y28.062 E3.72835
G1 X81.21 Y28.042 E3.73898
G1 X107.7 Y28.043 E4.62004
G1 X108.037 Y28.065 E4.63127
G1 X108.274 Y28.096 E4.63922
G1 X108.599 Y28.16 E4.65024
G1 X108.827 Y28.22 E4.65808
G1 X109.121 Y28.316 E4.66837
G1 X109.336 Y28.401 E4.67606
G1 X109.64 Y28.545 E4.68724
G1 X109.853 Y28.663 E4.69534
G1 X110.131 Y28.841 E4.70632
G1 X110.315 Y28.976 E4.71391
G1 X110.549 Y29.169 E4.724
G1 X110.724 Y29.332 E4.73196
G1 X110.959 Y29.583 E4.74339
G1 X111.108 Y29.764 E4.75119
G1 X111.295 Y30.022 E4.76179
G1 X111.424 Y30.225 E4.76979
G1 X111.584 Y30.514 E4.78077
G1 X111.684 Y30.727 E4.7886
G1 X111.803 Y31.03 E4.79943
G1 X111.876 Y31.255 E4.80729
G1 X111.957 Y31.57 E4.81811
G1 X112.002 Y31.806 E4.8261
G1 X112.043 Y32.127 E4.83687
G1 X112.058 Y32.361 E4.84467
G1 X112.058 Y32.692 E4.85567
G1 X112.043 Y32.928 E4.86354
G1 X112.002 Y33.25 E4.87434
G1 X111.957 Y33.486 E4.88233
G1 X111.878 Y33.795 E4.89293
G1 X111.806 Y34.019 E4.90076
G1 X111.684 Y34.328 E4.91181
G1 X111.583 Y34.543 E4.91971
G1 X111.421 Y34.837 E4.93088
G1 X111.292 Y35.039 E4.93885
G1 X111.102 Y35.3 E4.94958
G1 X111.078 Y35.329 E4.95084
G1 X111.108 Y35.365 E4.95239
G1 X111.294 Y35.62 E4.96289
G1 X111.422 Y35.821 E4.97082
G1 X111.58 Y36.108 E4.98172
G1 X111.681 Y36.322 E4.98959
G1 X111.804 Y36.633 E5.00071
G1 X111.877 Y36.859 E5.00861
G1 X111.957 Y37.171 E5.01932
G1 X112.002 Y37.407 E5.02731
G1 X112.043 Y37.728 E5.03808
G1 X112.058 Y37.962 E5.04587
G1 X112.058 Y38.293 E5.05688
G1 X112.043 Y38.529 E5.06475
G1 X112.002 Y38.851 E5.07554
G1 X111.957 Y39.087 E5.08354
G1 X111.878 Y39.396 E5.09414
G1 X111.806 Y39.62 E5.10197
G1 X111.684 Y39.929 E5.11302
G1 X111.583 Y40.144 E5.12092
G1 X111.421 Y40.438 E5.13208
G1 X111.292 Y40.64 E5.14006
G1 X111.102 Y40.901 E5.15079
G1 X111.034 Y40.983 E5.15434
G1 X111.108 Y41.072 E5.15819
G1 X111.294 Y41.327 E5.16868
G1 X111.422 Y41.528 E5.17661
G1 X111.58 Y41.815 E5.18751
G1 X111.681 Y42.029 E5.19538
G1 X111.804 Y42.34 E5.2065
G1 X111.877 Y42.566 E5.2144
G1 X111.957 Y42.878 E5.22511
G1 X112.002 Y43.114 E5.2331
G1 X112.043 Y43.435 E5.24387
G1 X112.058 Y43.669 E5.25167
G1 X112.058 Y44 E5.26267
G1 X112.043 Y44.236 E5.27054
G1 X112.002 Y44.558 E5.28134
G1 X111.957 Y44.794 E5.28933
G1 X111.878 Y45.103 E5.29993
G1 X111.806 Y45.327 E5.30776
G1 X111.684 Y45.636 E5.31881
G1 X111.583 Y45.851 E5.32671
G1 X111.421 Y46.145 E5.33788
G1 X111.292 Y46.347 E5.34585
G1 X111.102 Y46.608 E5.35658
G1 X110.946 Y46.796 E5.36471
G1 X110.706 Y47.049 E5.37631
G1 X110.53 Y47.211 E5.38426
G1 X110.297 Y47.402 E5.39428
G1 X110.107 Y47.54 E5.4021
G1 X109.818 Y47.722 E5.41345
G1 X109.615 Y47.832 E5.42113
G1 X109.327 Y47.966 E5.4317
G1 X109.098 Y48.056 E5.43988
G1 X108.805 Y48.151 E5.45013
G1 X108.587 Y48.208 E5.45762
G1 X108.237 Y48.275 E5.46947
G1 X107.994 Y48.304 E5.47761
G1 X107.695 Y48.322 E5.48758
G1 X106.488 Y48.326 E5.52772
G1 X81.323 Y48.326 E6.36471
G1 X80.869 Y48.3 E6.37984
G1 X80.632 Y48.27 E6.38778
G1 X80.297 Y48.205 E6.39913
G1 X80.069 Y48.145 E6.40697
G1 X79.765 Y48.045 E6.41762
G1 X79.55 Y47.959 E6.42532
G1 X79.252 Y47.817 E6.4363
G1 X79.04 Y47.699 E6.44437
G1 X78.771 Y47.527 E6.45499
G1 X78.586 Y47.392 E6.46261
G1 X78.347 Y47.195 E6.47291
G1 X78.172 Y47.032 E6.48086
G1 X77.937 Y46.781 E6.4923
G1 X77.788 Y46.6 E6.5001
G1 X77.604 Y46.347 E6.5105
G1 X77.475 Y46.145 E6.51847
G1 X77.313 Y45.851 E6.52964
G1 X77.212 Y45.636 E6.53754
G1 X77.09 Y45.327 E6.54859
G1 X77.018 Y45.103 E6.55641
G1 X76.939 Y44.794 E6.56702
G1 X76.894 Y44.558 E6.57501
G1 X76.853 Y44.237 E6.58578
G1 X76.838 Y44.003 E6.59357
G1 X76.838 Y43.672 E6.60458
G1 X76.853 Y43.436 E6.61245
G1 X76.894 Y43.114 E6.62324
G1 X76.939 Y42.878 E6.63124
G1 X77.019 Y42.566 E6.64195
G1 X77.091 Y42.343 E6.64974
G1 X77.212 Y42.037 E6.66069
G1 X77.313 Y41.822 E6.66859
G1 X77.472 Y41.533 E6.67956
G1 X77.601 Y41.33 E6.68756
G1 X77.794 Y41.064 E6.69849
G1 X77.862 Y40.982 E6.70203
G1 X77.788 Y40.893 E6.70588
G1 X77.604 Y40.64 E6.71629
G1 X77.475 Y40.438 E6.72426
G1 X77.313 Y40.144 E6.73542
G1 X77.212 Y39.929 E6.74332
G1 X77.09 Y39.62 E6.75437
G1 X77.018 Y39.396 E6.7622
G1 X76.939 Y39.087 E6.77281
G1 X76.894 Y38.851 E6.7808
G1 X76.853 Y38.53 E6.79156
G1 X76.838 Y38.296 E6.79936
G1 X76.838 Y37.965 E6.81037
G1 X76.853 Y37.729 E6.81823
G1 X76.894 Y37.407 E6.82903
G1 X76.939 Y37.171 E6.83702
G1 X77.019 Y36.859 E6.84773
G1 X77.091 Y36.636 E6.85553
G1 X77.212 Y36.33 E6.86647
G1 X77.313 Y36.115 E6.87437
G1 X77.472 Y35.826 E6.88534
G1 X77.601 Y35.623 E6.89334
G1 X77.794 Y35.357 E6.90427
G1 X77.818 Y35.328 E6.90553
G1 X77.788 Y35.292 E6.90708
G1 X77.604 Y35.039 E6.91749
G1 X77.475 Y34.837 E6.92546
G1 X77.313 Y34.543 E6.93663
G1 X77.212 Y34.328 E6.94453
G1 X77.09 Y34.019 E6.95558
G1 X77.018 Y33.795 E6.9634
G1 X76.939 Y33.486 E6.97401
G1 X76.894 Y33.25 E6.982
G1 X76.853 Y32.929 E6.99276
G1 X76.838 Y32.695 E7.00056
G1 X76.838 Y32.364 E7.01157
G1 X76.853 Y32.128 E7.01944
G1 X76.894 Y31.806 E7.03023
G1 X76.939 Y31.57 E7.03822
G1 X77.019 Y31.258 E7.04894
G1 X77.091 Y31.035 E7.05673
G1 X77.212 Y30.729 E7.06768
G0 F4800 X77.574 Y30.899
G1 F2100 X77.675 Y30.684 E7.07558
G1 X77.809 Y30.439 E7.08486
G1 X77.938 Y30.236 E7.09286
G1 X78.102 Y30.011 E7.10212
G1 X78.258 Y29.823 E7.11025
G1 X78.461 Y29.609 E7.12006
G1 X78.637 Y29.447 E7.12802
G1 X78.834 Y29.286 E7.13648
G1 X79.024 Y29.148 E7.14429
G1 X79.269 Y28.994 E7.15391
G1 X79.472 Y28.884 E7.16159
G1 X79.723 Y28.767 E7.1708
G1 X79.952 Y28.678 E7.17897
G1 X80.192 Y28.601 E7.18736
G1 X80.41 Y28.544 E7.19485
G1 X80.697 Y28.489 E7.20457
G1 X80.94 Y28.459 E7.21272
G1 X81.21 Y28.442 E7.22171
G1 X107.7 Y28.443 E8.10277
G1 X107.985 Y28.462 E8.11227
G1 X108.222 Y28.493 E8.12022
G1 X108.497 Y28.546 E8.12954
G1 X108.725 Y28.606 E8.13738
G1 X108.974 Y28.688 E8.1461
G1 X109.189 Y28.773 E8.15379
G1 X109.446 Y28.895 E8.16325
G1 X109.659 Y29.013 E8.17135
G1 X109.894 Y29.163 E8.18062
G1 X110.078 Y29.298 E8.18821
G1 X110.276 Y29.462 E8.19676
G1 X110.451 Y29.625 E8.20472
G1 X110.651 Y29.837 E8.21441
G1 X110.8 Y30.018 E8.22221
G1 X110.958 Y30.236 E8.23116
G1 X111.087 Y30.439 E8.23916
G1 X111.221 Y30.684 E8.24845
G1 X111.321 Y30.897 E8.25628
G1 X111.423 Y31.153 E8.26544
G1 X111.496 Y31.378 E8.27331
G1 X111.564 Y31.645 E8.28248
G1 X111.609 Y31.881 E8.29047
G1 X111.643 Y32.152 E8.29955
G1 X111.658 Y32.386 E8.30735
G1 X111.659 Y32.667 E8.3167
G1 X111.644 Y32.903 E8.32456
G1 X111.609 Y33.175 E8.33368
G1 X111.564 Y33.411 E8.34167
G1 X111.497 Y33.672 E8.35064
G1 X111.425 Y33.896 E8.35846
G1 X111.322 Y34.158 E8.36782
G1 X111.221 Y34.373 E8.37573
G1 X111.084 Y34.622 E8.38518
G1 X110.955 Y34.824 E8.39315
G1 X110.794 Y35.045 E8.40224
G1 X110.548 Y35.329 E8.41474
G1 X110.8 Y35.619 E8.42752
G1 X110.957 Y35.835 E8.4364
G1 X111.085 Y36.036 E8.44433
G1 X111.219 Y36.279 E8.45356
G1 X111.32 Y36.493 E8.46143
G1 X111.423 Y36.756 E8.47082
G1 X111.496 Y36.982 E8.47872
G1 X111.564 Y37.246 E8.48779
G1 X111.609 Y37.482 E8.49578
G1 X111.643 Y37.753 E8.50486
G1 X111.658 Y37.987 E8.51266
G1 X111.659 Y38.268 E8.52201
G1 X111.644 Y38.504 E8.52987
G1 X111.609 Y38.776 E8.53899
G1 X111.564 Y39.012 E8.54698
G1 X111.497 Y39.273 E8.55595
G1 X111.425 Y39.497 E8.56377
G1 X111.322 Y39.759 E8.57314
G1 X111.221 Y39.974 E8.58104
G1 X111.084 Y40.223 E8.59049
G1 X110.955 Y40.425 E8.59846
G1 X110.794 Y40.646 E8.60756
G1 X110.497 Y40.982 E8.62247
G1 X110.8 Y41.326 E8.63772
G1 X110.957 Y41.542 E8.6466
G1 X111.085 Y41.743 E8.65452
G1 X111.219 Y41.986 E8.66375
G1 X111.32 Y42.2 E8.67162
G1 X111.423 Y42.463 E8.68102
G1 X111.496 Y42.689 E8.68892
G1 X111.564 Y42.953 E8.69799
G1 X111.609 Y43.189 E8.70598
G1 X111.643 Y43.46 E8.71506
G1 X111.658 Y43.694 E8.72286
G1 X111.659 Y43.975 E8.73221
G1 X111.644 Y44.211 E8.74007
G1 X111.609 Y44.483 E8.74919
G1 X111.564 Y44.719 E8.75718
G1 X111.497 Y44.98 E8.76615
G1 X111.425 Y45.204 E8.77397
G1 X111.322 Y45.466 E8.78333
G1 X111.221 Y45.681 E8.79124
G1 X111.084 Y45.93 E8.80069
G1 X110.955 Y46.132 E8.80866
G1 X110.794 Y46.353 E8.81775
G1 X110.638 Y46.541 E8.82588
G1 X110.435 Y46.755 E8.83569
G1 X110.259 Y46.917 E8.84365
G1 X110.062 Y47.078 E8.85211
G1 X109.872 Y47.216 E8.85992
G1 X109.627 Y47.37 E8.86954
G1 X109.424 Y47.48 E8.87722
G1 X109.181 Y47.594 E8.88615
G1 X108.952 Y47.684 E8.89433
G1 X108.704 Y47.764 E8.903
G1 X108.486 Y47.821 E8.91049
G1 X108.19 Y47.877 E8.92051
G1 X107.947 Y47.906 E8.92865
G1 X107.693 Y47.922 E8.93712
G1 X106.486 Y47.926 E8.97726
G1 X81.323 Y47.926 E9.81419
G1 X80.92 Y47.904 E9.82761
G1 X80.683 Y47.874 E9.83556
G1 X80.399 Y47.819 E9.84518
G1 X80.171 Y47.759 E9.85302
G1 X79.914 Y47.674 E9.86202
G1 X79.699 Y47.588 E9.86973
G1 X79.446 Y47.467 E9.87905
G1 X79.234 Y47.349 E9.88712
G1 X79.007 Y47.204 E9.89608
G1 X78.822 Y47.069 E9.9037
G1 X78.62 Y46.902 E9.91242
G1 X78.445 Y46.739 E9.92037
G1 X78.245 Y46.527 E9.93006
G1 X78.096 Y46.346 E9.93786
G1 X77.941 Y46.132 E9.94665
G1 X77.812 Y45.93 E9.95462
G1 X77.675 Y45.681 E9.96408
G1 X77.574 Y45.466 E9.97198
G1 X77.471 Y45.204 E9.98134
G1 X77.399 Y44.98 E9.98916
G1 X77.332 Y44.719 E9.99813
G1 X77.287 Y44.483 E10.00612
G1 X77.253 Y44.212 E10.0152
G1 X77.238 Y43.978 E10.023
G1 X77.237 Y43.697 E10.03235
G1 X77.252 Y43.461 E10.04021
G1 X77.287 Y43.189 E10.04933
G1 X77.332 Y42.953 E10.05732
G1 X77.399 Y42.689 E10.06638
G1 X77.471 Y42.466 E10.07418
G1 X77.574 Y42.207 E10.08345
G1 X77.675 Y41.992 E10.09135
G1 X77.809 Y41.747 E10.10064
G1 X77.938 Y41.544 E10.10864
G1 X78.102 Y41.319 E10.1179
G1 X78.399 Y40.983 E10.13281
G1 X78.096 Y40.639 E10.14806
G1 X77.941 Y40.425 E10.15685
G1 X77.812 Y40.223 E10.16482
G1 X77.675 Y39.974 E10.17427
G1 X77.574 Y39.759 E10.18217
G1 X77.471 Y39.497 E10.19154
G1 X77.399 Y39.273 E10.19936
G1 X77.332 Y39.012 E10.20832
