;FLAVOR:Marlin
;TIME:4194
;Filament used: 4.6924m
;Layer height: 0.3
;MINX:96.736
;MINY:94.674
;MINZ:0.2
;MAXX:138.265
;MAXY:140.321
;MAXZ:30.3
;Generated with Cura_SteamEngine master
M140 S30
M105
M190 S30
M104 S218
M105
M109 S218
M82 ;absolute extrusion mode
; Ender 3 Custom Start G-code
G92 E0 ; Reset Extruder
G28 ; Home all axes
G1 Z2.0 F3000 ; Move Z Axis up little to prevent scratching of Heat Bed
G1 X0.1 Y20 Z0.3 F5000.0 ; Move to start position
G1 X0.1 Y200.0 Z0.3 F1500.0 E15 ; Draw the first line
G1 X0.4 Y200.0 Z0.3 F5000.0 ; Move to side a little
G1 X0.4 Y20 Z0.3 F1500.0 E30 ; Draw the second line
G92 E0 ; Reset Extruder
G1 Z2.0 F3000 ; Move Z Axis up little to prevent scratching of Heat Bed
G1 X5 Y20 Z0.3 F5000.0 ; Move over to prevent blob squish
G92 E0
G92 E0
G1 F2700 E-5
;LAYER_COUNT:100
;LAYER:0
M106 S25.5
G1 F300 Z0.6
G0 F4800 X98.796 Y97.056 Z0.6
;TYPE:SKIRT
G1 F300 Z0.2
G1 F2700 E0
G1 F2100 X99.168 Y96.738 E0.01628
G1 X99.422 Y96.574 E0.02633
G1 X102.02 Y95.074 E0.12611
G1 X102.462 Y94.865 E0.14237
G1 X102.933 Y94.73 E0.15867
G1 X103.419 Y94.674 E0.17494
G1 X103.908 Y94.697 E0.19122
G1 X104.387 Y94.8 E0.20752
G1 X104.842 Y94.979 E0.22378
G1 X105.263 Y95.23 E0.24008
G1 X105.637 Y95.546 E0.25637
G1 X105.954 Y95.918 E0.27262
G1 X106.118 Y96.172 E0.28268
G1 X109.197 Y101.506 E0.48753
G1 X109.528 Y101.423 E0.49888
G1 X110.08 Y101.305 E0.51765
G1 X110.209 Y101.281 E0.52201
G1 X110.767 Y101.187 E0.54083
G1 X110.889 Y101.169 E0.54494
G1 X111.451 Y101.098 E0.56378
G1 X111.577 Y101.084 E0.56799
G1 X112.14 Y101.037 E0.58678
G1 X112.263 Y101.03 E0.59088
G1 X112.829 Y101.006 E0.60972
G1 X112.956 Y101.003 E0.61395
G1 X113.52 Y101.003 E0.63271
G1 X113.648 Y101.006 E0.63697
G1 X114.212 Y101.03 E0.65574
G1 X114.333 Y101.037 E0.65977
G1 X114.898 Y101.084 E0.67863
G1 X115.026 Y101.098 E0.68291
G1 X115.586 Y101.169 E0.70169
G1 X115.707 Y101.187 E0.70576
G1 X116.265 Y101.281 E0.72458
G1 X116.392 Y101.305 E0.72888
G1 X116.946 Y101.423 E0.74772
G1 X117.065 Y101.451 E0.75178
G1 X117.612 Y101.591 E0.77056
G1 X117.74 Y101.626 E0.77497
G1 X118.28 Y101.79 E0.79375
G1 X118.393 Y101.827 E0.7977
G1 X118.928 Y102.013 E0.81654
G1 X119.053 Y102.06 E0.82098
G1 X119.578 Y102.269 E0.83977
G1 X119.689 Y102.316 E0.84378
G1 X120.205 Y102.546 E0.86257
G1 X120.317 Y102.598 E0.86668
G1 X120.823 Y102.849 E0.88547
G1 X120.937 Y102.909 E0.88975
G1 X121.433 Y103.182 E0.90858
G1 X121.543 Y103.246 E0.91282
G1 X122.027 Y103.54 E0.93165
G1 X122.123 Y103.601 E0.93543
G1 X122.594 Y103.912 E0.95421
G1 X122.705 Y103.989 E0.9587
G1 X123.163 Y104.322 E0.97753
G1 X123.262 Y104.397 E0.98166
G1 X123.705 Y104.748 E1.00046
G1 X123.807 Y104.832 E1.00486
G1 X124.234 Y105.202 E1.02365
G1 X124.32 Y105.28 E1.02751
G1 X124.732 Y105.666 E1.04629
G1 X124.826 Y105.758 E1.05066
G1 X125.305 Y106.25 E1.0735
G1 X125.683 Y106.669 E1.09227
G1 X125.769 Y106.769 E1.09666
G1 X126.128 Y107.204 E1.11542
G1 X126.202 Y107.298 E1.1194
G1 X126.545 Y107.749 E1.13824
G1 X126.622 Y107.855 E1.1426
G1 X126.944 Y108.319 E1.16138
G1 X127.01 Y108.419 E1.16537
G1 X127.314 Y108.897 E1.18421
G1 X127.381 Y109.007 E1.18849
G1 X127.664 Y109.497 E1.20731
G1 X127.723 Y109.605 E1.21141
G1 X127.985 Y110.105 E1.23018
G1 X128.043 Y110.222 E1.23453
G1 X128.283 Y110.733 E1.2533
G1 X128.334 Y110.847 E1.25746
G1 X128.597 Y111.478 E1.28019
G1 X128.795 Y112.007 E1.29898
G1 X128.84 Y112.137 E1.30356
G1 X129.014 Y112.676 E1.32239
G1 X129.107 Y113 E1.33361
G1 X135.265 Y113 E1.53842
G1 X135.753 Y113.04 E1.55471
G1 X136.228 Y113.159 E1.57099
G1 X136.677 Y113.353 E1.58726
G1 X137.089 Y113.618 E1.60356
G1 X137.452 Y113.946 E1.61983
G1 X137.757 Y114.329 E1.63611
G1 X137.995 Y114.757 E1.6524
G1 X138.161 Y115.217 E1.66867
G1 X138.25 Y115.698 E1.68494
G1 X138.265 Y116 E1.69499
G1 X138.265 Y119 E1.79477
G1 X138.225 Y119.488 E1.81106
G1 X138.106 Y119.963 E1.82734
G1 X137.912 Y120.412 E1.84361
G1 X137.647 Y120.824 E1.85991
G1 X137.319 Y121.187 E1.87618
G1 X136.936 Y121.492 E1.89246
G1 X136.508 Y121.73 E1.90875
G1 X136.048 Y121.896 E1.92502
G1 X135.567 Y121.985 E1.94129
G1 X135.265 Y122 E1.95134
G1 X129.106 Y122 E2.15619
G1 X129.013 Y122.327 E2.1675
G1 X128.839 Y122.864 E2.18627
G1 X128.796 Y122.987 E2.19061
G1 X128.598 Y123.518 E2.20946
G1 X128.552 Y123.635 E2.21364
G1 X128.332 Y124.157 E2.23248
G1 X128.045 Y124.774 E2.25511
G1 X127.987 Y124.891 E2.25946
G1 X127.726 Y125.391 E2.27821
G1 X127.663 Y125.507 E2.28261
G1 X127.379 Y125.997 E2.30144
G1 X127.017 Y126.573 E2.32407
G1 X126.941 Y126.689 E2.32868
G1 X126.617 Y127.153 E2.3475
G1 X126.205 Y127.698 E2.37023
G1 X126.129 Y127.795 E2.37433
G1 X125.768 Y128.232 E2.39318
G1 X125.685 Y128.328 E2.3974
G1 X125.308 Y128.747 E2.41615
G1 X125.22 Y128.84 E2.42041
G1 X124.822 Y129.246 E2.43932
G1 X124.737 Y129.33 E2.44329
G1 X124.326 Y129.717 E2.46207
G1 X124.228 Y129.805 E2.46645
G1 X123.799 Y130.175 E2.48529
G1 X123.703 Y130.254 E2.48942
G1 X123.26 Y130.605 E2.50822
G1 X123.161 Y130.68 E2.51235
G1 X122.703 Y131.013 E2.53119
G1 X122.598 Y131.086 E2.53544
G1 X122.128 Y131.398 E2.5542
G1 X122.02 Y131.467 E2.55847
G1 X121.535 Y131.76 E2.57731
G1 X121.435 Y131.818 E2.58116
G1 X120.941 Y132.091 E2.59993
G1 X120.819 Y132.155 E2.60451
G1 X120.311 Y132.406 E2.62336
G1 X120.194 Y132.46 E2.62764
G1 X119.572 Y132.733 E2.65024
G1 X119.045 Y132.942 E2.66909
G1 X118.926 Y132.986 E2.67331
G1 X118.392 Y133.172 E2.69212
G1 X118.275 Y133.21 E2.69621
G1 X117.734 Y133.374 E2.71502
G1 X117.603 Y133.411 E2.71954
G1 X117.056 Y133.55 E2.73831
G1 X116.393 Y133.694 E2.76088
G1 X116.261 Y133.719 E2.76535
G1 X115.703 Y133.813 E2.78417
G1 X115.582 Y133.831 E2.78824
G1 X115.022 Y133.902 E2.80701
G1 X114.894 Y133.916 E2.81129
G1 X114.329 Y133.963 E2.83015
G1 X114.208 Y133.97 E2.83418
G1 X113.644 Y133.994 E2.85296
G1 X113.516 Y133.997 E2.85722
G1 X112.952 Y133.997 E2.87598
G1 X112.825 Y133.994 E2.8802
G1 X112.259 Y133.97 E2.89904
G1 X112.136 Y133.963 E2.90314
G1 X111.573 Y133.916 E2.92193
G1 X111.447 Y133.902 E2.92615
G1 X110.885 Y133.831 E2.94499
G1 X110.761 Y133.813 E2.94916
G1 X110.205 Y133.719 E2.96791
G1 X110.08 Y133.695 E2.97214
G1 X109.526 Y133.577 E2.99098
G1 X109.197 Y133.496 E3.00225
G1 X106.118 Y138.828 E3.20704
G1 X105.84 Y139.231 E3.22332
G1 X105.499 Y139.582 E3.2396
G1 X105.106 Y139.874 E3.25589
G1 X104.671 Y140.098 E3.27216
G1 X104.205 Y140.249 E3.28845
G1 X103.721 Y140.321 E3.30473
G1 X103.232 Y140.314 E3.32099
G1 X102.75 Y140.228 E3.33728
G1 X102.289 Y140.064 E3.35355
G1 X102.02 Y139.926 E3.36361
G1 X99.422 Y138.426 E3.46339
G1 X99.019 Y138.148 E3.47967
G1 X98.668 Y137.807 E3.49595
G1 X98.376 Y137.414 E3.51223
G1 X98.152 Y136.979 E3.5285
G1 X98.001 Y136.513 E3.5448
G1 X97.929 Y136.029 E3.56107
G1 X97.936 Y135.54 E3.57734
G1 X98.023 Y135.058 E3.59363
G1 X98.186 Y134.597 E3.60989
G1 X98.324 Y134.328 E3.61995
G1 X101.403 Y128.996 E3.82473
G1 X101.164 Y128.748 E3.83619
G1 X100.785 Y128.327 E3.85503
G1 X100.701 Y128.23 E3.8593
G1 X100.342 Y127.795 E3.87806
G1 X100.268 Y127.701 E3.88204
G1 X99.925 Y127.25 E3.90088
G1 X99.85 Y127.147 E3.90512
G1 X99.528 Y126.684 E3.92388
G1 X99.46 Y126.581 E3.92798
G1 X99.156 Y126.103 E3.94682
G1 X99.088 Y125.992 E3.95115
G1 X98.806 Y125.503 E3.96993
G1 X98.748 Y125.396 E3.97398
G1 X98.485 Y124.894 E3.99282
G1 X98.425 Y124.773 E3.99732
G1 X98.186 Y124.262 E4.01608
G1 X98.138 Y124.155 E4.01998
G1 X97.919 Y123.635 E4.03875
G1 X97.873 Y123.519 E4.0429
G1 X97.675 Y122.988 E4.06175
G1 X97.633 Y122.866 E4.06604
G1 X97.458 Y122.327 E4.08489
G1 X97.42 Y122.203 E4.0892
G1 X97.269 Y121.659 E4.10798
G1 X97.111 Y120.994 E4.13071
G1 X97.085 Y120.874 E4.1348
G1 X96.978 Y120.317 E4.15366
G1 X96.956 Y120.186 E4.15808
G1 X96.858 Y119.505 E4.18096
G1 X96.799 Y118.944 E4.19972
G1 X96.789 Y118.821 E4.20383
G1 X96.753 Y118.257 E4.22262
G1 X96.748 Y118.13 E4.22685
G1 X96.736 Y117.564 E4.24568
G1 X96.736 Y117.436 E4.24994
G1 X96.748 Y116.872 E4.2687
G1 X96.753 Y116.746 E4.2729
G1 X96.789 Y116.18 E4.29176
G1 X96.799 Y116.056 E4.2959
G1 X96.858 Y115.495 E4.31466
G1 X96.956 Y114.814 E4.33754
G1 X96.976 Y114.693 E4.34162
G1 X97.081 Y114.136 E4.36047
G1 X97.111 Y113.996 E4.36524
G1 X97.242 Y113.447 E4.38401
G1 X97.271 Y113.336 E4.38782
G1 X97.423 Y112.792 E4.40661
G1 X97.457 Y112.677 E4.4106
G1 X97.631 Y112.138 E4.42944
G1 X97.673 Y112.017 E4.4337
G1 X97.87 Y111.486 E4.45253
G1 X97.92 Y111.36 E4.45704
G1 X98.14 Y110.84 E4.47582
G1 X98.427 Y110.224 E4.49843
G1 X98.485 Y110.107 E4.50277
G1 X98.747 Y109.606 E4.52157
G1 X98.81 Y109.491 E4.52593
G1 X99.093 Y109.003 E4.5447
G1 X99.153 Y108.904 E4.54855
G1 X99.456 Y108.425 E4.5674
G1 X99.531 Y108.313 E4.57188
G1 X99.854 Y107.85 E4.59066
G1 X99.924 Y107.753 E4.59464
G1 X100.266 Y107.302 E4.61346
G1 X100.343 Y107.205 E4.61758
G1 X100.703 Y106.769 E4.63639
G1 X100.786 Y106.672 E4.64063
G1 X101.164 Y106.252 E4.65943
G1 X101.403 Y106.004 E4.67088
G1 X98.324 Y100.672 E4.87567
G1 X98.115 Y100.23 E4.89193
G1 X97.98 Y99.759 E4.90823
G1 X97.924 Y99.273 E4.9245
G1 X97.947 Y98.784 E4.94078
G1 X98.05 Y98.305 E4.95708
G1 X98.229 Y97.85 E4.97334
G1 X98.48 Y97.43 E4.98961
G1 X98.796 Y97.056 E5.0059
G0 F4800 X98.941 Y97.488
G1 F2100 X99.266 Y97.168 E5.02107
G1 X99.622 Y96.92 E5.0355
G1 X102.22 Y95.42 E5.13528
G1 X102.633 Y95.228 E5.15043
G1 X103.073 Y95.111 E5.16557
G1 X103.527 Y95.072 E5.18072
G1 X103.981 Y95.113 E5.19589
G1 X104.421 Y95.233 E5.21105
G1 X104.833 Y95.428 E5.22622
G1 X105.204 Y95.691 E5.24134
G1 X105.524 Y96.016 E5.25651
G1 X105.772 Y96.372 E5.27094
G1 X109.003 Y101.968 E5.48586
G1 X109.51 Y101.838 E5.50327
G1 X109.611 Y101.814 E5.50672
G1 X110.163 Y101.696 E5.5255
G1 X110.275 Y101.675 E5.52929
G1 X110.833 Y101.581 E5.54811
G1 X111.501 Y101.495 E5.57051
G1 X111.611 Y101.483 E5.57419
G1 X112.174 Y101.436 E5.59298
G1 X112.28 Y101.429 E5.59651
G1 X112.846 Y101.405 E5.61535
G1 X112.956 Y101.403 E5.61901
G1 X113.52 Y101.403 E5.63777
G1 X113.631 Y101.405 E5.64146
G1 X114.195 Y101.429 E5.66024
G1 X114.3 Y101.436 E5.66374
G1 X114.865 Y101.483 E5.6826
G1 X114.976 Y101.495 E5.68631
G1 X115.641 Y101.581 E5.70861
G1 X116.199 Y101.675 E5.72743
G1 X116.309 Y101.696 E5.73116
G1 X116.863 Y101.814 E5.75
G1 X116.966 Y101.838 E5.75352
G1 X117.513 Y101.978 E5.77229
G1 X117.624 Y102.009 E5.77613
G1 X118.164 Y102.173 E5.7949
G1 X118.262 Y102.205 E5.79833
G1 X118.797 Y102.391 E5.81717
G1 X118.905 Y102.431 E5.821
G1 X119.43 Y102.64 E5.83979
G1 X119.527 Y102.681 E5.84329
G1 X120.043 Y102.911 E5.86208
G1 X120.645 Y103.208 E5.88441
G1 X120.744 Y103.259 E5.88811
G1 X121.24 Y103.532 E5.90695
G1 X121.336 Y103.588 E5.91064
G1 X121.903 Y103.934 E5.93273
G1 X122.374 Y104.245 E5.95151
G1 X122.47 Y104.312 E5.9554
G1 X122.928 Y104.645 E5.97423
G1 X123.014 Y104.71 E5.97782
G1 X123.457 Y105.061 E5.99662
G1 X123.545 Y105.134 E6.00042
G1 X123.972 Y105.504 E6.01921
G1 X124.459 Y105.958 E6.04136
G1 X124.54 Y106.037 E6.04512
G1 X125.008 Y106.518 E6.06744
G1 X125.386 Y106.937 E6.08621
G1 X125.819 Y107.459 E6.10877
G1 X125.883 Y107.54 E6.1122
G1 X126.226 Y107.991 E6.13105
G1 X126.293 Y108.083 E6.13483
G1 X126.615 Y108.547 E6.15362
G1 X126.673 Y108.634 E6.1571
G1 X126.977 Y109.112 E6.17594
G1 X127.034 Y109.207 E6.17962
G1 X127.369 Y109.79 E6.20199
G1 X127.631 Y110.29 E6.22076
G1 X127.681 Y110.392 E6.22454
G1 X127.966 Y111.002 E6.24693
G1 X128.185 Y111.524 E6.26576
G1 X128.42 Y112.148 E6.28794
G1 X128.459 Y112.26 E6.29188
G1 X128.633 Y112.799 E6.31072
G1 X128.663 Y112.9 E6.31422
G1 X128.802 Y113.4 E6.33149
G1 X135.265 Y113.4 E6.54645
G1 X135.719 Y113.44 E6.5616
G1 X136.159 Y113.558 E6.57676
G1 X136.571 Y113.752 E6.5919
G1 X136.944 Y114.015 E6.60708
G1 X137.265 Y114.338 E6.62223
G1 X137.524 Y114.713 E6.63739
G1 X137.714 Y115.127 E6.65254
G1 X137.829 Y115.568 E6.6677
G1 X137.865 Y116 E6.68211
G1 X137.865 Y119 E6.78189
G1 X137.825 Y119.454 E6.79705
G1 X137.707 Y119.894 E6.8122
G1 X137.513 Y120.306 E6.82735
G1 X137.25 Y120.679 E6.84253
G1 X136.927 Y121 E6.85768
G1 X136.552 Y121.259 E6.87283
G1 X136.138 Y121.449 E6.88798
G1 X135.697 Y121.564 E6.90314
G1 X135.265 Y121.6 E6.91756
G1 X128.803 Y121.6 E7.13249
G1 X128.663 Y122.102 E7.14982
G1 X128.458 Y122.74 E7.17211
G1 X128.421 Y122.847 E7.17588
G1 X128.223 Y123.378 E7.19473
G1 X128.183 Y123.48 E7.19837
G1 X127.963 Y124.002 E7.21721
G1 X127.922 Y124.094 E7.22056
G1 X127.683 Y124.605 E7.23932
G1 X127.633 Y124.706 E7.24307
G1 X127.372 Y125.206 E7.26183
G1 X127.316 Y125.307 E7.26567
G1 X126.981 Y125.882 E7.28781
G1 X126.679 Y126.36 E7.30661
G1 X126.613 Y126.46 E7.3106
G1 X126.289 Y126.924 E7.32942
G1 X126.228 Y127.008 E7.33287
G1 X125.887 Y127.457 E7.35162
G1 X125.821 Y127.54 E7.35515
G1 X125.46 Y127.977 E7.374
G1 X125.388 Y128.06 E7.37766
G1 X125.011 Y128.479 E7.39641
G1 X124.935 Y128.56 E7.4001
G1 X124.537 Y128.966 E7.41901
G1 X124.462 Y129.039 E7.42249
G1 X124.051 Y129.426 E7.44127
G1 X123.967 Y129.502 E7.44503
G1 X123.538 Y129.872 E7.46388
G1 X123.455 Y129.941 E7.46747
G1 X123.012 Y130.292 E7.48627
G1 X122.926 Y130.357 E7.48985
G1 X122.468 Y130.69 E7.50868
G1 X122.377 Y130.753 E7.51237
G1 X121.907 Y131.065 E7.53113
G1 X121.813 Y131.124 E7.53482
G1 X121.242 Y131.468 E7.55699
G1 X120.748 Y131.741 E7.57576
G1 X120.642 Y131.796 E7.57974
G1 X120.134 Y132.047 E7.59858
G1 X120.033 Y132.094 E7.60229
G1 X119.517 Y132.322 E7.62105
G1 X119.424 Y132.361 E7.6244
G1 X118.897 Y132.57 E7.64326
G1 X118.794 Y132.608 E7.64691
G1 X118.26 Y132.794 E7.66572
G1 X118.159 Y132.827 E7.66925
G1 X117.618 Y132.991 E7.68806
G1 X117.504 Y133.023 E7.69199
G1 X116.957 Y133.162 E7.71077
G1 X116.863 Y133.184 E7.71398
G1 X116.309 Y133.303 E7.73282
G1 X116.195 Y133.325 E7.73668
G1 X115.637 Y133.419 E7.75551
G1 X114.972 Y133.505 E7.77781
G1 X114.861 Y133.517 E7.78152
G1 X114.296 Y133.564 E7.80038
G1 X114.191 Y133.571 E7.80388
G1 X113.627 Y133.595 E7.82265
G1 X113.516 Y133.597 E7.82635
G1 X112.952 Y133.597 E7.8451
G1 X112.842 Y133.595 E7.84876
G1 X112.276 Y133.571 E7.86761
G1 X112.17 Y133.564 E7.87114
G1 X111.607 Y133.517 E7.88993
G1 X111.497 Y133.505 E7.89361
G1 X110.828 Y133.419 E7.91604
G1 X110.272 Y133.325 E7.9348
G1 X110.163 Y133.304 E7.93849
G1 X109.609 Y133.186 E7.95733
G1 X109.504 Y133.161 E7.96092
G1 X109.003 Y133.032 E7.97813
G1 X105.772 Y138.628 E8.19305
G1 X105.51 Y139.001 E8.20821
G1 X105.188 Y139.323 E8.22335
G1 X104.814 Y139.583 E8.2385
G1 X104.4 Y139.775 E8.25368
G1 X103.96 Y139.891 E8.26882
G1 X103.505 Y139.928 E8.284
G1 X103.052 Y139.885 E8.29913
G1 X102.613 Y139.764 E8.31428
G1 X102.22 Y139.58 E8.32871
G1 X99.622 Y138.08 E8.42849
G1 X99.249 Y137.818 E8.44365
G1 X98.927 Y137.495 E8.45882
G1 X98.667 Y137.122 E8.47394
G1 X98.475 Y136.708 E8.48912
G1 X98.359 Y136.267 E8.50429
G1 X98.322 Y135.813 E8.51944
G1 X98.365 Y135.36 E8.53457
G1 X98.486 Y134.92 E8.54975
G1 X98.67 Y134.528 E8.56415
G1 X101.901 Y128.933 E8.77905
G1 X101.535 Y128.559 E8.79645
G1 X101.462 Y128.481 E8.8
G1 X101.083 Y128.06 E8.81884
G1 X101.01 Y127.975 E8.82257
G1 X100.651 Y127.54 E8.84133
G1 X100.587 Y127.459 E8.84476
G1 X100.244 Y127.008 E8.86361
G1 X100.178 Y126.918 E8.86732
G1 X99.856 Y126.455 E8.88608
G1 X99.797 Y126.366 E8.88963
G1 X99.493 Y125.888 E8.90847
G1 X99.435 Y125.792 E8.9122
G1 X99.153 Y125.303 E8.93098
G1 X99.102 Y125.211 E8.93448
G1 X98.839 Y124.709 E8.95332
G1 X98.787 Y124.604 E8.95722
G1 X98.548 Y124.093 E8.97598
G1 X98.507 Y124 E8.97936
G1 X98.288 Y123.48 E8.99813
G1 X98.248 Y123.379 E9.00174
G1 X98.05 Y122.848 E9.02059
G1 X98.013 Y122.743 E9.0243
G1 X97.838 Y122.204 E9.04314
G1 X97.806 Y122.096 E9.04689
G1 X97.655 Y121.552 E9.06567
G1 X97.629 Y121.452 E9.06911
G1 X97.5 Y120.903 E9.08786
G1 X97.478 Y120.798 E9.09143
G1 X97.351 Y120.128 E9.11411
G1 X97.269 Y119.568 E9.13294
G1 X97.256 Y119.463 E9.13645
G1 X97.197 Y118.902 E9.15522
G1 X97.188 Y118.796 E9.15876
G1 X97.152 Y118.232 E9.17755
G1 X97.136 Y117.555 E9.20008
G1 X97.136 Y117.445 E9.20373
G1 X97.152 Y116.771 E9.22616
G1 X97.188 Y116.205 E9.24502
G1 X97.197 Y116.098 E9.24859
G1 X97.256 Y115.537 E9.26735
G1 X97.269 Y115.432 E9.27087
G1 X97.351 Y114.872 E9.2897
G1 X97.369 Y114.767 E9.29324
G1 X97.474 Y114.21 E9.31209
G1 X97.5 Y114.089 E9.31621
G1 X97.631 Y113.54 E9.33498
G1 X97.656 Y113.443 E9.33831
