;FLAVOR:Marlin
;TIME:14641
;Filament used: 19.2358m
;Layer height: 0.25
;MINX:82.2
;MINY:41.465
;MINZ:0.2
;MAXX:152.8
;MAXY:114.065
;MAXZ:50.15
;Generated with Cura_SteamEngine master
M140 S30
M105
M190 S30
M104 S218
M105
M109 S218
M82 ;absolute extrusion mode
; Ender 3 Custom Start G-code
G92 E0 ; Reset Extruder
G28 ; Home all axes
G1 Z2.0 F3000 ; Move Z Axis up little to prevent scratching of Heat Bed
G1 X0.1 Y20 Z0.3 F5000.0 ; Move to start position
G1 X0.1 Y200.0 Z0.3 F1500.0 E15 ; Draw the first line
G1 X0.4 Y200.0 Z0.3 F5000.0 ; Move to side a little
G1 X0.4 Y20 Z0.3 F1500.0 E30 ; Draw the second line
G92 E0 ; Reset Extruder
G1 Z2.0 F3000 ; Move Z Axis up little to prevent scratching of Heat Bed
G1 X5 Y20 Z0.3 F5000.0 ; Move over to prevent blob squish
G92 E0
G92 E0
G1 F2700 E-7
;LAYER_COUNT:200
;LAYER:0
M106 S38.3
G1 F300 Z0.4
G0 F4800 X83.179 Y45.599 Z0.4
;TYPE:SKIRT
G1 F300 Z0.2
G1 F2700 E0
G1 F2100 X83.597 Y44.928 E0.02629
G1 X84.08 Y44.304 E0.05254
G1 X84.485 Y43.867 E0.07236
G1 X84.602 Y43.75 E0.07786
G1 X85.188 Y43.22 E0.10414
G1 X85.824 Y42.753 E0.13038
G1 X86.504 Y42.352 E0.15664
G1 X87.222 Y42.022 E0.18292
G1 X87.969 Y41.767 E0.20917
G1 X88.738 Y41.588 E0.23544
G1 X89.522 Y41.488 E0.26172
G1 X90.117 Y41.465 E0.28153
G1 X144.883 Y41.465 E2.10305
G1 X145.672 Y41.505 E2.12933
G1 X146.452 Y41.624 E2.15557
G1 X147.217 Y41.822 E2.18185
G1 X147.957 Y42.096 E2.2081
G1 X148.666 Y42.444 E2.23437
G1 X149.337 Y42.862 E2.26066
G1 X149.961 Y43.345 E2.28691
G1 X150.398 Y43.75 E2.30672
G1 X150.515 Y43.867 E2.31223
G1 X151.045 Y44.453 E2.33851
G1 X151.512 Y45.089 E2.36475
G1 X151.913 Y45.769 E2.39101
G1 X152.243 Y46.487 E2.41729
G1 X152.498 Y47.234 E2.44354
G1 X152.677 Y48.003 E2.4698
G1 X152.777 Y48.787 E2.49609
G1 X152.8 Y49.382 E2.51589
G1 X152.8 Y106.148 E4.40394
G1 X152.76 Y106.937 E4.43022
G1 X152.641 Y107.717 E4.45646
G1 X152.443 Y108.482 E4.48274
G1 X152.169 Y109.222 E4.50899
G1 X151.821 Y109.931 E4.53525
G1 X151.403 Y110.602 E4.56155
G1 X150.92 Y111.226 E4.58779
G1 X150.515 Y111.663 E4.60761
G1 X150.398 Y111.78 E4.61311
G1 X149.812 Y112.31 E4.63939
G1 X149.176 Y112.777 E4.66564
G1 X148.496 Y113.178 E4.69189
G1 X147.778 Y113.508 E4.71818
G1 X147.031 Y113.763 E4.74443
G1 X146.262 Y113.942 E4.77069
G1 X145.478 Y114.042 E4.79698
G1 X144.883 Y114.065 E4.81678
G1 X90.117 Y114.065 E6.63831
G1 X89.328 Y114.025 E6.66458
G1 X88.548 Y113.906 E6.69083
G1 X87.783 Y113.708 E6.71711
G1 X87.043 Y113.434 E6.74335
G1 X86.334 Y113.086 E6.76962
G1 X85.663 Y112.668 E6.79592
G1 X85.039 Y112.185 E6.82216
G1 X84.602 Y111.78 E6.84198
G1 X84.485 Y111.663 E6.84748
G1 X83.955 Y111.077 E6.87376
G1 X83.488 Y110.441 E6.9
G1 X83.087 Y109.761 E6.92626
G1 X82.757 Y109.043 E6.95254
G1 X82.502 Y108.296 E6.9788
G1 X82.323 Y107.527 E7.00506
G1 X82.223 Y106.743 E7.03134
G1 X82.2 Y106.148 E7.05115
G1 X82.2 Y49.382 E8.93919
G1 X82.24 Y48.593 E8.96547
G1 X82.359 Y47.813 E8.99171
G1 X82.557 Y47.048 E9.018
G1 X82.831 Y46.308 E9.04424
G1 X83.179 Y45.599 E9.07051
G0 F4800 X83.578 Y45.706
G1 F2100 X83.994 Y45.059 E9.09609
G1 X84.475 Y44.459 E9.12167
G1 X84.767 Y44.149 E9.13583
G1 X84.884 Y44.032 E9.14134
G1 X85.456 Y43.518 E9.16692
G1 X86.078 Y43.065 E9.19251
G1 X86.743 Y42.679 E9.21808
G1 X87.445 Y42.364 E9.24367
G1 X88.176 Y42.124 E9.26926
G1 X88.927 Y41.961 E9.29482
G1 X89.692 Y41.877 E9.32042
G1 X90.117 Y41.865 E9.33456
G1 X144.883 Y41.865 E11.15609
G1 X145.651 Y41.905 E11.18167
G1 X146.411 Y42.024 E11.20725
G1 X147.154 Y42.222 E11.23283
G1 X147.873 Y42.496 E11.25842
G1 X148.559 Y42.843 E11.28399
G1 X149.206 Y43.259 E11.30957
G1 X149.806 Y43.74 E11.33515
G1 X150.116 Y44.032 E11.34931
G1 X150.233 Y44.149 E11.35481
G1 X150.747 Y44.721 E11.38039
G1 X151.2 Y45.343 E11.40599
G1 X151.586 Y46.008 E11.43156
G1 X151.901 Y46.71 E11.45715
G1 X152.141 Y47.441 E11.48274
G1 X152.304 Y48.192 E11.5083
G1 X152.388 Y48.957 E11.5339
G1 X152.4 Y49.382 E11.54804
G1 X152.4 Y106.148 E13.43608
G1 X152.36 Y106.916 E13.46166
G1 X152.241 Y107.676 E13.48725
G1 X152.043 Y108.419 E13.51282
G1 X151.769 Y109.138 E13.53841
G1 X151.422 Y109.824 E13.56398
G1 X151.006 Y110.471 E13.58957
G1 X150.525 Y111.071 E13.61514
G1 X150.233 Y111.381 E13.62931
G1 X150.116 Y111.498 E13.63481
G1 X149.544 Y112.012 E13.66039
G1 X148.922 Y112.465 E13.68598
G1 X148.257 Y112.851 E13.71156
G1 X147.555 Y113.166 E13.73715
G1 X146.824 Y113.406 E13.76274
G1 X146.073 Y113.569 E13.7883
G1 X145.308 Y113.653 E13.81389
G1 X144.883 Y113.665 E13.82804
G1 X90.117 Y113.665 E15.64956
G1 X89.349 Y113.625 E15.67514
G1 X88.589 Y113.506 E15.70072
G1 X87.846 Y113.308 E15.7263
G1 X87.127 Y113.034 E15.75189
G1 X86.441 Y112.687 E15.77746
G1 X85.794 Y112.271 E15.80304
G1 X85.194 Y111.79 E15.82862
G1 X84.884 Y111.498 E15.84279
G1 X84.767 Y111.381 E15.84829
G1 X84.253 Y110.809 E15.87387
G1 X83.8 Y110.187 E15.89946
G1 X83.414 Y109.522 E15.92503
G1 X83.099 Y108.82 E15.95062
G1 X82.859 Y108.089 E15.97621
G1 X82.696 Y107.338 E16.00177
G1 X82.612 Y106.573 E16.02737
G1 X82.6 Y106.148 E16.04151
G1 X82.6 Y49.382 E17.92956
G1 X82.64 Y48.614 E17.95514
G1 X82.759 Y47.854 E17.98072
G1 X82.957 Y47.111 E18.0063
G1 X83.231 Y46.392 E18.03189
G1 X83.578 Y45.706 E18.05746
G0 F4800 X83.977 Y45.816
G1 F2100 X84.392 Y45.193 E18.08235
G1 X85.05 Y44.432 E18.11582
G1 X85.167 Y44.315 E18.12132
G1 X85.724 Y43.815 E18.14621
G1 X86.33 Y43.378 E18.17106
G1 X86.98 Y43.007 E18.19596
G1 X87.666 Y42.708 E18.22085
G1 X88.38 Y42.484 E18.24573
G1 X89.113 Y42.337 E18.2706
G1 X90.117 Y42.265 E18.30408
G1 X144.883 Y42.265 E20.1256
G1 X145.63 Y42.305 E20.15048
G1 X146.368 Y42.424 E20.17535
G1 X147.09 Y42.622 E20.20025
G1 X147.786 Y42.895 E20.22511
G1 X148.449 Y43.242 E20.25
G1 X149.072 Y43.657 E20.2749
G1 X149.833 Y44.315 E20.30836
G1 X149.95 Y44.432 E20.31386
G1 X150.45 Y44.989 E20.33876
G1 X150.887 Y45.595 E20.36361
G1 X151.258 Y46.245 E20.3885
G1 X151.557 Y46.931 E20.41339
G1 X151.781 Y47.645 E20.43828
G1 X151.928 Y48.378 E20.46315
G1 X152 Y49.382 E20.49662
G1 X152 Y106.148 E22.38467
G1 X151.96 Y106.895 E22.40955
G1 X151.841 Y107.633 E22.43441
G1 X151.643 Y108.355 E22.45931
G1 X151.37 Y109.051 E22.48418
G1 X151.023 Y109.714 E22.50907
G1 X150.608 Y110.337 E22.53397
G1 X149.95 Y111.098 E22.56743
G1 X149.833 Y111.215 E22.57293
G1 X149.276 Y111.715 E22.59783
G1 X148.67 Y112.152 E22.62267
G1 X148.02 Y112.523 E22.64757
G1 X147.334 Y112.822 E22.67246
G1 X146.62 Y113.046 E22.69735
G1 X145.887 Y113.193 E22.72221
G1 X144.883 Y113.265 E22.75569
G1 X90.117 Y113.265 E24.57721
G1 X89.37 Y113.225 E24.6021
G1 X88.632 Y113.106 E24.62696
G1 X87.91 Y112.908 E24.65186
G1 X87.214 Y112.635 E24.67673
G1 X86.551 Y112.288 E24.70161
G1 X85.928 Y111.873 E24.72651
G1 X85.167 Y111.215 E24.75997
G1 X85.05 Y111.098 E24.76548
G1 X84.55 Y110.541 E24.79037
G1 X84.113 Y109.935 E24.81522
G1 X83.742 Y109.285 E24.84011
G1 X83.443 Y108.599 E24.865
G1 X83.219 Y107.885 E24.88989
G1 X83.072 Y107.152 E24.91476
G1 X83 Y106.148 E24.94824
G1 X83 Y49.382 E26.83628
G1 X83.04 Y48.635 E26.86116
G1 X83.159 Y47.897 E26.88602
G1 X83.357 Y47.175 E26.91093
G1 X83.63 Y46.479 E26.93579
G1 X83.977 Y45.816 E26.96068
G0 F4800 X84.375 Y45.929
G1 F2100 X84.789 Y45.332 E26.98484
G1 X85.333 Y44.715 E27.0122
G1 X85.45 Y44.598 E27.01771
G1 X85.991 Y44.114 E27.04185
G1 X86.582 Y43.691 E27.06602
G1 X87.216 Y43.337 E27.09017
G1 X87.885 Y43.054 E27.11433
G1 X88.581 Y42.846 E27.13849
G1 X89.296 Y42.716 E27.16267
G1 X90.117 Y42.665 E27.19002
G1 X144.883 Y42.665 E29.01155
G1 X145.608 Y42.705 E29.0357
G1 X146.325 Y42.824 E29.05987
G1 X147.024 Y43.022 E29.08404
G1 X147.697 Y43.295 E29.10819
G1 X148.336 Y43.64 E29.13235
G1 X148.933 Y44.054 E29.15651
G1 X149.55 Y44.598 E29.18387
G1 X149.667 Y44.715 E29.18937
G1 X150.151 Y45.256 E29.21351
G1 X150.574 Y45.847 E29.23769
G1 X150.928 Y46.481 E29.26184
G1 X151.211 Y47.15 E29.286
G1 X151.419 Y47.846 E29.31016
G1 X151.549 Y48.561 E29.33433
G1 X151.6 Y49.382 E29.36169
G1 X151.6 Y106.148 E31.24973
G1 X151.56 Y106.873 E31.27388
G1 X151.441 Y107.59 E31.29806
G1 X151.243 Y108.289 E31.32222
G1 X150.97 Y108.962 E31.34638
G1 X150.625 Y109.601 E31.37053
G1 X150.211 Y110.198 E31.39469
G1 X149.667 Y110.815 E31.42205
G1 X149.55 Y110.932 E31.42756
G1 X149.009 Y111.416 E31.4517
G1 X148.418 Y111.839 E31.47587
G1 X147.784 Y112.193 E31.50002
G1 X147.115 Y112.476 E31.52418
G1 X146.419 Y112.684 E31.54835
G1 X145.704 Y112.814 E31.57252
G1 X144.883 Y112.865 E31.59988
G1 X90.117 Y112.865 E33.4214
G1 X89.392 Y112.825 E33.44555
G1 X88.675 Y112.706 E33.46972
G1 X87.976 Y112.508 E33.49389
G1 X87.303 Y112.235 E33.51804
G1 X86.664 Y111.89 E33.5422
G1 X86.067 Y111.476 E33.56636
G1 X85.45 Y110.932 E33.59372
G1 X85.333 Y110.815 E33.59922
G1 X84.849 Y110.274 E33.62337
G1 X84.426 Y109.683 E33.64754
G1 X84.072 Y109.049 E33.67169
G1 X83.789 Y108.38 E33.69585
G1 X83.581 Y107.684 E33.72001
G1 X83.451 Y106.969 E33.74418
G1 X83.4 Y106.148 E33.77154
G1 X83.4 Y49.382 E35.65959
G1 X83.44 Y48.657 E35.68374
G1 X83.559 Y47.94 E35.70791
G1 X83.757 Y47.241 E35.73207
G1 X84.03 Y46.568 E35.75623
G1 X84.375 Y45.929 E35.78038
G0 F4800 X84.429 Y46.661
G1 F2100 X84.774 Y46.047 E35.80381
G1 X85.185 Y45.476 E35.82721
G1 X85.616 Y44.998 E35.84861
G1 X85.733 Y44.881 E35.85412
G1 X86.258 Y44.412 E35.87753
G1 X86.833 Y44.006 E35.90094
G1 X87.451 Y43.668 E35.92437
G1 X88.102 Y43.401 E35.94777
G1 X88.78 Y43.211 E35.97119
G1 X89.475 Y43.098 E35.99461
G1 X90.117 Y43.065 E36.01599
G1 X144.883 Y43.065 E37.83752
G1 X145.586 Y43.105 E37.86094
G1 X146.28 Y43.224 E37.88436
G1 X146.955 Y43.422 E37.90775
G1 X147.604 Y43.694 E37.93116
G1 X148.218 Y44.039 E37.95458
G1 X148.789 Y44.45 E37.97798
G1 X149.267 Y44.881 E37.99939
G1 X149.384 Y44.998 E38.00489
G1 X149.853 Y45.523 E38.02831
G1 X150.259 Y46.098 E38.05172
G1 X150.597 Y46.716 E38.07515
G1 X150.864 Y47.367 E38.09855
G1 X151.054 Y48.045 E38.12197
G1 X151.167 Y48.74 E38.14539
G1 X151.2 Y49.382 E38.16677
G1 X151.2 Y106.148 E40.05481
G1 X151.16 Y106.851 E40.07823
G1 X151.041 Y107.545 E40.10165
G1 X150.843 Y108.22 E40.12505
G1 X150.571 Y108.869 E40.14845
G1 X150.226 Y109.483 E40.17188
G1 X149.815 Y110.054 E40.19528
G1 X149.384 Y110.532 E40.21668
G1 X149.267 Y110.649 E40.22219
G1 X148.742 Y111.118 E40.2456
G1 X148.167 Y111.524 E40.26901
G1 X147.549 Y111.862 E40.29244
G1 X146.898 Y112.129 E40.31585
G1 X146.22 Y112.319 E40.33926
G1 X145.525 Y112.432 E40.36268
G1 X144.883 Y112.465 E40.38406
G1 X90.117 Y112.465 E42.20559
G1 X89.414 Y112.425 E42.22901
G1 X88.72 Y112.306 E42.25243
G1 X88.045 Y112.108 E42.27582
G1 X87.396 Y111.836 E42.29923
G1 X86.782 Y111.491 E42.32265
G1 X86.211 Y111.08 E42.34605
G1 X85.733 Y110.649 E42.36746
G1 X85.616 Y110.532 E42.37296
G1 X85.147 Y110.007 E42.39638
G1 X84.741 Y109.432 E42.41979
G1 X84.403 Y108.814 E42.44322
G1 X84.136 Y108.163 E42.46662
G1 X83.946 Y107.485 E42.49004
G1 X83.833 Y106.79 E42.51346
G1 X83.8 Y106.148 E42.53484
G1 X83.8 Y49.382 E44.42289
G1 X83.84 Y48.679 E44.44631
G1 X83.959 Y47.985 E44.46972
G1 X84.157 Y47.31 E44.49312
G1 X84.429 Y46.661 E44.51653
G0 F4800 X84.828 Y46.756
G1 F2100 X85.172 Y46.168 E44.53918
G1 X85.582 Y45.624 E44.56184
G1 X85.899 Y45.281 E44.57738
G1 X86.016 Y45.164 E44.58288
G1 X86.525 Y44.711 E44.60554
G1 X87.083 Y44.322 E44.62817
G1 X87.683 Y44 E44.65081
G1 X88.317 Y43.751 E44.67347
G1 X88.976 Y43.578 E44.69613
G1 X89.65 Y43.484 E44.71876
G1 X90.117 Y43.465 E44.73431
G1 X144.883 Y43.465 E46.55583
G1 X145.563 Y43.505 E46.57849
G1 X146.233 Y43.624 E46.60112
G1 X146.885 Y43.821 E46.62378
G1 X147.509 Y44.093 E46.64642
G1 X148.097 Y44.437 E46.66908
G1 X148.641 Y44.847 E46.69173
G1 X148.984 Y45.164 E46.70727
G1 X149.101 Y45.281 E46.71277
G1 X149.554 Y45.79 E46.73543
G1 X149.943 Y46.348 E46.75806
G1 X150.265 Y46.948 E46.7807
G1 X150.514 Y47.582 E46.80336
G1 X150.687 Y48.241 E46.82602
G1 X150.781 Y48.915 E46.84866
G1 X150.8 Y49.382 E46.8642
G1 X150.8 Y106.148 E48.75225
G1 X150.76 Y106.828 E48.7749
G1 X150.641 Y107.498 E48.79753
G1 X150.444 Y108.15 E48.82019
G1 X150.172 Y108.774 E48.84283
G1 X149.828 Y109.362 E48.86549
G1 X149.418 Y109.906 E48.88814
G1 X149.101 Y110.249 E48.90368
G1 X148.984 Y110.366 E48.90918
G1 X148.475 Y110.819 E48.93184
G1 X147.917 Y111.208 E48.95447
G1 X147.317 Y111.53 E48.97712
G1 X146.683 Y111.779 E48.99977
G1 X146.024 Y111.952 E49.02243
G1 X145.35 Y112.046 E49.04507
G1 X144.883 Y112.065 E49.06061
G1 X90.117 Y112.065 E50.88214
G1 X89.437 Y112.025 E50.90479
G1 X88.767 Y111.906 E50.92743
G1 X88.115 Y111.709 E50.95008
G1 X87.491 Y111.437 E50.97272
G1 X86.903 Y111.093 E50.99538
G1 X86.359 Y110.683 E51.01803
G1 X86.016 Y110.366 E51.03357
G1 X85.899 Y110.249 E51.03907
G1 X85.446 Y109.74 E51.06174
G1 X85.057 Y109.182 E51.08436
G1 X84.735 Y108.582 E51.10701
G1 X84.486 Y107.948 E51.12966
G1 X84.313 Y107.289 E51.15232
G1 X84.219 Y106.615 E51.17496
G1 X84.2 Y106.148 E51.1905
G1 X84.2 Y49.382 E53.07855
G1 X84.24 Y48.702 E53.1012
G1 X84.359 Y48.032 E53.12384
G1 X84.556 Y47.38 E53.14649
G1 X84.828 Y46.756 E53.16913
G0 F4800 X85.228 Y46.855
G1 F2100 X85.57 Y46.294 E53.19098
G1 X86.182 Y45.564 E53.22267
G1 X86.299 Y45.447 E53.22817
G1 X86.791 Y45.011 E53.25004
G1 X87.332 Y44.639 E53.27187
G1 X87.914 Y44.335 E53.29371
G1 X88.529 Y44.104 E53.31556
G1 X89.168 Y43.949 E53.33743
G1 X90.117 Y43.865 E53.36912
G1 X144.883 Y43.865 E55.19064
G1 X145.539 Y43.905 E55.2125
G1 X146.185 Y44.024 E55.23435
G1 X146.812 Y44.221 E55.25621
G1 X147.41 Y44.493 E55.27806
G1 X147.971 Y44.835 E55.29991
G1 X148.701 Y45.447 E55.3316
G1 X148.818 Y45.564 E55.3371
G1 X149.254 Y46.056 E55.35896
G1 X149.626 Y46.597 E55.3808
G1 X149.93 Y47.179 E55.40264
G1 X150.161 Y47.794 E55.42449
G1 X150.316 Y48.433 E55.44636
G1 X150.4 Y49.382 E55.47805
G1 X150.4 Y106.148 E57.36609
G1 X150.36 Y106.804 E57.38795
G1 X150.241 Y107.45 E57.4098
G1 X150.044 Y108.077 E57.43166
G1 X149.772 Y108.675 E57.45351
G1 X149.43 Y109.236 E57.47536
G1 X148.818 Y109.966 E57.50705
G1 X148.701 Y110.083 E57.51255
G1 X148.209 Y110.519 E57.53441
G1 X147.668 Y110.891 E57.55625
G1 X147.086 Y111.195 E57.57809
G1 X146.471 Y111.426 E57.59994
G1 X145.832 Y111.581 E57.62181
G1 X144.883 Y111.665 E57.6535
G1 X90.117 Y111.665 E59.47502
G1 X89.461 Y111.625 E59.49688
G1 X88.815 Y111.506 E59.51873
G1 X88.188 Y111.309 E59.54059
G1 X87.59 Y111.037 E59.56244
G1 X87.029 Y110.695 E59.58429
G1 X86.299 Y110.083 E59.61597
G1 X86.182 Y109.966 E59.62148
G1 X85.746 Y109.474 E59.64334
G1 X85.374 Y108.933 E59.66518
G1 X85.07 Y108.351 E59.68702
G1 X84.839 Y107.736 E59.70887
G1 X84.684 Y107.097 E59.73074
G1 X84.6 Y106.148 E59.76243
G1 X84.6 Y49.382 E61.65047
G1 X84.64 Y48.726 E61.67233
G1 X84.759 Y48.08 E61.69418
G1 X84.956 Y47.453 E61.71604
G1 X85.228 Y46.855 E61.73789
G0 F4800 X85.627 Y46.958
G1 F2100 X85.967 Y46.426 E61.75889
G1 X86.464 Y45.846 E61.78429
G1 X86.581 Y45.729 E61.78979
G1 X87.056 Y45.312 E61.81082
G1 X87.579 Y44.957 E61.83184
G1 X88.143 Y44.671 E61.85287
G1 X88.738 Y44.459 E61.87388
G1 X89.356 Y44.323 E61.89493
G1 X90.117 Y44.265 E61.92031
G1 X144.883 Y44.265 E63.74184
G1 X145.514 Y44.305 E63.76287
G1 X146.135 Y44.424 E63.7839
G1 X146.735 Y44.621 E63.8049
G1 X147.307 Y44.892 E63.82595
G1 X147.839 Y45.232 E63.84695
G1 X148.419 Y45.729 E63.87236
G1 X148.536 Y45.846 E63.87786
G1 X148.953 Y46.321 E63.89888
G1 X149.308 Y46.844 E63.91991
G1 X149.594 Y47.408 E63.94094
G1 X149.806 Y48.003 E63.96195
G1 X149.942 Y48.621 E63.98299
G1 X150 Y49.382 E64.00838
G1 X150 Y106.148 E65.89642
G1 X149.96 Y106.779 E65.91745
G1 X149.841 Y107.4 E65.93848
G1 X149.644 Y108 E65.95949
G1 X149.373 Y108.572 E65.98054
G1 X149.033 Y109.104 E66.00154
G1 X148.536 Y109.684 E66.02694
G1 X148.419 Y109.801 E66.03245
G1 X147.944 Y110.218 E66.05347
G1 X147.421 Y110.573 E66.07449
G1 X146.857 Y110.859 E66.09553
G1 X146.262 Y111.071 E66.11653
G1 X145.644 Y111.207 E66.13758
G1 X144.883 Y111.265 E66.16296
G1 X90.117 Y111.265 E67.98449
G1 X89.486 Y111.225 E68.00552
G1 X88.865 Y111.106 E68.02655
G1 X88.265 Y110.909 E68.04755
G1 X87.693 Y110.638 E68.06861
G1 X87.161 Y110.298 E68.0896
G1 X86.581 Y109.801 E68.11501
G1 X86.464 Y109.684 E68.12051
G1 X86.047 Y109.209 E68.14154
G1 X85.692 Y108.686 E68.16256
G1 X85.406 Y108.122 E68.18359
G1 X85.194 Y107.527 E68.2046
