;FLAVOR:Marlin
;TIME:3669
;Filament used: 4.73014m
;Layer height: 0.3
;MINX:92.655
;MINY:39.719
;MINZ:0.2
;MAXX:160.838
;MAXY:94.927
;MAXZ:17.2
;Generated with Cura_SteamEngine master
M140 S30
M105
M190 S30
M104 S218
M105
M109 S218
M82 ;absolute extrusion mode
; Ender 3 Custom Start G-code
G92 E0 ; Reset Extruder
G28 ; Home all axes
G1 Z2.0 F3000 ; Move Z Axis up little to prevent scratching of Heat Bed
G1 X0.1 Y20 Z0.3 F5000.0 ; Move to start position
G1 X0.1 Y200.0 Z0.3 F1500.0 E15 ; Draw the first line
G1 X0.4 Y200.0 Z0.3 F5000.0 ; Move to side a little
G1 X0.4 Y20 Z0.3 F1500.0 E30 ; Draw the second line
G92 E0 ; Reset Extruder
G1 Z2.0 F3000 ; Move Z Axis up little to prevent scratching of Heat Bed
G1 X5 Y20 Z0.3 F5000.0 ; Move over to prevent blob squish
G92 E0
G92 E0
G1 F2700 E-5
;LAYER_COUNT:57
;LAYER:0
M107
G1 F300 Z0.4
;MESH:ClawControlBoxFixer.stl
G0 F4800 X108.088 Y55.039 Z0.4
;TYPE:WALL-INNER
G1 F300 Z0.2
G1 F2700 E0
G1 F1800 X96.688 Y55.039 E0.37917
G1 X96.688 Y41.639 E0.82485
G1 X108.088 Y41.639 E1.20402
G1 X108.088 Y55.039 E1.6497
G0 F4800 X108.488 Y55.439
G1 F1800 X96.288 Y55.439 E2.05548
G1 X96.288 Y41.239 E2.52777
G1 X108.488 Y41.239 E2.93354
G1 X108.488 Y55.439 E3.40584
G0 F4800 X108.888 Y55.839
G1 F1800 X95.888 Y55.839 E3.83822
G1 X95.888 Y40.839 E4.33712
G1 X108.888 Y40.839 E4.7695
G1 X108.888 Y55.839 E5.26841
G0 F4800 X109.288 Y56.239
G1 F1800 X95.488 Y56.239 E5.7274
G1 X95.488 Y40.439 E6.25291
G1 X109.288 Y40.439 E6.7119
G1 X109.288 Y56.239 E7.23741
G0 F4800 X109.688 Y56.639
;TYPE:WALL-OUTER
G1 F1800 X95.088 Y56.639 E7.723
G1 X95.088 Y40.039 E8.27512
G1 X109.688 Y40.039 E8.76072
G1 X109.688 Y56.639 E9.31284
G1 F2700 E4.31284
G1 F300 Z0.4
G0 F4800 X107.698 Y54.649 Z0.4
;TYPE:SKIN
G1 F300 Z0.2
G1 F2700 E9.31284
G1 F1800 X97.078 Y54.649 E9.66606
G1 X97.078 Y42.029 E10.0858
G1 X107.698 Y42.029 E10.43903
G1 X107.698 Y54.649 E10.85877
G1 F2700 E5.85877
G1 F300 Z0.4
G0 F4800 X97.481 Y54.488 Z0.4
G1 F300 Z0.2
G1 F2700 E10.85877
G1 F1800 X97.237 Y54.244 E10.87025
G0 F4800 X97.237 Y53.679
G1 F1800 X98.046 Y54.488 E10.9083
G0 F4800 X98.612 Y54.488
G1 F1800 X97.237 Y53.113 E10.97297
G0 F4800 X97.237 Y52.547
G1 F1800 X99.178 Y54.488 E11.06427
G0 F4800 X99.743 Y54.488
G1 F1800 X97.237 Y51.982 E11.18215
G0 F4800 X97.237 Y51.416
G1 F1800 X100.309 Y54.488 E11.32665
G0 F4800 X100.875 Y54.488
G1 F1800 X97.237 Y50.85 E11.49777
G0 F4800 X97.237 Y50.285
G1 F1800 X101.44 Y54.488 E11.69546
G0 F4800 X102.006 Y54.488
G1 F1800 X97.237 Y49.719 E11.91978
G0 F4800 X97.237 Y49.153
G1 F1800 X102.572 Y54.488 E12.17072
G0 F4800 X103.137 Y54.488
G1 F1800 X97.237 Y48.588 E12.44824
G0 F4800 X97.237 Y48.022
G1 F1800 X103.703 Y54.488 E12.75238
G0 F4800 X104.269 Y54.488
G1 F1800 X97.237 Y47.456 E13.08315
G0 F4800 X97.237 Y46.891
G1 F1800 X104.834 Y54.488 E13.44049
G0 F4800 X105.4 Y54.488
G1 F1800 X97.237 Y46.325 E13.82445
G0 F4800 X97.237 Y45.759
G1 F1800 X105.966 Y54.488 E14.23503
G0 F4800 X106.532 Y54.488
G1 F1800 X97.237 Y45.194 E14.67222
G0 F4800 X97.237 Y44.628
G1 F1800 X107.097 Y54.488 E15.136
G0 F4800 X107.537 Y54.363
G1 F1800 X97.237 Y44.062 E15.62051
G0 F4800 X97.237 Y43.496
G1 F1800 X107.537 Y53.797 E16.10501
G0 F4800 X107.537 Y53.231
G1 F1800 X97.237 Y42.931 E16.58949
G0 F4800 X97.237 Y42.365
G1 F1800 X107.537 Y52.666 E17.07399
G0 F4800 X107.537 Y52.1
G1 F1800 X97.625 Y42.188 E17.54022
G0 F4800 X98.191 Y42.188
G1 F1800 X107.537 Y51.534 E17.97983
G0 F4800 X107.537 Y50.968
G1 F1800 X98.757 Y42.188 E18.39282
G0 F4800 X99.323 Y42.188
G1 F1800 X107.537 Y50.403 E18.7792
G0 F4800 X107.537 Y49.837
G1 F1800 X99.888 Y42.188 E19.13899
G0 F4800 X100.454 Y42.188
G1 F1800 X107.537 Y49.271 E19.47215
G0 F4800 X107.537 Y48.706
G1 F1800 X101.02 Y42.188 E19.77871
G0 F4800 X101.585 Y42.188
G1 F1800 X107.537 Y48.14 E20.05868
G0 F4800 X107.537 Y47.574
G1 F1800 X102.151 Y42.188 E20.31202
G0 F4800 X102.717 Y42.188
G1 F1800 X107.537 Y47.009 E20.53876
G0 F4800 X107.537 Y46.443
G1 F1800 X103.282 Y42.188 E20.7389
G0 F4800 X103.848 Y42.188
G1 F1800 X107.537 Y45.877 E20.91242
G0 F4800 X107.537 Y45.312
G1 F1800 X104.414 Y42.188 E21.05934
G0 F4800 X104.979 Y42.188
G1 F1800 X107.537 Y44.746 E21.17966
G0 F4800 X107.537 Y44.18
G1 F1800 X105.545 Y42.188 E21.27336
G0 F4800 X106.111 Y42.188
G1 F1800 X107.537 Y43.615 E21.34046
G0 F4800 X107.537 Y43.049
G1 F1800 X106.676 Y42.188 E21.38095
G0 F4800 X107.242 Y42.188
G1 F1800 X107.537 Y42.483 E21.39483
G1 F2700 E16.39483
G1 F300 Z0.4
;MESH:ClawControlBoxFixer.stl(1)
G0 F4800 X124.588 Y55.744 Z0.4
;TYPE:WALL-INNER
G1 F300 Z0.2
G1 F2700 E21.39483
G1 F1800 X113.188 Y55.744 E21.774
G1 X113.188 Y42.344 E22.21968
G1 X124.588 Y42.344 E22.59885
G1 X124.588 Y55.744 E23.04453
G0 F4800 X124.988 Y56.144
G1 F1800 X112.788 Y56.144 E23.45031
G1 X112.788 Y41.944 E23.9226
G1 X124.988 Y41.944 E24.32837
G1 X124.988 Y56.144 E24.80067
G0 F4800 X125.388 Y56.544
G1 F1800 X112.388 Y56.544 E25.23305
G1 X112.388 Y41.544 E25.73195
G1 X125.388 Y41.544 E26.16433
G1 X125.388 Y56.544 E26.66324
G0 F4800 X125.788 Y56.944
G1 F1800 X111.988 Y56.944 E27.12223
G1 X111.988 Y41.144 E27.64774
G1 X125.788 Y41.144 E28.10673
G1 X125.788 Y56.944 E28.63224
G0 F4800 X126.188 Y57.344
;TYPE:WALL-OUTER
G1 F1800 X111.588 Y57.344 E29.11783
G1 X111.588 Y40.744 E29.66995
G1 X126.188 Y40.744 E30.15555
G1 X126.188 Y57.344 E30.70767
G1 F2700 E25.70767
G1 F300 Z0.4
G0 F4800 X124.198 Y55.354 Z0.4
;TYPE:SKIN
G1 F300 Z0.2
G1 F2700 E30.70767
G1 F1800 X113.578 Y55.354 E31.06089
G1 X113.578 Y42.734 E31.48063
G1 X124.198 Y42.734 E31.83386
G1 X124.198 Y55.354 E32.2536
G1 F2700 E27.2536
G1 F300 Z0.4
G0 F4800 X114.025 Y55.193 Z0.4
G1 F300 Z0.2
G1 F2700 E32.2536
G1 F1800 X113.736 Y54.905 E32.26717
G0 F4800 X113.736 Y54.339
G1 F1800 X114.59 Y55.193 E32.30734
G0 F4800 X115.156 Y55.193
G1 F1800 X113.736 Y53.774 E32.37411
G0 F4800 X113.736 Y53.208
G1 F1800 X115.722 Y55.193 E32.4675
G0 F4800 X116.287 Y55.193
G1 F1800 X113.736 Y52.642 E32.58749
G0 F4800 X113.736 Y52.077
G1 F1800 X116.853 Y55.193 E32.73408
G0 F4800 X117.419 Y55.193
G1 F1800 X113.736 Y51.511 E32.9073
G0 F4800 X113.736 Y50.945
G1 F1800 X117.985 Y55.193 E33.10713
G0 F4800 X118.55 Y55.193
G1 F1800 X113.736 Y50.379 E33.33357
G0 F4800 X113.736 Y49.814
G1 F1800 X119.116 Y55.193 E33.5866
G0 F4800 X119.682 Y55.193
G1 F1800 X113.736 Y49.248 E33.86626
G0 F4800 X113.736 Y48.682
G1 F1800 X120.247 Y55.193 E34.17252
G0 F4800 X120.813 Y55.193
G1 F1800 X113.736 Y48.117 E34.50538
G0 F4800 X113.736 Y47.551
G1 F1800 X121.379 Y55.193 E34.86485
G0 F4800 X121.944 Y55.193
G1 F1800 X113.736 Y46.985 E35.25093
G0 F4800 X113.736 Y46.42
G1 F1800 X122.51 Y55.193 E35.66361
G0 F4800 X123.076 Y55.193
G1 F1800 X113.736 Y45.854 E36.10291
G0 F4800 X113.736 Y45.288
G1 F1800 X123.641 Y55.193 E36.56881
G0 F4800 X124.037 Y55.024
G1 F1800 X113.736 Y44.723 E37.05334
G0 F4800 X113.736 Y44.157
G1 F1800 X124.037 Y54.458 E37.53787
G0 F4800 X124.037 Y53.892
G1 F1800 X113.736 Y43.591 E38.0224
G0 F4800 X113.736 Y43.026
G1 F1800 X124.037 Y53.327 E38.50692
G0 F4800 X124.037 Y52.761
G1 F1800 X114.17 Y42.893 E38.97106
G0 F4800 X114.735 Y42.893
G1 F1800 X124.037 Y52.195 E39.4086
G0 F4800 X124.037 Y51.63
G1 F1800 X115.301 Y42.893 E39.81954
G0 F4800 X115.867 Y42.893
G1 F1800 X124.037 Y51.064 E40.20385
G0 F4800 X124.037 Y50.498
G1 F1800 X116.432 Y42.893 E40.56157
G0 F4800 X116.998 Y42.893
G1 F1800 X124.037 Y49.933 E40.89268
G0 F4800 X124.037 Y49.367
G1 F1800 X117.564 Y42.893 E41.19718
G0 F4800 X118.129 Y42.893
G1 F1800 X124.037 Y48.801 E41.47507
G0 F4800 X124.037 Y48.235
G1 F1800 X118.695 Y42.893 E41.72634
G0 F4800 X119.261 Y42.893
G1 F1800 X124.037 Y47.67 E41.95102
G0 F4800 X124.037 Y47.104
G1 F1800 X119.827 Y42.893 E42.14906
G0 F4800 X120.392 Y42.893
G1 F1800 X124.037 Y46.538 E42.32051
G0 F4800 X124.037 Y45.973
G1 F1800 X120.958 Y42.893 E42.46536
G0 F4800 X121.524 Y42.893
G1 F1800 X124.037 Y45.407 E42.58359
G0 F4800 X124.037 Y44.841
G1 F1800 X122.089 Y42.893 E42.67522
G0 F4800 X122.655 Y42.893
G1 F1800 X124.037 Y44.276 E42.74025
G0 F4800 X124.037 Y43.71
G1 F1800 X123.221 Y42.893 E42.77865
G0 F4800 X123.786 Y42.893
G1 F1800 X124.037 Y43.144 E42.79046
G1 F2700 E37.79046
G1 F300 Z0.4
;MESH:ClawControlBoxFixer.stl(2)
G0 F4800 X141.947 Y54.719 Z0.4
;TYPE:WALL-INNER
G1 F300 Z0.2
G1 F2700 E42.79046
G1 F1800 X130.547 Y54.719 E43.16963
G1 X130.547 Y41.319 E43.61531
G1 X141.947 Y41.319 E43.99448
G1 X141.947 Y54.719 E44.44016
G0 F4800 X142.347 Y55.119
G1 F1800 X130.147 Y55.119 E44.84594
G1 X130.147 Y40.919 E45.31823
G1 X142.347 Y40.919 E45.724
G1 X142.347 Y55.119 E46.1963
G0 F4800 X142.747 Y55.519
G1 F1800 X129.747 Y55.519 E46.62868
G1 X129.747 Y40.519 E47.12758
G1 X142.747 Y40.519 E47.55996
G1 X142.747 Y55.519 E48.05887
G0 F4800 X143.147 Y55.919
G1 F1800 X129.347 Y55.919 E48.51786
G1 X129.347 Y40.119 E49.04337
G1 X143.147 Y40.119 E49.50236
G1 X143.147 Y55.919 E50.02787
G0 F4800 X143.547 Y56.319
;TYPE:WALL-OUTER
G1 F1800 X128.947 Y56.319 E50.51346
G1 X128.947 Y39.719 E51.06558
G1 X143.547 Y39.719 E51.55118
G1 X143.547 Y56.319 E52.1033
G1 F2700 E47.1033
G1 F300 Z0.4
G0 F4800 X141.557 Y54.329 Z0.4
;TYPE:SKIN
G1 F300 Z0.2
G1 F2700 E52.1033
G1 F1800 X130.937 Y54.329 E52.45652
G1 X130.937 Y41.709 E52.87626
G1 X141.557 Y41.709 E53.22949
G1 X141.557 Y54.329 E53.64923
G1 F2700 E48.64923
G1 F300 Z0.4
G0 F4800 X131.667 Y54.168 Z0.4
G1 F300 Z0.2
G1 F2700 E53.64923
G1 F1800 X131.096 Y53.597 E53.67609
G0 F4800 X131.096 Y53.031
G1 F1800 X132.233 Y54.168 E53.72957
G0 F4800 X132.798 Y54.168
G1 F1800 X131.096 Y52.465 E53.80965
G0 F4800 X131.096 Y51.9
G1 F1800 X133.364 Y54.168 E53.91633
G0 F4800 X133.93 Y54.168
G1 F1800 X131.096 Y51.334 E54.04963
G0 F4800 X131.096 Y50.768
G1 F1800 X134.495 Y54.168 E54.20953
G0 F4800 X135.061 Y54.168
G1 F1800 X131.096 Y50.203 E54.39603
G0 F4800 X131.096 Y49.637
G1 F1800 X135.627 Y54.168 E54.60916
G0 F4800 X136.193 Y54.168
G1 F1800 X131.096 Y49.071 E54.84891
G0 F4800 X131.096 Y48.506
G1 F1800 X136.758 Y54.168 E55.11523
G0 F4800 X137.324 Y54.168
G1 F1800 X131.096 Y47.94 E55.40818
G0 F4800 X131.096 Y47.374
G1 F1800 X137.89 Y54.168 E55.72774
G0 F4800 X138.455 Y54.168
G1 F1800 X131.096 Y46.809 E56.07389
G0 F4800 X131.096 Y46.243
G1 F1800 X139.021 Y54.168 E56.44666
G0 F4800 X139.587 Y54.168
G1 F1800 X131.096 Y45.677 E56.84605
G0 F4800 X131.096 Y45.111
G1 F1800 X140.152 Y54.168 E57.27204
G0 F4800 X140.718 Y54.168
G1 F1800 X131.096 Y44.546 E57.72463
G0 F4800 X131.096 Y43.98
G1 F1800 X141.284 Y54.168 E58.20384
G0 F4800 X141.396 Y53.715
G1 F1800 X131.096 Y43.414 E58.68834
G0 F4800 X131.096 Y42.849
G1 F1800 X141.396 Y53.149 E59.17282
G0 F4800 X141.396 Y52.583
G1 F1800 X131.096 Y42.283 E59.6573
G0 F4800 X131.247 Y41.869
G1 F1800 X141.396 Y52.018 E60.13468
G0 F4800 X141.396 Y51.452
G1 F1800 X131.813 Y41.869 E60.58544
G0 F4800 X132.378 Y41.869
G1 F1800 X141.396 Y50.886 E61.00959
G0 F4800 X141.396 Y50.321
G1 F1800 X132.944 Y41.869 E61.40715
G0 F4800 X133.51 Y41.869
G1 F1800 X141.396 Y49.755 E61.77808
G0 F4800 X141.396 Y49.189
G1 F1800 X134.075 Y41.869 E62.12242
G0 F4800 X134.641 Y41.869
G1 F1800 X141.396 Y48.624 E62.44015
G0 F4800 X141.396 Y48.058
G1 F1800 X135.207 Y41.869 E62.73126
G0 F4800 X135.772 Y41.869
G1 F1800 X141.396 Y47.492 E62.99577
G0 F4800 X141.396 Y46.927
G1 F1800 X136.338 Y41.869 E63.23369
G0 F4800 X136.904 Y41.869
G1 F1800 X141.396 Y46.361 E63.44498
G0 F4800 X141.396 Y45.795
G1 F1800 X137.47 Y41.869 E63.62964
G0 F4800 X138.035 Y41.869
G1 F1800 X141.396 Y45.23 E63.78773
G0 F4800 X141.396 Y44.664
G1 F1800 X138.601 Y41.869 E63.9192
G0 F4800 X139.167 Y41.869
G1 F1800 X141.396 Y44.098 E64.02405
G0 F4800 X141.396 Y43.533
G1 F1800 X139.732 Y41.869 E64.10232
G0 F4800 X140.298 Y41.869
G1 F1800 X141.396 Y42.967 E64.15396
G0 F4800 X141.396 Y42.401
G1 F1800 X140.864 Y41.869 E64.17899
G1 F2700 E59.17899
G1 F300 Z0.4
;MESH:ClawControlBoxFixer.stl(6)
G0 F4800 X139.655 Y74.612 Z0.4
;TYPE:WALL-INNER
G1 F300 Z0.2
G1 F2700 E64.17899
G1 F1800 X128.255 Y74.612 E64.55815
G1 X128.255 Y61.212 E65.00384
G1 X139.655 Y61.212 E65.38301
G1 X139.655 Y74.612 E65.82869
G0 F4800 X140.055 Y75.012
G1 F1800 X127.855 Y75.012 E66.23446
G1 X127.855 Y60.812 E66.70676
G1 X140.055 Y60.812 E67.11253
G1 X140.055 Y75.012 E67.58483
G0 F4800 X140.455 Y75.412
G1 F1800 X127.455 Y75.412 E68.01721
G1 X127.455 Y60.412 E68.51611
G1 X140.455 Y60.412 E68.94849
G1 X140.455 Y75.412 E69.44739
G0 F4800 X140.855 Y75.812
G1 F1800 X127.055 Y75.812 E69.90638
G1 X127.055 Y60.012 E70.43189
G1 X140.855 Y60.012 E70.89088
G1 X140.855 Y75.812 E71.41639
G0 F4800 X141.255 Y76.212
;TYPE:WALL-OUTER
G1 F1800 X126.655 Y76.212 E71.90199
G1 X126.655 Y59.612 E72.45411
G1 X141.255 Y59.612 E72.93971
G1 X141.255 Y76.212 E73.49183
G1 F2700 E68.49183
G1 F300 Z0.4
G0 F4800 X139.265 Y74.222 Z0.4
;TYPE:SKIN
G1 F300 Z0.2
G1 F2700 E73.49183
G1 F1800 X128.645 Y74.222 E73.84505
G1 X128.645 Y61.602 E74.26479
G1 X139.265 Y61.602 E74.61801
G1 X139.265 Y74.222 E75.03776
G1 F2700 E70.03776
G1 F300 Z0.4
G0 F4800 X128.933 Y74.061 Z0.4
G1 F300 Z0.2
G1 F2700 E75.03776
G1 F1800 X128.804 Y73.932 E75.04382
G0 F4800 X128.804 Y73.367
G1 F1800 X129.498 Y74.061 E75.07647
G0 F4800 X130.064 Y74.061
G1 F1800 X128.804 Y72.801 E75.13573
G0 F4800 X128.804 Y72.235
G1 F1800 X130.63 Y74.061 E75.22162
G0 F4800 X131.195 Y74.061
G1 F1800 X128.804 Y71.67 E75.33409
G0 F4800 X128.804 Y71.104
G1 F1800 X131.761 Y74.061 E75.47318
G0 F4800 X132.327 Y74.061
G1 F1800 X128.804 Y70.538 E75.63889
G0 F4800 X128.804 Y69.973
G1 F1800 X132.892 Y74.061 E75.83118
G0 F4800 X133.458 Y74.061
G1 F1800 X128.804 Y69.407 E76.05009
G0 F4800 X128.804 Y68.841
G1 F1800 X134.024 Y74.061 E76.29562
G0 F4800 X134.589 Y74.061
G1 F1800 X128.804 Y68.276 E76.56773
G0 F4800 X128.804 Y67.71
G1 F1800 X135.155 Y74.061 E76.86646
G0 F4800 X135.721 Y74.061
G1 F1800 X128.804 Y67.144 E77.19181
G0 F4800 X128.804 Y66.579
G1 F1800 X136.287 Y74.061 E77.54377
G0 F4800 X136.852 Y74.061
G1 F1800 X128.804 Y66.013 E77.92232
G0 F4800 X128.804 Y65.447
G1 F1800 X137.418 Y74.061 E78.3275
G0 F4800 X137.984 Y74.061
G1 F1800 X128.804 Y64.881 E78.7593
G0 F4800 X128.804 Y64.316
G1 F1800 X138.549 Y74.061 E79.21767
G0 F4800 X139.104 Y74.05
G1 F1800 X128.804 Y63.75 E79.70215
G0 F4800 X128.804 Y63.184
G1 F1800 X139.104 Y73.484 E80.18663
G0 F4800 X139.104 Y72.918
G1 F1800 X128.804 Y62.619 E80.67109
G0 F4800 X128.804 Y62.053
G1 F1800 X139.104 Y72.353 E81.15557
G0 F4800 X139.104 Y71.787
G1 F1800 X129.078 Y61.762 E81.62714
G0 F4800 X129.644 Y61.762
G1 F1800 X139.104 Y71.221 E82.07208
G0 F4800 X139.104 Y70.656
G1 F1800 X130.21 Y61.762 E82.49043
G0 F4800 X130.775 Y61.762
G1 F1800 X139.104 Y70.09 E82.88218
G0 F4800 X139.104 Y69.524
G1 F1800 X131.341 Y61.762 E83.2473
G0 F4800 X131.907 Y61.762
G1 F1800 X139.104 Y68.959 E83.58583
G0 F4800 X139.104 Y68.393
G1 F1800 X132.472 Y61.762 E83.89775
G0 F4800 X133.038 Y61.762
G1 F1800 X139.104 Y67.827 E84.18305
G0 F4800 X139.104 Y67.262
G1 F1800 X133.604 Y61.762 E84.44176
G0 F4800 X134.169 Y61.762
G1 F1800 X139.104 Y66.696 E84.67386
G0 F4800 X139.104 Y66.13
G1 F1800 X134.735 Y61.762 E84.87934
G0 F4800 X135.301 Y61.762
G1 F1800 X139.104 Y65.565 E85.05822
G0 F4800 X139.104 Y64.999
G1 F1800 X135.867 Y61.762 E85.21048
G0 F4800 X136.432 Y61.762
G1 F1800 X139.104 Y64.433 E85.33614
G0 F4800 X139.104 Y63.868
G1 F1800 X136.998 Y61.762 E85.4352
G0 F4800 X137.564 Y61.762
G1 F1800 X139.104 Y63.302 E85.50764
G0 F4800 X139.104 Y62.736
G1 F1800 X138.129 Y61.762 E85.55348
G0 F4800 X138.695 Y61.762
G1 F1800 X139.104 Y62.17 E85.57269
G1 F2700 E80.57269
G1 F300 Z0.4
;MESH:ClawControlBoxFixer.stl(4)
G0 F4800 X123.155 Y74.612 Z0.4
;TYPE:WALL-INNER
G1 F300 Z0.2
G1 F2700 E85.57269
G1 F1800 X111.755 Y74.612 E85.95186
G1 X111.755 Y61.212 E86.39754
G1 X123.155 Y61.212 E86.77671
G1 X123.155 Y74.612 E87.22239
G0 F4800 X123.555 Y75.012
G1 F1800 X111.355 Y75.012 E87.62817
G1 X111.355 Y60.812 E88.10046
G1 X123.555 Y60.812 E88.50623
G1 X123.555 Y75.012 E88.97853
G0 F4800 X123.955 Y75.412
G1 F1800 X110.955 Y75.412 E89.41091
G1 X110.955 Y60.412 E89.90981
G1 X123.955 Y60.412 E90.34219
G1 X123.955 Y75.412 E90.8411
G0 F4800 X124.355 Y75.812
G1 F1800 X110.555 Y75.812 E91.30008
G1 X110.555 Y60.012 E91.8256
G1 X124.355 Y60.012 E92.28458
