;FLAVOR:Marlin
;TIME:2661
;Filament used: 3.40561m
;Layer height: 0.25
;MINX:82.2
;MINY:16.459
;MINZ:0.15
;MAXX:152.8
;MAXY:89.059
;MAXZ:5.1
;Generated with Cura_SteamEngine master
M140 S30
M105
M190 S30
M104 S218
M105
M109 S218
M82 ;absolute extrusion mode
; Ender 3 Custom Start G-code
G92 E0 ; Reset Extruder
G28 ; Home all axes
G1 Z2.0 F3000 ; Move Z Axis up little to prevent scratching of Heat Bed
G1 X0.1 Y20 Z0.3 F5000.0 ; Move to start position
G1 X0.1 Y200.0 Z0.3 F1500.0 E15 ; Draw the first line
G1 X0.4 Y200.0 Z0.3 F5000.0 ; Move to side a little
G1 X0.4 Y20 Z0.3 F1500.0 E30 ; Draw the second line
G92 E0 ; Reset Extruder
G1 Z2.0 F3000 ; Move Z Axis up little to prevent scratching of Heat Bed
G1 X5 Y20 Z0.3 F5000.0 ; Move over to prevent blob squish
G92 E0
G92 E0
G1 F2700 E-5
;LAYER_COUNT:20
;LAYER:0
M107
G1 F300 Z0.35
G0 F4800 X82.557 Y21.925 Z0.35
;TYPE:SKIRT
G1 F300 Z0.15
G1 F2700 E0
G1 F2100 X82.831 Y21.185 E0.01968
G1 X83.179 Y20.476 E0.03939
G1 X83.597 Y19.805 E0.05911
G1 X84.08 Y19.181 E0.07879
G1 X84.623 Y18.608 E0.09848
G1 X85.222 Y18.093 E0.11819
G1 X85.87 Y17.642 E0.13788
G1 X86.561 Y17.258 E0.1576
G1 X87.286 Y16.946 E0.17729
G1 X88.039 Y16.709 E0.19698
G1 X88.813 Y16.55 E0.21669
G1 X89.598 Y16.469 E0.23638
G1 X90 Y16.459 E0.24641
G1 X145 Y16.459 E1.61839
G1 X145.789 Y16.499 E1.6381
G1 X146.569 Y16.618 E1.65778
G1 X147.334 Y16.816 E1.67749
G1 X148.074 Y17.09 E1.69718
G1 X148.783 Y17.438 E1.71688
G1 X149.454 Y17.856 E1.7366
G1 X150.078 Y18.339 E1.75628
G1 X150.651 Y18.882 E1.77597
G1 X151.166 Y19.481 E1.79568
G1 X151.617 Y20.129 E1.81537
G1 X152.001 Y20.82 E1.83509
G1 X152.313 Y21.545 E1.85478
G1 X152.55 Y22.298 E1.87447
G1 X152.709 Y23.072 E1.89418
G1 X152.79 Y23.857 E1.91387
G1 X152.8 Y24.259 E1.9239
G1 X152.8 Y81.259 E3.34577
G1 X152.76 Y82.048 E3.36548
G1 X152.641 Y82.828 E3.38516
G1 X152.443 Y83.593 E3.40487
G1 X152.169 Y84.333 E3.42456
G1 X151.821 Y85.042 E3.44426
G1 X151.403 Y85.713 E3.46398
G1 X150.92 Y86.337 E3.48366
G1 X150.377 Y86.91 E3.50336
G1 X149.778 Y87.425 E3.52306
G1 X149.13 Y87.876 E3.54275
G1 X148.439 Y88.26 E3.56247
G1 X147.714 Y88.572 E3.58216
G1 X146.961 Y88.809 E3.60186
G1 X146.187 Y88.968 E3.62157
G1 X145.402 Y89.049 E3.64125
G1 X145 Y89.059 E3.65128
G1 X90 Y89.059 E5.02326
G1 X89.211 Y89.019 E5.04297
G1 X88.431 Y88.9 E5.06265
G1 X87.666 Y88.702 E5.08236
G1 X86.926 Y88.428 E5.10205
G1 X86.217 Y88.08 E5.12175
G1 X85.546 Y87.662 E5.14147
G1 X84.922 Y87.179 E5.16115
G1 X84.349 Y86.636 E5.18085
G1 X83.834 Y86.037 E5.20055
G1 X83.383 Y85.389 E5.22025
G1 X82.999 Y84.698 E5.23997
G1 X82.687 Y83.973 E5.25966
G1 X82.45 Y83.22 E5.27935
G1 X82.291 Y82.446 E5.29906
G1 X82.21 Y81.661 E5.31874
G1 X82.2 Y81.259 E5.32877
G1 X82.2 Y24.259 E6.75065
G1 X82.24 Y23.47 E6.77035
G1 X82.359 Y22.69 E6.79003
G1 X82.557 Y21.925 E6.80975
G0 F4800 X82.957 Y21.988
G1 F2100 X83.231 Y21.269 E6.82894
G1 X83.578 Y20.583 E6.84812
G1 X83.994 Y19.936 E6.86731
G1 X84.475 Y19.336 E6.88649
G1 X85.016 Y18.789 E6.90568
G1 X85.611 Y18.301 E6.92488
G1 X86.253 Y17.878 E6.94405
G1 X86.936 Y17.523 E6.96326
G1 X87.651 Y17.242 E6.98242
G1 X88.393 Y17.036 E7.00163
G1 X89.151 Y16.908 E7.0208
G1 X90 Y16.859 E7.04202
G1 X145 Y16.859 E8.414
G1 X145.768 Y16.899 E8.43318
G1 X146.528 Y17.018 E8.45237
G1 X147.271 Y17.216 E8.47155
G1 X147.99 Y17.49 E8.49075
G1 X148.676 Y17.837 E8.50992
G1 X149.323 Y18.253 E8.52911
G1 X149.923 Y18.734 E8.54829
G1 X150.47 Y19.275 E8.56749
G1 X150.958 Y19.87 E8.58668
G1 X151.381 Y20.512 E8.60586
G1 X151.736 Y21.195 E8.62506
G1 X152.017 Y21.91 E8.64422
G1 X152.223 Y22.652 E8.66343
G1 X152.351 Y23.41 E8.68261
G1 X152.4 Y24.259 E8.70382
G1 X152.4 Y81.259 E10.12569
G1 X152.36 Y82.027 E10.14488
G1 X152.241 Y82.787 E10.16407
G1 X152.043 Y83.53 E10.18325
G1 X151.769 Y84.249 E10.20244
G1 X151.422 Y84.935 E10.22162
G1 X151.006 Y85.582 E10.24081
G1 X150.525 Y86.182 E10.25999
G1 X149.984 Y86.729 E10.27918
G1 X149.389 Y87.217 E10.29838
G1 X148.747 Y87.64 E10.31756
G1 X148.064 Y87.995 E10.33676
G1 X147.349 Y88.276 E10.35592
G1 X146.607 Y88.482 E10.37513
G1 X145.849 Y88.61 E10.39431
G1 X145 Y88.659 E10.41552
G1 X90 Y88.659 E11.7875
G1 X89.232 Y88.619 E11.80668
G1 X88.472 Y88.5 E11.82587
G1 X87.729 Y88.302 E11.84505
G1 X87.01 Y88.028 E11.86425
G1 X86.324 Y87.681 E11.88343
G1 X85.677 Y87.265 E11.90261
G1 X85.077 Y86.784 E11.9218
G1 X84.53 Y86.243 E11.94099
G1 X84.042 Y85.648 E11.96018
G1 X83.619 Y85.006 E11.97936
G1 X83.264 Y84.323 E11.99856
G1 X82.983 Y83.608 E12.01773
G1 X82.777 Y82.866 E12.03694
G1 X82.649 Y82.108 E12.05611
G1 X82.6 Y81.259 E12.07733
G1 X82.6 Y24.259 E13.4992
G1 X82.64 Y23.491 E13.51838
G1 X82.759 Y22.731 E13.53757
G1 X82.957 Y21.988 E13.55675
G0 F4800 X83.357 Y22.052
G1 F2100 X83.63 Y21.356 E13.5754
G1 X83.977 Y20.693 E13.59407
G1 X84.392 Y20.07 E13.61274
G1 X84.871 Y19.496 E13.63139
G1 X85.408 Y18.975 E13.65005
G1 X85.998 Y18.516 E13.6687
G1 X86.634 Y18.121 E13.68738
G1 X87.308 Y17.797 E13.70603
G1 X88.013 Y17.547 E13.72469
G1 X88.741 Y17.373 E13.74336
G1 X89.483 Y17.278 E13.76202
G1 X90 Y17.259 E13.77493
G1 X145 Y17.259 E15.14691
G1 X145.747 Y17.299 E15.16557
G1 X146.485 Y17.418 E15.18422
G1 X147.207 Y17.616 E15.20289
G1 X147.903 Y17.889 E15.22154
G1 X148.566 Y18.236 E15.24021
G1 X149.189 Y18.651 E15.25888
G1 X149.763 Y19.13 E15.27753
G1 X150.284 Y19.667 E15.29619
G1 X150.743 Y20.257 E15.31484
G1 X151.138 Y20.893 E15.33352
G1 X151.462 Y21.567 E15.35217
G1 X151.712 Y22.272 E15.37083
G1 X151.886 Y23 E15.3895
G1 X151.981 Y23.742 E15.40816
G1 X152 Y24.259 E15.42107
G1 X152 Y81.259 E16.84294
G1 X151.96 Y82.006 E16.8616
G1 X151.841 Y82.744 E16.88025
G1 X151.643 Y83.466 E16.89892
G1 X151.37 Y84.162 E16.91757
G1 X151.023 Y84.825 E16.93624
G1 X150.608 Y85.448 E16.95491
G1 X150.129 Y86.022 E16.97356
G1 X149.592 Y86.543 E16.99222
G1 X149.002 Y87.002 E17.01087
G1 X148.366 Y87.397 E17.02955
G1 X147.692 Y87.721 E17.0482
G1 X146.987 Y87.971 E17.06686
G1 X146.259 Y88.145 E17.08553
G1 X145.517 Y88.24 E17.10419
G1 X145 Y88.259 E17.1171
G1 X90 Y88.259 E18.48908
G1 X89.253 Y88.219 E18.50774
G1 X88.515 Y88.1 E18.52639
G1 X87.793 Y87.902 E18.54506
G1 X87.097 Y87.629 E18.56371
G1 X86.434 Y87.282 E18.58238
G1 X85.811 Y86.867 E18.60105
G1 X85.237 Y86.388 E18.6197
G1 X84.716 Y85.851 E18.63837
G1 X84.257 Y85.261 E18.65701
G1 X83.862 Y84.625 E18.67569
G1 X83.538 Y83.951 E18.69434
G1 X83.288 Y83.246 E18.713
G1 X83.114 Y82.518 E18.73167
G1 X83.019 Y81.776 E18.75033
G1 X83 Y81.259 E18.76324
G1 X83 Y24.259 E20.18511
G1 X83.04 Y23.512 E20.20377
G1 X83.159 Y22.774 E20.22242
G1 X83.357 Y22.052 E20.24109
G0 F4800 X83.757 Y22.118
G1 F2100 X84.03 Y21.445 E20.25921
G1 X84.375 Y20.806 E20.27732
G1 X84.789 Y20.209 E20.29545
G1 X85.265 Y19.661 E20.31355
G1 X85.799 Y19.168 E20.33168
G1 X86.384 Y18.738 E20.34979
G1 X87.013 Y18.374 E20.36792
G1 X87.678 Y18.081 E20.38605
G1 X88.371 Y17.863 E20.40417
G1 X89.083 Y17.723 E20.42227
G1 X90 Y17.659 E20.4452
G1 X145 Y17.659 E21.81718
G1 X145.725 Y17.699 E21.8353
G1 X146.442 Y17.818 E21.85343
G1 X147.141 Y18.016 E21.87155
G1 X147.814 Y18.289 E21.88967
G1 X148.453 Y18.634 E21.90778
G1 X149.05 Y19.048 E21.9259
G1 X149.598 Y19.524 E21.94401
G1 X150.091 Y20.058 E21.96214
G1 X150.521 Y20.643 E21.98025
G1 X150.885 Y21.272 E21.99838
G1 X151.178 Y21.937 E22.01651
G1 X151.396 Y22.63 E22.03463
G1 X151.536 Y23.342 E22.05273
G1 X151.6 Y24.259 E22.07566
G1 X151.6 Y81.259 E23.49753
G1 X151.56 Y81.984 E23.51564
G1 X151.441 Y82.701 E23.53377
G1 X151.243 Y83.4 E23.5519
G1 X150.97 Y84.073 E23.57001
G1 X150.625 Y84.712 E23.58813
G1 X150.211 Y85.309 E23.60625
G1 X149.735 Y85.857 E23.62436
G1 X149.201 Y86.35 E23.64249
G1 X148.616 Y86.78 E23.6606
G1 X147.987 Y87.144 E23.67873
G1 X147.322 Y87.437 E23.69685
G1 X146.629 Y87.655 E23.71498
G1 X145.917 Y87.795 E23.73308
G1 X145 Y87.859 E23.75601
G1 X90 Y87.859 E25.12799
G1 X89.275 Y87.819 E25.1461
G1 X88.558 Y87.7 E25.16423
G1 X87.859 Y87.502 E25.18235
G1 X87.186 Y87.229 E25.20047
G1 X86.547 Y86.884 E25.21859
G1 X85.95 Y86.47 E25.23671
G1 X85.402 Y85.994 E25.25481
G1 X84.909 Y85.46 E25.27294
G1 X84.479 Y84.875 E25.29106
G1 X84.115 Y84.246 E25.30918
G1 X83.822 Y83.581 E25.32731
G1 X83.604 Y82.888 E25.34543
G1 X83.464 Y82.176 E25.36353
G1 X83.4 Y81.259 E25.38646
G1 X83.4 Y24.259 E26.80834
G1 X83.44 Y23.534 E26.82645
G1 X83.559 Y22.817 E26.84458
G1 X83.757 Y22.118 E26.8627
G0 F4800 X84.157 Y22.187
G1 F2100 X84.429 Y21.538 E26.88025
G1 X84.774 Y20.924 E26.89782
G1 X85.185 Y20.353 E26.91537
G1 X85.659 Y19.832 E26.93294
G1 X86.189 Y19.368 E26.95051
G1 X86.768 Y18.968 E26.96807
G1 X87.389 Y18.636 E26.98564
G1 X88.043 Y18.376 E27.00319
G1 X88.723 Y18.192 E27.02076
G1 X89.419 Y18.086 E27.03833
G1 X90 Y18.059 E27.05283
G1 X145 Y18.059 E28.42482
G1 X145.703 Y18.099 E28.44238
G1 X146.397 Y18.218 E28.45994
G1 X147.072 Y18.416 E28.47749
G1 X147.721 Y18.688 E28.49505
G1 X148.335 Y19.033 E28.51261
G1 X148.906 Y19.444 E28.53016
G1 X149.427 Y19.918 E28.54773
G1 X149.891 Y20.448 E28.56531
G1 X150.291 Y21.027 E28.58286
G1 X150.623 Y21.648 E28.60043
G1 X150.883 Y22.302 E28.61798
G1 X151.067 Y22.982 E28.63555
G1 X151.173 Y23.678 E28.65312
G1 X151.2 Y24.259 E28.66763
G1 X151.2 Y81.259 E30.0895
G1 X151.16 Y81.962 E30.10706
G1 X151.041 Y82.656 E30.12463
G1 X150.843 Y83.331 E30.14217
G1 X150.571 Y83.98 E30.15973
G1 X150.226 Y84.594 E30.1773
G1 X149.815 Y85.165 E30.19485
G1 X149.341 Y85.686 E30.21242
G1 X148.811 Y86.15 E30.22999
G1 X148.232 Y86.55 E30.24754
G1 X147.611 Y86.882 E30.26511
G1 X146.957 Y87.142 E30.28266
G1 X146.277 Y87.326 E30.30024
G1 X145.581 Y87.432 E30.3178
G1 X145 Y87.459 E30.33231
G1 X90 Y87.459 E31.70429
G1 X89.297 Y87.419 E31.72185
G1 X88.603 Y87.3 E31.73942
G1 X87.928 Y87.102 E31.75696
G1 X87.279 Y86.83 E31.77452
G1 X86.665 Y86.485 E31.79209
G1 X86.094 Y86.074 E31.80964
G1 X85.573 Y85.6 E31.82721
G1 X85.109 Y85.07 E31.84478
G1 X84.709 Y84.491 E31.86233
G1 X84.377 Y83.87 E31.8799
G1 X84.117 Y83.216 E31.89745
G1 X83.933 Y82.536 E31.91503
G1 X83.827 Y81.84 E31.93259
G1 X83.8 Y81.259 E31.9471
G1 X83.8 Y24.259 E33.36897
G1 X83.84 Y23.556 E33.38653
G1 X83.959 Y22.862 E33.4041
G1 X84.157 Y22.187 E33.42165
G0 F4800 X84.556 Y22.257
G1 F2100 X84.828 Y21.633 E33.43863
G1 X85.172 Y21.045 E33.45562
G1 X85.582 Y20.501 E33.47261
G1 X86.053 Y20.01 E33.48958
G1 X86.578 Y19.576 E33.50658
G1 X87.15 Y19.207 E33.52356
G1 X87.762 Y18.908 E33.54055
G1 X88.404 Y18.683 E33.55752
G1 X89.069 Y18.534 E33.57452
G1 X90 Y18.459 E33.59782
G1 X145 Y18.459 E34.9698
G1 X145.68 Y18.499 E34.98679
G1 X146.35 Y18.618 E35.00376
G1 X147.002 Y18.815 E35.02075
G1 X147.626 Y19.087 E35.03773
G1 X148.214 Y19.431 E35.05473
G1 X148.758 Y19.841 E35.07172
G1 X149.249 Y20.312 E35.08869
G1 X149.683 Y20.837 E35.10568
G1 X150.052 Y21.409 E35.12266
G1 X150.351 Y22.021 E35.13965
G1 X150.576 Y22.663 E35.15662
G1 X150.725 Y23.328 E35.17362
G1 X150.8 Y24.259 E35.19692
G1 X150.8 Y81.259 E36.61879
G1 X150.76 Y81.939 E36.63579
G1 X150.641 Y82.609 E36.65276
G1 X150.444 Y83.261 E36.66975
G1 X150.172 Y83.885 E36.68673
G1 X149.828 Y84.473 E36.70372
G1 X149.418 Y85.017 E36.72072
G1 X148.947 Y85.508 E36.73769
G1 X148.422 Y85.942 E36.75468
G1 X147.85 Y86.311 E36.77166
G1 X147.238 Y86.61 E36.78865
G1 X146.596 Y86.835 E36.80562
G1 X145.931 Y86.984 E36.82262
G1 X145 Y87.059 E36.84592
G1 X90 Y87.059 E38.2179
G1 X89.32 Y87.019 E38.23489
G1 X88.65 Y86.9 E38.25187
G1 X87.998 Y86.703 E38.26886
G1 X87.374 Y86.431 E38.28584
G1 X86.786 Y86.087 E38.30283
G1 X86.242 Y85.677 E38.31983
G1 X85.751 Y85.206 E38.3368
G1 X85.317 Y84.681 E38.35379
G1 X84.948 Y84.109 E38.37077
G1 X84.649 Y83.497 E38.38776
G1 X84.424 Y82.855 E38.40473
G1 X84.275 Y82.19 E38.42173
G1 X84.2 Y81.259 E38.44503
G1 X84.2 Y24.259 E39.8669
G1 X84.24 Y23.579 E39.88389
G1 X84.359 Y22.909 E39.90087
G1 X84.556 Y22.257 E39.91786
G0 F4800 X84.759 Y22.957
G1 F2100 X84.956 Y22.33 E39.93425
G1 X85.228 Y21.732 E39.95064
G1 X85.57 Y21.171 E39.96703
G1 X85.978 Y20.656 E39.98342
G1 X86.445 Y20.194 E39.9998
G1 X86.965 Y19.793 E40.01619
G1 X87.529 Y19.457 E40.03256
G1 X88.131 Y19.193 E40.04896
G1 X88.76 Y19.003 E40.06535
G1 X89.407 Y18.892 E40.08173
G1 X90 Y18.859 E40.09654
G1 X145 Y18.859 E41.46852
G1 X145.656 Y18.899 E41.48492
G1 X146.302 Y19.018 E41.5013
G1 X146.929 Y19.215 E41.5177
G1 X147.527 Y19.487 E41.53408
G1 X148.088 Y19.829 E41.55047
G1 X148.603 Y20.237 E41.56686
G1 X149.065 Y20.704 E41.58325
G1 X149.466 Y21.224 E41.59963
G1 X149.802 Y21.788 E41.61601
G1 X150.066 Y22.39 E41.6324
G1 X150.256 Y23.019 E41.64879
G1 X150.367 Y23.666 E41.66517
G1 X150.4 Y24.259 E41.67999
G1 X150.4 Y81.259 E43.10186
G1 X150.36 Y81.915 E43.11825
G1 X150.241 Y82.561 E43.13464
G1 X150.044 Y83.188 E43.15103
G1 X149.772 Y83.786 E43.16742
G1 X149.43 Y84.347 E43.18381
G1 X149.022 Y84.862 E43.2002
G1 X148.555 Y85.324 E43.21658
G1 X148.035 Y85.725 E43.23296
G1 X147.471 Y86.061 E43.24934
G1 X146.869 Y86.325 E43.26574
G1 X146.24 Y86.515 E43.28213
G1 X145.593 Y86.626 E43.2985
G1 X145 Y86.659 E43.31332
G1 X90 Y86.659 E44.6853
G1 X89.344 Y86.619 E44.70169
G1 X88.698 Y86.5 E44.71808
G1 X88.071 Y86.303 E44.73447
G1 X87.473 Y86.031 E44.75086
G1 X86.912 Y85.689 E44.76725
G1 X86.397 Y85.281 E44.78364
G1 X85.935 Y84.814 E44.80003
G1 X85.534 Y84.294 E44.81641
G1 X85.198 Y83.73 E44.83279
G1 X84.934 Y83.128 E44.84918
G1 X84.744 Y82.499 E44.86557
G1 X84.633 Y81.852 E44.88195
G1 X84.6 Y81.259 E44.89676
G1 X84.6 Y24.259 E46.31863
G1 X84.64 Y23.603 E46.33503
G1 X84.759 Y22.957 E46.35142
G0 F4800 X85.159 Y23.007
G1 F2100 X85.356 Y22.407 E46.36717
G1 X85.627 Y21.835 E46.38296
G1 X85.967 Y21.303 E46.39871
G1 X86.373 Y20.818 E46.41448
G1 X86.836 Y20.388 E46.43025
G1 X87.35 Y20.019 E46.44603
G1 X87.906 Y19.719 E46.46179
G1 X88.495 Y19.491 E46.47755
G1 X89.109 Y19.339 E46.49332
G1 X90 Y19.259 E46.51564
G1 X145 Y19.259 E47.88762
G1 X145.631 Y19.299 E47.90339
G1 X146.252 Y19.418 E47.91916
G1 X146.852 Y19.615 E47.93492
G1 X147.424 Y19.886 E47.95071
G1 X147.956 Y20.226 E47.96646
G1 X148.441 Y20.632 E47.98223
G1 X148.871 Y21.095 E47.998
G1 X149.24 Y21.609 E48.01378
G1 X149.54 Y22.165 E48.02954
G1 X149.768 Y22.754 E48.04529
G1 X149.92 Y23.368 E48.06107
G1 X150 Y24.259 E48.08339
G1 X150 Y81.259 E49.50526
G1 X149.96 Y81.89 E49.52103
G1 X149.841 Y82.511 E49.5368
G1 X149.644 Y83.111 E49.55256
G1 X149.373 Y83.683 E49.56835
G1 X149.033 Y84.215 E49.5841
G1 X148.627 Y84.7 E49.59987
G1 X148.164 Y85.13 E49.61564
G1 X147.65 Y85.499 E49.63142
G1 X147.094 Y85.799 E49.64718
G1 X146.505 Y86.027 E49.66293
G1 X145.891 Y86.179 E49.67871
G1 X145 Y86.259 E49.70103
G1 X90 Y86.259 E51.07301
G1 X89.369 Y86.219 E51.08878
G1 X88.748 Y86.1 E51.10455
G1 X88.148 Y85.903 E51.12031
G1 X87.576 Y85.632 E51.1361
G1 X87.044 Y85.292 E51.15185
G1 X86.559 Y84.886 E51.16762
G1 X86.129 Y84.423 E51.18339
G1 X85.76 Y83.909 E51.19917
G1 X85.46 Y83.353 E51.21493
G1 X85.232 Y82.764 E51.23068
G1 X85.08 Y82.15 E51.24646
G1 X85 Y81.259 E51.26878
G1 X85 Y24.259 E52.69065
G1 X85.04 Y23.628 E52.70642
G1 X85.159 Y23.007 E52.72219
G0 F4800 X85.559 Y23.06
G1 F2100 X85.755 Y22.486 E52.73732
G1 X86.026 Y21.943 E52.75246
G1 X86.365 Y21.44 E52.76759
G1 X86.767 Y20.987 E52.7827
G1 X87.225 Y20.59 E52.79782
G1 X87.732 Y20.257 E52.81295
G1 X88.278 Y19.993 E52.82808
G1 X88.854 Y19.804 E52.8432
G1 X89.45 Y19.692 E52.85833
G1 X90 Y19.659 E52.87207
G1 X145 Y19.659 E54.24406
G1 X145.605 Y19.699 E54.25918
G1 X146.199 Y19.818 E54.27429
G1 X146.773 Y20.014 E54.28942
G1 X147.316 Y20.285 E54.30456
G1 X147.819 Y20.624 E54.31969
G1 X148.272 Y21.026 E54.3348
G1 X148.669 Y21.484 E54.34992
G1 X149.002 Y21.991 E54.36505
G1 X149.266 Y22.537 E54.38018
G1 X149.455 Y23.113 E54.3953
G1 X149.567 Y23.709 E54.41043
G1 X149.6 Y24.259 E54.42417
G1 X149.6 Y81.259 E55.84604
G1 X149.56 Y81.864 E55.86117
G1 X149.441 Y82.458 E55.87628
G1 X149.245 Y83.032 E55.89141
G1 X148.974 Y83.575 E55.90655
G1 X148.635 Y84.078 E55.92168
G1 X148.233 Y84.531 E55.93679
G1 X147.775 Y84.928 E55.95191
G1 X147.268 Y85.261 E55.96704
G1 X146.722 Y85.525 E55.98217
G1 X146.146 Y85.714 E55.99729
G1 X145.55 Y85.826 E56.01242
G1 X145 Y85.859 E56.02616
G1 X90 Y85.859 E57.39814
G1 X89.395 Y85.819 E57.41327
G1 X88.801 Y85.7 E57.42838
