;FLAVOR:Marlin
;TIME:1664
;Filament used: 2.4557m
;Layer height: 0.3
;MINX:41.512
;MINY:19.802
;MINZ:0.2
;MAXX:169.082
;MAXY:220.672
;MAXZ:2.5
;Generated with Cura_SteamEngine master
M140 S30
M105
M190 S30
M104 S218
M105
M109 S218
M82 ;absolute extrusion mode
; Ender 3 Custom Start G-code
G92 E0 ; Reset Extruder
G28 ; Home all axes
G1 Z2.0 F3000 ; Move Z Axis up little to prevent scratching of Heat Bed
G1 X0.1 Y20 Z0.3 F5000.0 ; Move to start position
G1 X0.1 Y200.0 Z0.3 F1500.0 E15 ; Draw the first line
G1 X0.4 Y200.0 Z0.3 F5000.0 ; Move to side a little
G1 X0.4 Y20 Z0.3 F1500.0 E30 ; Draw the second line
G92 E0 ; Reset Extruder
G1 Z2.0 F3000 ; Move Z Axis up little to prevent scratching of Heat Bed
G1 X5 Y20 Z0.3 F5000.0 ; Move over to prevent blob squish
G92 E0
G92 E0
G1 F2700 E-5
;LAYER_COUNT:8
;LAYER:0
M107
G1 F300 Z0.4
G0 F4800 X85.225 Y97.113 Z0.4
;TYPE:SKIRT
G1 F300 Z0.2
G1 F2700 E0
G1 F2100 X85.623 Y98.813 E0.05807
G1 X86.249 Y101.055 E0.13549
G1 X86.965 Y103.262 E0.21266
G1 X87.768 Y105.419 E0.28922
G1 X88.658 Y107.534 E0.36554
G1 X89.654 Y109.652 E0.44338
G1 X90.714 Y111.68 E0.51949
G1 X91.875 Y113.69 E0.59669
G1 X93.121 Y115.654 E0.67405
G1 X94.434 Y117.542 E0.75054
G1 X95.829 Y119.382 E0.82734
G1 X97.306 Y121.166 E0.90437
G1 X98.858 Y122.89 E0.98153
G1 X100.474 Y124.54 E1.05834
G1 X102.151 Y126.116 E1.13488
G1 X103.909 Y127.634 E1.21214
G1 X105.706 Y129.057 E1.28838
G1 X107.6 Y130.433 E1.36624
G1 X109.506 Y131.7 E1.44236
G1 X111.488 Y132.899 E1.51941
G1 X113.529 Y134.022 E1.59689
G1 X115.591 Y135.046 E1.67346
G1 X117.699 Y135.983 E1.75019
G1 X119.857 Y136.839 E1.8274
G1 X122.021 Y137.592 E1.90361
G1 X124.255 Y138.267 E1.98123
G1 X126.49 Y138.84 E2.05797
G1 X128.746 Y139.32 E2.13469
G1 X131.033 Y139.706 E2.21183
G1 X133.329 Y139.997 E2.28881
G1 X135.624 Y140.189 E2.36541
G1 X137.936 Y140.286 E2.44237
G1 X139.204 Y140.3 E2.48455
G1 X139.583 Y140.325 E2.49718
G1 X139.761 Y140.346 E2.50314
G1 X156.65 Y142.855 E3.07104
G1 X156.9 Y142.903 E3.0795
G1 X157.124 Y142.956 E3.08716
G1 X157.492 Y143.068 E3.09995
G1 X157.704 Y143.148 E3.10749
G1 X158.04 Y143.299 E3.11974
G1 X158.149 Y143.356 E3.12383
G1 X157.756 Y141.678 E3.18115
G1 X157.123 Y139.41 E3.25947
G1 X156.407 Y137.206 E3.33655
G1 X155.61 Y135.065 E3.41253
G1 X154.712 Y132.931 E3.48954
G1 X153.725 Y130.833 E3.56665
G1 X152.649 Y128.774 E3.64392
G1 X151.496 Y126.776 E3.72065
G1 X150.262 Y124.83 E3.79729
G1 X148.939 Y122.93 E3.87429
G1 X147.546 Y121.093 E3.95097
G1 X146.069 Y119.308 E4.02803
G1 X144.514 Y117.581 E4.10532
G1 X142.914 Y115.947 E4.18139
G1 X141.21 Y114.347 E4.25913
G1 X139.466 Y112.841 E4.33577
G1 X137.655 Y111.407 E4.4126
G1 X135.787 Y110.05 E4.48939
G1 X133.86 Y108.769 E4.56636
G1 X131.884 Y107.572 E4.6432
G1 X129.857 Y106.458 E4.72012
G1 X127.793 Y105.434 E4.79676
G1 X125.659 Y104.484 E4.87445
G1 X123.533 Y103.642 E4.95051
G1 X121.34 Y102.878 E5.02774
G1 X119.132 Y102.212 E5.10445
G1 X116.875 Y101.632 E5.18196
G1 X114.638 Y101.157 E5.25802
G1 X112.337 Y100.767 E5.33564
G1 X110.068 Y100.48 E5.41171
G1 X107.73 Y100.285 E5.48974
G1 X105.437 Y100.188 E5.56608
G1 X104.171 Y100.174 E5.60819
G1 X103.792 Y100.149 E5.62082
G1 X103.614 Y100.128 E5.62678
G1 X86.722 Y97.619 E6.19478
G1 X86.414 Y97.557 E6.20522
G1 X86.123 Y97.482 E6.21522
G1 X85.706 Y97.341 E6.22986
G1 X85.495 Y97.252 E6.23748
G1 X85.225 Y97.113 E6.24758
G0 F4800 X85.299 Y96.703
G1 F2100 X85.047 Y96.548 E6.25742
G1 X84.755 Y96.339 E6.26936
G1 X84.627 Y96.233 E6.27489
G1 X84.707 Y96.652 E6.28908
G1 X85.236 Y98.915 E6.36637
G1 X85.863 Y101.16 E6.4439
G1 X86.587 Y103.392 E6.52194
G1 X87.397 Y105.565 E6.59908
G1 X88.299 Y107.71 E6.67647
G1 X89.3 Y109.838 E6.75469
G1 X90.365 Y111.877 E6.8312
G1 X91.533 Y113.899 E6.90886
G1 X92.783 Y115.87 E6.98649
G1 X94.106 Y117.772 E7.06355
G1 X95.519 Y119.635 E7.14132
G1 X97.006 Y121.431 E7.21887
G1 X98.559 Y123.155 E7.29605
G1 X100.185 Y124.816 E7.37336
G1 X101.9 Y126.428 E7.45164
G1 X103.644 Y127.933 E7.52826
G1 X105.493 Y129.398 E7.60672
G1 X107.349 Y130.746 E7.68302
G1 X109.294 Y132.039 E7.7607
G1 X111.304 Y133.256 E7.83885
G1 X113.328 Y134.369 E7.91568
G1 X115.41 Y135.402 E7.99298
G1 X117.559 Y136.358 E8.07121
G1 X119.706 Y137.209 E8.14802
G1 X121.914 Y137.977 E8.22578
G1 X124.131 Y138.647 E8.30281
G1 X126.409 Y139.231 E8.38102
G1 X128.665 Y139.712 E8.45775
G1 X130.99 Y140.104 E8.53617
G1 X133.266 Y140.392 E8.61247
G1 X135.599 Y140.588 E8.69034
G1 X137.947 Y140.686 E8.7685
G1 X139.2 Y140.7 E8.81018
G1 X139.548 Y140.723 E8.82178
G1 X139.702 Y140.741 E8.82694
G1 X156.591 Y143.25 E9.39483
G1 X157.032 Y143.345 E9.40984
G1 X157.351 Y143.442 E9.42093
G1 X157.563 Y143.522 E9.42846
G1 X157.854 Y143.653 E9.43908
G1 X158.052 Y143.757 E9.44651
G1 X158.33 Y143.926 E9.45734
G1 X158.515 Y144.055 E9.46484
G1 X158.748 Y144.24 E9.47473
G1 X158.668 Y143.823 E9.48885
G1 X158.137 Y141.554 E9.56636
G1 X157.508 Y139.301 E9.64416
G1 X156.788 Y137.083 E9.72172
G1 X155.971 Y134.889 E9.79959
G1 X155.084 Y132.783 E9.8756
G1 X154.075 Y130.637 E9.95447
G1 X153.013 Y128.605 E10.03073
G1 X151.843 Y126.578 E10.10857
G1 X150.584 Y124.593 E10.18675
G1 X149.269 Y122.704 E10.2633
G1 X147.856 Y120.84 E10.3411
G1 X146.359 Y119.031 E10.4192
G1 X144.826 Y117.329 E10.49538
G1 X143.178 Y115.646 E10.57373
G1 X141.487 Y114.057 E10.6509
G1 X139.731 Y112.542 E10.72804
G1 X137.881 Y111.077 E10.80653
G1 X136.016 Y109.721 E10.88322
G1 X134.084 Y108.437 E10.96038
G1 X132.086 Y107.227 E11.03807
G1 X130.039 Y106.102 E11.11576
G1 X127.945 Y105.063 E11.19351
G1 X125.829 Y104.121 E11.27054
G1 X123.664 Y103.264 E11.34799
G1 X121.468 Y102.499 E11.42533
G1 X119.234 Y101.824 E11.50295
G1 X116.978 Y101.245 E11.58042
G1 X114.719 Y100.765 E11.65723
G1 X112.381 Y100.369 E11.7361
G1 X110.105 Y100.081 E11.8124
G1 X107.781 Y99.887 E11.88997
G1 X105.426 Y99.787 E11.96837
G1 X104.175 Y99.774 E12.00998
G1 X103.827 Y99.751 E12.02158
G1 X103.673 Y99.733 E12.02674
G1 X86.781 Y97.224 E12.59473
G1 X86.514 Y97.17 E12.60379
G1 X86.223 Y97.095 E12.61378
G1 X85.862 Y96.973 E12.62646
G1 X85.651 Y96.884 E12.63408
G1 X85.299 Y96.703 E12.64724
G0 F4800 X85.508 Y96.362
G1 F2100 X85.256 Y96.207 E12.65708
G1 X85.009 Y96.03 E12.66719
G1 X84.832 Y95.884 E12.67482
G1 X84.628 Y95.693 E12.68411
G1 X84.475 Y95.53 E12.69155
G1 X84.304 Y95.324 E12.70045
G1 X84.17 Y95.141 E12.708
G1 X84.01 Y94.887 E12.71798
G1 X83.937 Y94.751 E12.72312
G1 X84.317 Y96.745 E12.79063
G1 X84.844 Y98.995 E12.86749
G1 X85.481 Y101.279 E12.94636
G1 X86.211 Y103.528 E13.025
G1 X87.027 Y105.72 E13.10279
G1 X87.935 Y107.876 E13.1806
G1 X88.928 Y109.988 E13.25822
G1 X90.023 Y112.085 E13.33691
G1 X91.19 Y114.104 E13.41447
G1 X92.442 Y116.08 E13.49227
G1 X93.796 Y118.025 E13.5711
G1 X95.197 Y119.873 E13.64823
G1 X96.706 Y121.696 E13.72694
G1 X98.27 Y123.433 E13.80468
G1 X99.908 Y125.105 E13.88253
G1 X101.621 Y126.715 E13.96072
G1 X103.406 Y128.256 E14.03915
G1 X105.226 Y129.697 E14.11636
G1 X107.135 Y131.085 E14.19486
G1 X109.087 Y132.383 E14.27283
G1 X111.085 Y133.591 E14.35049
G1 X113.145 Y134.724 E14.42868
G1 X115.258 Y135.773 E14.50715
G1 X117.389 Y136.721 E14.58472
G1 X119.568 Y137.585 E14.66268
G1 X121.794 Y138.359 E14.74107
G1 X124.035 Y139.036 E14.81893
G1 X126.295 Y139.616 E14.89653
G1 X128.612 Y140.109 E14.97532
G1 X130.895 Y140.495 E15.05233
G1 X133.255 Y140.793 E15.13145
G1 X135.572 Y140.988 E15.20879
G1 X137.925 Y141.086 E15.28712
G1 X139.196 Y141.1 E15.32939
G1 X139.513 Y141.121 E15.33996
G1 X139.643 Y141.137 E15.34432
G1 X156.532 Y143.646 E15.91221
G1 X156.94 Y143.734 E15.92609
G1 X157.21 Y143.817 E15.93549
G1 X157.422 Y143.897 E15.94302
G1 X157.668 Y144.007 E15.95199
G1 X157.866 Y144.111 E15.95943
G1 X158.101 Y144.254 E15.96857
G1 X158.286 Y144.383 E15.97608
G1 X158.503 Y144.556 E15.98531
G1 X158.67 Y144.707 E15.9928
G1 X158.858 Y144.899 E16.00173
G1 X159.007 Y145.071 E16.0093
G1 X159.178 Y145.295 E16.01867
G1 X159.302 Y145.482 E16.02614
G1 X159.438 Y145.718 E16.0352
G1 X159.058 Y143.731 E16.10248
G1 X158.529 Y141.469 E16.17975
G1 X157.892 Y139.187 E16.25855
G1 X157.169 Y136.961 E16.33639
G1 X156.348 Y134.756 E16.41465
G1 X155.439 Y132.597 E16.49256
G1 X154.443 Y130.479 E16.57041
G1 X153.351 Y128.389 E16.64884
G1 X152.185 Y126.369 E16.72641
G1 X150.932 Y124.393 E16.80424
G1 X149.579 Y122.45 E16.88298
G1 X148.178 Y120.602 E16.96012
G1 X146.669 Y118.779 E17.03883
G1 X145.104 Y117.04 E17.11664
G1 X143.468 Y115.37 E17.1944
G1 X141.751 Y113.757 E17.27275
G1 X139.969 Y112.219 E17.35104
G1 X138.148 Y110.777 E17.4283
G1 X136.24 Y109.39 E17.50675
G1 X134.296 Y108.098 E17.58439
G1 X132.279 Y106.877 E17.66281
G1 X130.23 Y105.751 E17.74057
G1 X128.125 Y104.706 E17.81874
G1 X125.969 Y103.746 E17.89723
G1 X123.823 Y102.896 E17.974
G1 X121.574 Y102.113 E18.05321
G1 X119.346 Y101.44 E18.13062
G1 X117.069 Y100.856 E18.20881
G1 X114.772 Y100.368 E18.28691
G1 X112.475 Y99.979 E18.3644
G1 X110.119 Y99.681 E18.44338
G1 X107.806 Y99.487 E18.52058
G1 X105.448 Y99.388 E18.59908
G1 X104.179 Y99.374 E18.64129
G1 X103.862 Y99.353 E18.65185
G1 X103.732 Y99.337 E18.65621
G1 X86.84 Y96.828 E19.2242
G1 X86.614 Y96.782 E19.23188
G1 X86.323 Y96.707 E19.24187
G1 X86.017 Y96.604 E19.25261
G1 X85.806 Y96.515 E19.26023
G1 X85.508 Y96.362 E19.27137
G0 F4800 X85.718 Y96.021
G1 F2100 X85.466 Y95.866 E19.28121
G1 X85.087 Y95.576 E19.29708
G1 X84.767 Y95.256 E19.31213
G1 X84.493 Y94.904 E19.32697
G1 X84.254 Y94.499 E19.34261
G1 X84.15 Y94.269 E19.351
G1 X84.045 Y93.986 E19.36104
G1 X83.972 Y93.733 E19.3698
G1 X83.892 Y93.29 E19.38478
G1 X83.869 Y92.834 E19.39996
G1 X83.879 Y92.609 E19.40745
G1 X83.908 Y92.356 E19.41592
G1 X83.963 Y92.064 E19.4258
G1 X84.032 Y91.804 E19.43475
G1 X84.195 Y91.38 E19.44986
G1 X84.401 Y90.994 E19.46441
G1 X84.524 Y90.806 E19.47188
G1 X84.675 Y90.606 E19.48022
G1 X84.981 Y90.276 E19.49519
G1 X85.333 Y89.98 E19.51048
G1 X85.707 Y89.74 E19.52527
G1 X86.109 Y89.546 E19.54011
G1 X86.324 Y89.466 E19.54774
G1 X86.583 Y89.391 E19.55671
G1 X86.874 Y89.33 E19.5666
G1 X87.166 Y89.294 E19.57638
G1 X87.47 Y89.281 E19.5865
G1 X87.721 Y89.287 E19.59486
G1 X87.996 Y89.317 E19.60406
G1 X104.637 Y91.789 E20.16361
G1 X105.577 Y91.789 E20.19488
G1 X108.238 Y91.9 E20.28346
G1 X108.312 Y91.904 E20.28592
G1 X110.892 Y92.12 E20.37203
G1 X110.968 Y92.128 E20.37458
G1 X113.537 Y92.453 E20.4607
G1 X113.611 Y92.464 E20.46319
G1 X116.163 Y92.895 E20.54927
G1 X116.237 Y92.909 E20.55178
G1 X118.77 Y93.447 E20.6379
G1 X121.35 Y94.109 E20.7265
G1 X121.422 Y94.129 E20.72898
G1 X123.971 Y94.9 E20.81755
G1 X126.487 Y95.778 E20.90619
G1 X128.894 Y96.731 E20.99229
G1 X128.963 Y96.76 E20.99478
G1 X131.328 Y97.812 E21.08087
G1 X133.714 Y98.996 E21.16946
G1 X133.78 Y99.03 E21.17193
G1 X136.05 Y100.277 E21.25807
G1 X138.33 Y101.658 E21.34673
G1 X138.393 Y101.698 E21.34922
G1 X140.549 Y103.13 E21.4353
G1 X140.611 Y103.173 E21.43781
G1 X142.705 Y104.694 E21.52389
G1 X144.793 Y106.348 E21.61249
G1 X144.851 Y106.395 E21.61497
G1 X146.81 Y108.086 E21.70104
G1 X148.754 Y109.909 E21.78968
G1 X148.809 Y109.962 E21.79222
G1 X150.62 Y111.813 E21.87835
G1 X152.402 Y113.789 E21.96685
G1 X152.452 Y113.847 E21.9694
G1 X154.148 Y115.9 E22.05797
G1 X155.714 Y117.963 E22.14411
G1 X157.234 Y120.149 E22.23267
G1 X157.276 Y120.211 E22.23516
G1 X158.664 Y122.397 E22.32129
G1 X159.996 Y124.702 E22.40983
G1 X160.032 Y124.767 E22.4123
G1 X161.267 Y127.13 E22.50098
G1 X162.369 Y129.471 E22.58704
G1 X162.4 Y129.541 E22.58959
G1 X163.403 Y131.929 E22.67573
G1 X164.332 Y134.423 E22.76425
G1 X164.357 Y134.495 E22.76679
G1 X165.179 Y137.029 E22.85539
G1 X165.875 Y139.523 E22.94151
G1 X166.484 Y142.116 E23.0301
G1 X166.5 Y142.19 E23.03262
G1 X166.998 Y144.805 E23.12116
G1 X167.376 Y147.367 E23.20729
G1 X167.656 Y150.014 E23.29582
G1 X167.824 Y152.675 E23.38451
G1 X167.828 Y152.75 E23.387
G1 X167.883 Y155.338 E23.4731
G1 X167.883 Y155.414 E23.47563
G1 X167.828 Y158.002 E23.56172
G1 X167.662 Y160.659 E23.65027
G1 X167.656 Y160.734 E23.65277
G1 X167.376 Y163.384 E23.7414
G1 X166.998 Y165.944 E23.82747
G1 X166.5 Y168.562 E23.91611
G1 X165.893 Y171.157 E24.00475
G1 X165.875 Y171.23 E24.00725
G1 X165.179 Y173.722 E24.0933
G1 X164.357 Y176.255 E24.18188
G1 X163.43 Y178.753 E24.2705
G1 X163.402 Y178.824 E24.27304
G1 X162.369 Y181.277 E24.36156
G1 X161.267 Y183.62 E24.44768
G1 X160.034 Y185.981 E24.53627
G1 X159.998 Y186.047 E24.53877
G1 X158.703 Y188.29 E24.62491
G1 X157.278 Y190.539 E24.71347
G1 X157.236 Y190.602 E24.71599
G1 X155.714 Y192.789 E24.80461
G1 X154.103 Y194.91 E24.89319
G1 X152.452 Y196.905 E24.97932
G1 X150.672 Y198.884 E25.06785
G1 X150.62 Y198.94 E25.07039
G1 X148.808 Y200.79 E25.15652
G1 X148.755 Y200.842 E25.15899
G1 X146.869 Y202.614 E25.24507
G1 X144.85 Y204.356 E25.33376
G1 X142.765 Y206.011 E25.4223
G1 X142.705 Y206.057 E25.42481
G1 X140.611 Y207.579 E25.51091
G1 X140.549 Y207.622 E25.51342
G1 X138.33 Y209.095 E25.60201
G1 X136.115 Y210.436 E25.68813
G1 X133.782 Y211.72 E25.7767
G1 X133.715 Y211.755 E25.77921
G1 X131.328 Y212.939 E25.86783
G1 X128.964 Y213.991 E25.9539
G1 X126.487 Y214.973 E26.04252
G1 X126.416 Y215 E26.04505
G1 X123.972 Y215.851 E26.13112
G1 X121.422 Y216.622 E26.21973
G1 X121.349 Y216.643 E26.22225
G1 X118.771 Y217.303 E26.31076
G1 X116.238 Y217.842 E26.3969
G1 X113.61 Y218.288 E26.48555
G1 X113.535 Y218.299 E26.48807
G1 X110.894 Y218.631 E26.57661
G1 X110.304 Y218.682 E26.5963
G1 X110.129 Y218.803 E26.60338
G1 X109.883 Y218.953 E26.61296
G1 X109.666 Y219.066 E26.6211
G1 X109.4 Y219.182 E26.63075
G1 X109.198 Y219.256 E26.63791
G1 X108.922 Y219.339 E26.64749
G1 X108.703 Y219.39 E26.65497
G1 X108.418 Y219.438 E26.66458
G1 X108.194 Y219.461 E26.67207
G1 X107.906 Y219.473 E26.68166
G1 X107.682 Y219.469 E26.68911
G1 X107.394 Y219.445 E26.69872
G1 X107.164 Y219.411 E26.70646
G1 X106.881 Y219.35 E26.71609
G1 X106.666 Y219.289 E26.72352
G1 X106.394 Y219.194 E26.7331
G1 X106.183 Y219.105 E26.74072
G1 X105.925 Y218.976 E26.75031
G1 X105.734 Y218.866 E26.75764
G1 X105.493 Y218.706 E26.76726
G1 X105.308 Y218.564 E26.77502
G1 X105.093 Y218.377 E26.7845
G1 X104.914 Y218.199 E26.79289
G1 X104.665 Y217.912 E26.80553
G1 X104.507 Y217.699 E26.81435
G1 X104.349 Y217.451 E26.82413
G1 X104.238 Y217.249 E26.8318
G1 X104.115 Y216.987 E26.84143
G1 X104.031 Y216.776 E26.84898
G1 X103.942 Y216.501 E26.85859
G1 X103.887 Y216.284 E26.86604
G1 X103.833 Y216.001 E26.87562
G1 X103.803 Y215.745 E26.88419
G1 X103.786 Y215.366 E26.89681
G1 X103.794 Y215.096 E26.9058
G1 X103.825 Y214.803 E26.9156
G1 X103.863 Y214.579 E26.92315
G1 X103.929 Y214.299 E26.93272
G1 X103.992 Y214.091 E26.93995
G1 X104.092 Y213.819 E26.94959
G1 X104.188 Y213.603 E26.95745
G1 X104.322 Y213.348 E26.96703
G1 X104.435 Y213.161 E26.9743
G1 X104.599 Y212.924 E26.98388
G1 X104.741 Y212.744 E26.99151
G1 X104.938 Y212.525 E27.00131
G1 X105.107 Y212.36 E27.00916
G1 X105.326 Y212.173 E27.01874
G1 X105.499 Y212.042 E27.02596
G1 X105.74 Y211.882 E27.03558
G1 X105.936 Y211.769 E27.0431
G1 X106.19 Y211.643 E27.05253
G1 X106.397 Y211.556 E27.06
G1 X106.675 Y211.459 E27.0698
G1 X106.902 Y211.397 E27.07762
G1 X107.186 Y211.338 E27.08727
G1 X107.401 Y211.306 E27.0945
G1 X107.687 Y211.282 E27.10405
G1 X107.913 Y211.278 E27.11156
G1 X108.202 Y211.29 E27.12118
G1 X108.431 Y211.314 E27.12884
G1 X108.717 Y211.363 E27.13849
G1 X108.939 Y211.416 E27.14608
G1 X109.214 Y211.5 E27.15565
G1 X109.318 Y211.538 E27.15933
G1 X110.18 Y211.466 E27.1881
G1 X112.524 Y211.169 E27.26669
G1 X114.848 Y210.777 E27.34507
G1 X117.177 Y210.282 E27.42427
G1 X119.455 Y209.697 E27.50249
G1 X121.715 Y209.016 E27.581
G1 X123.934 Y208.24 E27.65919
G1 X126.13 Y207.371 E27.73774
G1 X128.306 Y206.403 E27.81695
G1 X130.42 Y205.353 E27.89546
G1 X132.472 Y204.224 E27.97335
G1 X134.504 Y202.994 E28.05236
G1 X136.485 Y201.678 E28.13146
G1 X138.374 Y200.305 E28.20913
G1 X140.236 Y198.831 E28.28812
G1 X142.026 Y197.284 E28.3668
G1 X143.745 Y195.671 E28.44521
G1 X145.394 Y193.986 E28.52362
G1 X146.978 Y192.227 E28.60235
G1 X148.48 Y190.412 E28.68071
G1 X149.914 Y188.522 E28.75962
G1 X151.25 Y186.599 E28.8375
G1 X152.529 Y184.586 E28.91682
G1 X153.709 Y182.541 E28.99535
G1 X154.793 Y180.466 E29.07321
