;FLAVOR:Marlin
;TIME:3206
;Filament used: 4.469m
;Layer height: 0.3
;MINX:98.121
;MINY:96.71
;MINZ:0.2
;MAXX:136.88
;MAXY:138.285
;MAXZ:30.1
;Generated with Cura_SteamEngine master
M140 S35
M105
M190 S35
M104 S218
M105
M109 S218
M82 ;absolute extrusion mode
; Ender 3 Custom Start G-code
G92 E0 ; Reset Extruder
G28 ; Home all axes
G1 Z2.0 F3000 ; Move Z Axis up little to prevent scratching of Heat Bed
G1 X0.1 Y20 Z0.3 F5000.0 ; Move to start position
G1 X0.1 Y200.0 Z0.3 F1500.0 E15 ; Draw the first line
G1 X0.4 Y200.0 Z0.3 F5000.0 ; Move to side a little
G1 X0.4 Y20 Z0.3 F1500.0 E30 ; Draw the second line
G92 E0 ; Reset Extruder
G1 Z2.0 F3000 ; Move Z Axis up little to prevent scratching of Heat Bed
G1 X5 Y20 Z0.3 F5000.0 ; Move over to prevent blob squish
G92 E0
G92 E0
G1 F2700 E-5
;LAYER_COUNT:100
;LAYER:0
M107
G1 F300 Z0.4
G0 F4800 X100.938 Y99.167 Z0.4
;TYPE:SKIRT
G1 F300 Z0.2
G1 F2700 E0
G1 F2100 X101.31 Y98.849 E0.01628
G1 X101.564 Y98.685 E0.02633
G1 X104.291 Y97.11 E0.13107
G1 X104.733 Y96.901 E0.14734
G1 X105.204 Y96.766 E0.16363
G1 X105.69 Y96.71 E0.1799
G1 X106.179 Y96.733 E0.19619
G1 X106.657 Y96.836 E0.21245
G1 X107.113 Y97.015 E0.22874
G1 X107.533 Y97.266 E0.24502
G1 X107.907 Y97.582 E0.2613
G1 X108.225 Y97.954 E0.27758
G1 X108.389 Y98.208 E0.28763
G1 X110.477 Y101.823 E0.42649
G1 X110.622 Y101.789 E0.43144
G1 X111.159 Y101.674 E0.4497
G1 X111.291 Y101.648 E0.45418
G1 X111.834 Y101.557 E0.47249
G1 X111.954 Y101.54 E0.47652
G1 X112.5 Y101.471 E0.49483
G1 X112.625 Y101.458 E0.49901
G1 X113.172 Y101.412 E0.51726
G1 X113.298 Y101.404 E0.52146
G1 X113.848 Y101.381 E0.53977
G1 X113.973 Y101.378 E0.54393
G1 X114.522 Y101.378 E0.56219
G1 X114.648 Y101.381 E0.56638
G1 X115.196 Y101.404 E0.58463
G1 X115.32 Y101.411 E0.58876
G1 X115.869 Y101.457 E0.60708
G1 X115.996 Y101.471 E0.61133
G1 X116.54 Y101.54 E0.62957
G1 X116.659 Y101.557 E0.63357
G1 X117.202 Y101.648 E0.65188
G1 X117.332 Y101.673 E0.65628
G1 X117.871 Y101.788 E0.67461
G1 X117.988 Y101.815 E0.67861
G1 X118.52 Y101.951 E0.69687
G1 X118.648 Y101.987 E0.70129
G1 X119.172 Y102.146 E0.7195
G1 X119.287 Y102.184 E0.72353
G1 X119.807 Y102.365 E0.74185
G1 X119.929 Y102.41 E0.74617
G1 X120.44 Y102.613 E0.76446
G1 X120.554 Y102.661 E0.76857
G1 X121.056 Y102.885 E0.78686
G1 X121.171 Y102.94 E0.7911
G1 X121.663 Y103.185 E0.80938
G1 X121.767 Y103.239 E0.81327
G1 X122.249 Y103.503 E0.83155
G1 X122.365 Y103.57 E0.83601
G1 X122.836 Y103.856 E0.85434
G1 X122.934 Y103.918 E0.85819
G1 X123.392 Y104.221 E0.87646
G1 X123.505 Y104.3 E0.88104
G1 X123.949 Y104.624 E0.89933
G1 X124.042 Y104.694 E0.9032
G1 X124.473 Y105.035 E0.92148
G1 X124.575 Y105.119 E0.92587
G1 X124.99 Y105.478 E0.94412
G1 X125.079 Y105.559 E0.94812
G1 X125.48 Y105.935 E0.96641
G1 X125.571 Y106.024 E0.97064
G1 X125.956 Y106.417 E0.98894
G1 X126.041 Y106.507 E0.99306
G1 X126.409 Y106.915 E1.01133
G1 X126.493 Y107.012 E1.0156
G1 X126.842 Y107.434 E1.03381
G1 X126.92 Y107.533 E1.03801
G1 X127.253 Y107.972 E1.05633
G1 X127.329 Y108.077 E1.06064
G1 X127.642 Y108.529 E1.07893
G1 X127.705 Y108.624 E1.08272
G1 X128.001 Y109.088 E1.10103
G1 X128.071 Y109.203 E1.1055
G1 X128.346 Y109.68 E1.12382
G1 X128.406 Y109.788 E1.12793
G1 X128.66 Y110.274 E1.14616
G1 X128.715 Y110.386 E1.15031
G1 X128.949 Y110.883 E1.16859
G1 X129.001 Y110.999 E1.17281
G1 X129.214 Y111.506 E1.1911
G1 X129.259 Y111.62 E1.19518
G1 X129.451 Y112.135 E1.21346
G1 X129.493 Y112.256 E1.21772
G1 X129.663 Y112.779 E1.23601
G1 X129.706 Y112.925 E1.24107
G1 X133.88 Y112.925 E1.3799
G1 X134.368 Y112.965 E1.39619
G1 X134.843 Y113.084 E1.41247
G1 X135.292 Y113.278 E1.42874
G1 X135.704 Y113.543 E1.44504
G1 X136.067 Y113.871 E1.46131
G1 X136.372 Y114.254 E1.47759
G1 X136.61 Y114.682 E1.49388
G1 X136.776 Y115.142 E1.51015
G1 X136.865 Y115.623 E1.52642
G1 X136.88 Y115.925 E1.53647
G1 X136.88 Y119.075 E1.64124
G1 X136.84 Y119.563 E1.65753
G1 X136.721 Y120.038 E1.67381
G1 X136.527 Y120.487 E1.69008
G1 X136.262 Y120.899 E1.70638
G1 X135.934 Y121.262 E1.72265
G1 X135.551 Y121.567 E1.73893
G1 X135.123 Y121.805 E1.75522
G1 X134.663 Y121.971 E1.77149
G1 X134.182 Y122.06 E1.78775
G1 X133.88 Y122.075 E1.79781
G1 X129.706 Y122.075 E1.93664
G1 X129.663 Y122.22 E1.94167
G1 X129.493 Y122.743 E1.95996
G1 X129.453 Y122.859 E1.96404
G1 X129.262 Y123.374 E1.98231
G1 X129.213 Y123.498 E1.98675
G1 X128.999 Y124.005 E2.00505
G1 X128.95 Y124.114 E2.00902
G1 X128.716 Y124.612 E2.02732
G1 X128.661 Y124.723 E2.03145
G1 X128.407 Y125.21 E2.04971
G1 X128.343 Y125.326 E2.05412
G1 X128.068 Y125.801 E2.07238
G1 X128.005 Y125.905 E2.07642
G1 X127.71 Y126.37 E2.09474
G1 X127.639 Y126.477 E2.09901
G1 X127.325 Y126.928 E2.11728
G1 X127.256 Y127.024 E2.12122
G1 X126.924 Y127.463 E2.13952
G1 X126.842 Y127.565 E2.14388
G1 X126.492 Y127.988 E2.16214
G1 X126.411 Y128.083 E2.16629
G1 X126.043 Y128.492 E2.18459
G1 X125.951 Y128.59 E2.18906
G1 X125.565 Y128.982 E2.20736
G1 X125.485 Y129.06 E2.21107
G1 X125.084 Y129.438 E2.2294
G1 X124.983 Y129.529 E2.23392
G1 X124.566 Y129.888 E2.25222
G1 X124.473 Y129.965 E2.25624
G1 X124.043 Y130.306 E2.27449
G1 X123.946 Y130.379 E2.27853
G1 X123.503 Y130.702 E2.29677
G1 X123.396 Y130.777 E2.30111
G1 X122.937 Y131.082 E2.31944
G1 X122.826 Y131.152 E2.32381
G1 X122.254 Y131.495 E2.34599
G1 X121.773 Y131.76 E2.36425
G1 X121.658 Y131.82 E2.36857
G1 X121.164 Y132.065 E2.38691
G1 X121.046 Y132.12 E2.39124
G1 X120.545 Y132.342 E2.40947
G1 X120.438 Y132.387 E2.41333
G1 X119.927 Y132.59 E2.43161
G1 X119.805 Y132.635 E2.43594
G1 X119.285 Y132.816 E2.45425
G1 X119.166 Y132.855 E2.45842
G1 X118.639 Y133.014 E2.47673
G1 X118.515 Y133.049 E2.48101
G1 X117.983 Y133.185 E2.49927
G1 X117.331 Y133.326 E2.52146
G1 X117.199 Y133.352 E2.52594
G1 X116.656 Y133.443 E2.54425
G1 X116.536 Y133.46 E2.54828
G1 X115.99 Y133.529 E2.56658
G1 X115.865 Y133.542 E2.57076
G1 X115.318 Y133.588 E2.58902
G1 X115.192 Y133.596 E2.59322
G1 X114.642 Y133.619 E2.61153
G1 X114.517 Y133.622 E2.61569
G1 X113.968 Y133.622 E2.63395
G1 X113.842 Y133.619 E2.63814
G1 X113.294 Y133.596 E2.65638
G1 X113.17 Y133.589 E2.66051
G1 X112.621 Y133.543 E2.67884
G1 X112.494 Y133.529 E2.68309
G1 X111.95 Y133.46 E2.70133
G1 X111.831 Y133.443 E2.70532
G1 X111.288 Y133.352 E2.72364
G1 X111.158 Y133.327 E2.72804
G1 X110.619 Y133.212 E2.74637
G1 X110.476 Y133.178 E2.75126
G1 X108.389 Y136.792 E2.89006
G1 X108.11 Y137.195 E2.90637
G1 X107.77 Y137.547 E2.92264
G1 X107.377 Y137.838 E2.93891
G1 X106.942 Y138.062 E2.95518
G1 X106.476 Y138.213 E2.97147
G1 X105.992 Y138.285 E2.98775
G1 X105.503 Y138.278 E3.00401
G1 X105.021 Y138.191 E3.02031
G1 X104.56 Y138.028 E3.03657
G1 X104.291 Y137.89 E3.04662
G1 X101.564 Y136.315 E3.15137
G1 X101.161 Y136.036 E3.16767
G1 X100.809 Y135.696 E3.18394
G1 X100.517 Y135.303 E3.20023
G1 X100.293 Y134.868 E3.2165
G1 X100.143 Y134.402 E3.23279
G1 X100.071 Y133.918 E3.24906
G1 X100.078 Y133.428 E3.26536
G1 X100.165 Y132.947 E3.28162
G1 X100.328 Y132.485 E3.29791
G1 X100.466 Y132.217 E3.30794
G1 X102.553 Y128.603 E3.44674
G1 X102.447 Y128.492 E3.45185
G1 X102.078 Y128.082 E3.47019
G1 X101.996 Y127.987 E3.47437
G1 X101.647 Y127.565 E3.49258
G1 X101.569 Y127.466 E3.49677
G1 X101.236 Y127.027 E3.5151
G1 X101.161 Y126.924 E3.51934
G1 X100.848 Y126.473 E3.5376
G1 X100.784 Y126.376 E3.54146
G1 X100.488 Y125.912 E3.55977
G1 X100.417 Y125.796 E3.56429
G1 X100.143 Y125.32 E3.58256
G1 X100.083 Y125.21 E3.58673
G1 X99.829 Y124.723 E3.60499
G1 X99.774 Y124.612 E3.60911
G1 X99.54 Y124.114 E3.62742
G1 X99.489 Y124 E3.63157
G1 X99.276 Y123.493 E3.64986
G1 X99.231 Y123.379 E3.65394
G1 X99.039 Y122.864 E3.67222
G1 X98.999 Y122.748 E3.6763
G1 X98.828 Y122.225 E3.6946
G1 X98.789 Y122.096 E3.69908
G1 X98.642 Y121.567 E3.71734
G1 X98.61 Y121.443 E3.7216
G1 X98.486 Y120.909 E3.73984
G1 X98.462 Y120.796 E3.74368
G1 X98.358 Y120.255 E3.762
G1 X98.337 Y120.13 E3.76622
G1 X98.256 Y119.585 E3.78454
G1 X98.239 Y119.455 E3.7889
G1 X98.182 Y118.909 E3.80716
G1 X98.172 Y118.784 E3.81133
G1 X98.138 Y118.237 E3.82956
G1 X98.133 Y118.116 E3.83359
G1 X98.121 Y117.565 E3.85192
G1 X98.121 Y117.434 E3.85628
G1 X98.133 Y116.885 E3.87454
G1 X98.138 Y116.766 E3.8785
G1 X98.172 Y116.217 E3.8968
G1 X98.182 Y116.091 E3.901
G1 X98.239 Y115.545 E3.91926
G1 X98.256 Y115.415 E3.92362
G1 X98.337 Y114.87 E3.94195
G1 X98.356 Y114.755 E3.94582
G1 X98.458 Y114.214 E3.96413
G1 X98.486 Y114.081 E3.96865
G1 X98.612 Y113.547 E3.9869
G1 X98.643 Y113.428 E3.99099
G1 X98.791 Y112.899 E4.00926
G1 X98.827 Y112.78 E4.0134
G1 X98.997 Y112.257 E4.03169
G1 X99.038 Y112.14 E4.03581
G1 X99.23 Y111.623 E4.05416
G1 X99.278 Y111.501 E4.05852
G1 X99.491 Y110.996 E4.07675
G1 X99.54 Y110.886 E4.08075
G1 X99.774 Y110.388 E4.09905
G1 X99.829 Y110.277 E4.10317
G1 X100.083 Y109.79 E4.12144
G1 X100.147 Y109.674 E4.12585
G1 X100.422 Y109.199 E4.1441
G1 X100.485 Y109.095 E4.14815
G1 X100.78 Y108.63 E4.16646
G1 X100.851 Y108.523 E4.17073
G1 X101.165 Y108.072 E4.18901
G1 X101.234 Y107.976 E4.19294
G1 X101.566 Y107.537 E4.21125
G1 X101.648 Y107.435 E4.2156
G1 X101.998 Y107.012 E4.23386
G1 X102.079 Y106.917 E4.23802
G1 X102.447 Y106.508 E4.25632
G1 X102.552 Y106.396 E4.26142
G1 X100.466 Y102.783 E4.40018
G1 X100.257 Y102.341 E4.41644
G1 X100.122 Y101.87 E4.43274
G1 X100.066 Y101.384 E4.44901
G1 X100.089 Y100.895 E4.46529
G1 X100.192 Y100.416 E4.48159
G1 X100.371 Y99.961 E4.49785
G1 X100.622 Y99.541 E4.51412
G1 X100.938 Y99.167 E4.53041
G0 F4800 X101.083 Y99.599
G1 F2100 X101.408 Y99.279 E4.54558
G1 X101.764 Y99.032 E4.55999
G1 X104.491 Y97.457 E4.66473
G1 X104.904 Y97.264 E4.67989
G1 X105.344 Y97.147 E4.69504
G1 X105.798 Y97.108 E4.71019
G1 X106.252 Y97.149 E4.72535
G1 X106.691 Y97.269 E4.74049
G1 X107.103 Y97.463 E4.75564
G1 X107.475 Y97.727 E4.77081
G1 X107.795 Y98.051 E4.78596
G1 X108.042 Y98.408 E4.80039
G1 X110.282 Y102.286 E4.94935
G1 X110.606 Y102.203 E4.96047
G1 X111.243 Y102.065 E4.98215
G1 X111.357 Y102.043 E4.98601
G1 X111.9 Y101.952 E5.00432
G1 X112.004 Y101.937 E5.00782
G1 X112.658 Y101.856 E5.02974
G1 X113.205 Y101.81 E5.048
G1 X113.314 Y101.803 E5.05163
G1 X113.864 Y101.78 E5.06994
G1 X113.973 Y101.778 E5.07356
G1 X114.522 Y101.778 E5.09182
G1 X114.631 Y101.78 E5.09545
G1 X115.179 Y101.803 E5.11369
G1 X115.287 Y101.81 E5.11729
G1 X115.836 Y101.856 E5.13561
G1 X115.946 Y101.868 E5.1393
G1 X116.49 Y101.937 E5.15753
G1 X116.593 Y101.952 E5.161
G1 X117.136 Y102.043 E5.17931
G1 X117.249 Y102.064 E5.18313
G1 X117.788 Y102.179 E5.20146
G1 X117.889 Y102.203 E5.20491
G1 X118.421 Y102.339 E5.22318
G1 X118.532 Y102.37 E5.22701
G1 X119.156 Y102.561 E5.24872
G1 X119.676 Y102.742 E5.26703
G1 X120.292 Y102.985 E5.28905
G1 X120.391 Y103.027 E5.29263
G1 X120.893 Y103.251 E5.31091
G1 X120.993 Y103.298 E5.31459
G1 X121.485 Y103.543 E5.33287
G1 X121.575 Y103.59 E5.33625
G1 X122.057 Y103.854 E5.35452
G1 X122.157 Y103.912 E5.35837
G1 X122.714 Y104.252 E5.38007
G1 X123.172 Y104.555 E5.39834
G1 X123.27 Y104.623 E5.40231
G1 X123.714 Y104.947 E5.42059
G1 X123.794 Y105.008 E5.42393
G1 X124.225 Y105.349 E5.44221
G1 X124.313 Y105.422 E5.44602
G1 X124.728 Y105.781 E5.46427
G1 X124.805 Y105.85 E5.46771
G1 X125.206 Y106.226 E5.48599
G1 X125.285 Y106.304 E5.48968
G1 X125.67 Y106.697 E5.50798
G1 X125.744 Y106.775 E5.51156
G1 X126.112 Y107.183 E5.52983
G1 X126.185 Y107.267 E5.53353
G1 X126.534 Y107.689 E5.55175
G1 X126.934 Y108.214 E5.5737
G1 X127.001 Y108.305 E5.57746
G1 X127.314 Y108.757 E5.59574
G1 X127.664 Y109.303 E5.61731
G1 X127.724 Y109.402 E5.62116
G1 X127.999 Y109.879 E5.63948
G1 X128.051 Y109.974 E5.64308
G1 X128.305 Y110.46 E5.66132
G1 X128.353 Y110.556 E5.66489
G1 X128.587 Y111.053 E5.68316
G1 X128.632 Y111.154 E5.68684
G1 X128.845 Y111.661 E5.70513
G1 X128.884 Y111.76 E5.70867
G1 X129.113 Y112.379 E5.73062
G1 X129.283 Y112.902 E5.74891
G1 X129.403 Y113.325 E5.76353
G1 X133.88 Y113.325 E5.91244
G1 X134.334 Y113.365 E5.9276
G1 X134.774 Y113.483 E5.94275
G1 X135.186 Y113.677 E5.95789
G1 X135.559 Y113.94 E5.97307
G1 X135.88 Y114.263 E5.98822
G1 X136.139 Y114.638 E6.00338
G1 X136.329 Y115.052 E6.01853
G1 X136.444 Y115.493 E6.03369
G1 X136.48 Y115.925 E6.04811
G1 X136.48 Y119.075 E6.15288
G1 X136.44 Y119.529 E6.16803
G1 X136.322 Y119.969 E6.18319
G1 X136.128 Y120.381 E6.19833
G1 X135.865 Y120.754 E6.21351
G1 X135.542 Y121.075 E6.22866
G1 X135.167 Y121.334 E6.24382
G1 X134.753 Y121.524 E6.25897
G1 X134.312 Y121.639 E6.27412
G1 X133.88 Y121.675 E6.28854
G1 X129.403 Y121.675 E6.43745
G1 X129.314 Y121.994 E6.44846
G1 X129.283 Y122.097 E6.45204
G1 X129.113 Y122.62 E6.47033
G1 X129.078 Y122.72 E6.47386
G1 X128.887 Y123.235 E6.49212
G1 X128.844 Y123.342 E6.49596
G1 X128.63 Y123.849 E6.51426
G1 X128.588 Y123.944 E6.51772
G1 X128.354 Y124.442 E6.53602
G1 X128.306 Y124.538 E6.53959
G1 X128.052 Y125.025 E6.55786
G1 X127.997 Y125.126 E6.56168
G1 X127.722 Y125.601 E6.57994
G1 X127.667 Y125.691 E6.58345
G1 X127.311 Y126.249 E6.60546
G1 X126.997 Y126.7 E6.62374
G1 X126.605 Y127.221 E6.64542
G1 X126.534 Y127.31 E6.64921
G1 X126.114 Y127.815 E6.67106
G1 X125.746 Y128.224 E6.68936
G1 X125.666 Y128.309 E6.69324
G1 X125.28 Y128.701 E6.71154
G1 X124.809 Y129.147 E6.73311
G1 X124.722 Y129.225 E6.737
G1 X124.225 Y129.651 E6.75877
G1 X123.795 Y129.992 E6.77702
G1 X123.711 Y130.056 E6.78053
G1 X123.268 Y130.379 E6.79877
G1 X123.175 Y130.444 E6.80254
G1 X122.716 Y130.749 E6.82087
G1 X122.62 Y130.81 E6.82466
G1 X122.149 Y131.094 E6.84295
G1 X121.58 Y131.409 E6.86458
G1 X121.48 Y131.461 E6.86833
G1 X120.986 Y131.706 E6.88667
G1 X120.884 Y131.754 E6.89042
G1 X120.383 Y131.976 E6.90864
G1 X120.29 Y132.015 E6.912
G1 X119.674 Y132.258 E6.93402
G1 X119.154 Y132.439 E6.95234
G1 X118.523 Y132.631 E6.97427
G1 X118.416 Y132.661 E6.97797
G1 X117.884 Y132.797 E6.99623
G1 X117.247 Y132.935 E7.01791
G1 X117.133 Y132.957 E7.02177
G1 X116.59 Y133.048 E7.04009
G1 X116.486 Y133.063 E7.04358
G1 X115.832 Y133.144 E7.0655
G1 X115.285 Y133.19 E7.08376
G1 X115.176 Y133.197 E7.08739
G1 X114.626 Y133.22 E7.1057
G1 X114.517 Y133.222 E7.10932
G1 X113.968 Y133.222 E7.12758
G1 X113.859 Y133.22 E7.13121
G1 X113.311 Y133.197 E7.14945
G1 X113.203 Y133.19 E7.15305
G1 X112.654 Y133.144 E7.17138
G1 X112.544 Y133.132 E7.17506
G1 X112 Y133.063 E7.19329
G1 X111.897 Y133.048 E7.19676
G1 X111.354 Y132.957 E7.21507
G1 X111.241 Y132.936 E7.21889
G1 X110.702 Y132.821 E7.23722
G1 X110.281 Y132.715 E7.25166
G1 X108.043 Y136.592 E7.40055
G1 X107.781 Y136.965 E7.41571
G1 X107.458 Y137.287 E7.43088
G1 X107.085 Y137.547 E7.44601
G1 X106.671 Y137.739 E7.46118
G1 X106.23 Y137.855 E7.47635
G1 X105.776 Y137.892 E7.4915
G1 X105.323 Y137.849 E7.50664
G1 X104.883 Y137.728 E7.52181
G1 X104.491 Y137.543 E7.53623
G1 X101.764 Y135.968 E7.64097
G1 X101.391 Y135.707 E7.65611
G1 X101.069 Y135.384 E7.67128
G1 X100.808 Y135.01 E7.68645
G1 X100.617 Y134.597 E7.70159
G1 X100.501 Y134.156 E7.71675
G1 X100.464 Y133.702 E7.7319
G1 X100.507 Y133.248 E7.74707
G1 X100.628 Y132.809 E7.76222
G1 X100.812 Y132.417 E7.77662
G1 X103.051 Y128.54 E7.92553
G1 X102.744 Y128.224 E7.94018
G1 X102.375 Y127.814 E7.95853
G1 X102.304 Y127.732 E7.96213
G1 X101.955 Y127.31 E7.98035
G1 X101.555 Y126.785 E8.0023
G1 X101.49 Y126.696 E8.00597
G1 X101.177 Y126.245 E8.02422
G1 X101.121 Y126.161 E8.02758
G1 X100.825 Y125.697 E8.04589
G1 X100.764 Y125.596 E8.04981
G1 X100.49 Y125.12 E8.06808
G1 X100.438 Y125.025 E8.07168
G1 X100.184 Y124.538 E8.08995
G1 X100.136 Y124.442 E8.09352
G1 X99.902 Y123.944 E8.11182
G1 X99.858 Y123.845 E8.11542
G1 X99.645 Y123.338 E8.13372
G1 X99.606 Y123.239 E8.13725
G1 X99.414 Y122.724 E8.15553
G1 X99.379 Y122.624 E8.15906
G1 X99.208 Y122.101 E8.17736
G1 X99.174 Y121.989 E8.18125
G1 X99.027 Y121.46 E8.19951
G1 X98.999 Y121.352 E8.20323
G1 X98.875 Y120.818 E8.22146
G1 X98.751 Y120.18 E8.24308
G1 X98.732 Y120.071 E8.24676
G1 X98.651 Y119.526 E8.26508
G1 X98.637 Y119.414 E8.26884
G1 X98.58 Y118.868 E8.28709
G1 X98.571 Y118.759 E8.29073
G1 X98.537 Y118.212 E8.30896
G1 X98.533 Y118.108 E8.31242
G1 X98.521 Y117.557 E8.33075
G1 X98.521 Y117.443 E8.33454
G1 X98.533 Y116.894 E8.35281
G1 X98.537 Y116.79 E8.35627
G1 X98.571 Y116.241 E8.37457
G1 X98.58 Y116.132 E8.3782
