;FLAVOR:Marlin
;TIME:4237
;Filament used: 5.1375m
;Layer height: 0.3
;MINX:20.468
;MINY:19.529
;MINZ:0.2
;MAXX:178.076
;MAXY:167.278
;MAXZ:2.7
;Generated with Cura_SteamEngine master
M140 S30
M105
M190 S30
M104 S218
M105
M109 S218
M82 ;absolute extrusion mode
; Ender 3 Custom Start G-code
G92 E0 ; Reset Extruder
G28 ; Home all axes
G1 Z2.0 F3000 ; Move Z Axis up little to prevent scratching of Heat Bed
G1 X0.1 Y20 Z0.3 F5000.0 ; Move to start position
G1 X0.1 Y200.0 Z0.3 F1500.0 E15 ; Draw the first line
G1 X0.4 Y200.0 Z0.3 F5000.0 ; Move to side a little
G1 X0.4 Y20 Z0.3 F1500.0 E30 ; Draw the second line
G92 E0 ; Reset Extruder
G1 Z2.0 F3000 ; Move Z Axis up little to prevent scratching of Heat Bed
G1 X5 Y20 Z0.3 F5000.0 ; Move over to prevent blob squish
G92 E0
G92 E0
G1 F2700 E-5
;LAYER_COUNT:8
;LAYER:0
M106 S25.5
G1 F300 Z0.6
G0 F4800 X83.526 Y61.308 Z0.6
;TYPE:SKIRT
G1 F300 Z0.2
G1 F2700 E0
G1 F2100 X82.256 Y63.135 E0.07401
G1 X81.082 Y64.983 E0.14682
G1 X79.981 Y66.891 E0.22009
G1 X78.955 Y68.854 E0.29376
G1 X78.027 Y70.825 E0.36622
G1 X77.173 Y72.858 E0.43956
G1 X76.405 Y74.923 E0.51284
G1 X75.731 Y76.995 E0.58531
G1 X75.132 Y79.143 E0.65948
G1 X74.625 Y81.297 E0.73308
G1 X74.223 Y83.418 E0.80488
G1 X73.902 Y85.594 E0.87804
G1 X73.669 Y87.806 E0.95202
G1 X73.532 Y89.993 E1.0249
G1 X73.485 Y92.185 E1.09782
G1 X73.532 Y94.378 E1.17078
G1 X73.669 Y96.564 E1.24363
G1 X73.902 Y98.776 E1.3176
G1 X74.22 Y100.934 E1.39016
G1 X74.627 Y103.067 E1.46238
G1 X75.138 Y105.251 E1.53698
G1 X75.727 Y107.36 E1.60981
G1 X76.403 Y109.443 E1.68265
G1 X77.173 Y111.516 E1.7562
G1 X78.022 Y113.533 E1.82899
G1 X78.96 Y115.526 E1.90225
G1 X79.979 Y117.477 E1.97546
G1 X81.074 Y119.373 E2.04828
G1 X82.259 Y121.24 E2.12183
G1 X83.506 Y123.032 E2.19444
G1 X84.842 Y124.795 E2.26801
G1 X86.242 Y126.487 E2.34106
G1 X87.711 Y128.12 E2.41411
G1 X89.263 Y129.705 E2.48789
G1 X90.862 Y131.206 E2.56084
G1 X92.515 Y132.632 E2.63345
G1 X94.254 Y134.011 E2.70726
G1 X96.014 Y135.289 E2.77961
G1 X97.859 Y136.514 E2.85327
G1 X99.743 Y137.655 E2.92652
G1 X101.655 Y138.707 E2.99911
G1 X103.615 Y139.681 E3.0719
G1 X105.641 Y140.583 E3.14567
G1 X107.725 Y141.409 E3.22023
G1 X109.751 Y142.112 E3.29155
G1 X111.863 Y142.749 E3.36492
G1 X114.003 Y143.299 E3.43841
G1 X116.161 Y143.759 E3.5118
G1 X118.335 Y144.125 E3.58513
G1 X120.496 Y144.397 E3.65757
G1 X122.688 Y144.582 E3.73073
G1 X124.884 Y144.673 E3.80384
G1 X126.024 Y144.685 E3.84175
G1 X126.507 Y144.705 E3.85783
G1 X126.866 Y144.737 E3.86982
G1 X126.997 Y144.754 E3.87421
G1 X129.025 Y145.055 E3.9424
G1 X126.79 Y143.669 E4.02987
G1 X126.685 Y143.601 E4.03403
G1 X124.451 Y142.083 E4.12387
G1 X124.348 Y142.01 E4.12807
G1 X122.18 Y140.399 E4.2179
G1 X122.081 Y140.323 E4.22205
G1 X119.981 Y138.623 E4.31192
G1 X119.885 Y138.541 E4.31612
G1 X117.858 Y136.754 E4.40599
G1 X117.766 Y136.669 E4.41016
G1 X115.816 Y134.799 E4.50002
G1 X115.727 Y134.71 E4.50421
G1 X113.857 Y132.76 E4.59407
G1 X113.772 Y132.668 E4.59823
G1 X111.986 Y130.642 E4.68806
G1 X111.905 Y130.546 E4.69224
G1 X110.204 Y128.446 E4.78213
G1 X110.126 Y128.347 E4.78632
G1 X108.516 Y126.179 E4.87613
G1 X108.444 Y126.077 E4.88029
G1 X106.924 Y123.841 E4.97021
G1 X106.855 Y123.734 E4.97445
G1 X105.433 Y121.439 E5.06424
G1 X105.369 Y121.331 E5.06842
G1 X104.043 Y118.976 E5.15831
G1 X103.984 Y118.867 E5.16243
G1 X102.757 Y116.461 E5.25226
G1 X102.702 Y116.346 E5.2565
G1 X101.578 Y113.89 E5.34634
G1 X101.529 Y113.776 E5.35046
G1 X100.508 Y111.275 E5.44031
G1 X100.463 Y111.158 E5.44448
G1 X99.547 Y108.615 E5.53438
G1 X99.506 Y108.495 E5.5386
G1 X98.699 Y105.918 E5.62842
G1 X98.664 Y105.797 E5.63261
G1 X97.965 Y103.188 E5.72244
G1 X97.935 Y103.067 E5.72659
G1 X97.345 Y100.43 E5.81646
G1 X97.32 Y100.306 E5.82067
G1 X96.842 Y97.647 E5.91053
G1 X96.823 Y97.523 E5.9147
G1 X96.456 Y94.846 E6.00457
G1 X96.441 Y94.721 E6.00876
G1 X96.187 Y92.031 E6.09862
G1 X96.178 Y91.907 E6.10276
G1 X96.036 Y89.21 E6.19259
G1 X96.032 Y89.083 E6.19681
G1 X96.004 Y86.382 E6.28665
G1 X96.005 Y86.257 E6.29081
G1 X96.09 Y83.556 E6.38069
G1 X96.097 Y83.43 E6.38489
G1 X96.295 Y80.737 E6.4747
G1 X96.307 Y80.613 E6.47884
G1 X96.617 Y77.928 E6.56874
G1 X96.634 Y77.802 E6.57297
G1 X97.057 Y75.135 E6.66278
G1 X97.079 Y75.012 E6.66694
G1 X97.613 Y72.363 E6.75682
G1 X97.641 Y72.24 E6.76101
G1 X98.286 Y69.615 E6.85092
G1 X98.318 Y69.494 E6.85508
G1 X99.071 Y66.901 E6.94489
G1 X99.109 Y66.781 E6.94907
G1 X99.971 Y64.221 E7.03892
G1 X100.013 Y64.103 E7.04308
G1 X100.981 Y61.58 E7.13296
G1 X101.029 Y61.463 E7.13717
G1 X102.102 Y58.985 E7.22698
G1 X102.154 Y58.871 E7.23115
G1 X103.33 Y56.438 E7.32103
G1 X103.387 Y56.327 E7.32518
G1 X104.662 Y53.947 E7.41498
G1 X104.724 Y53.836 E7.41921
G1 X106.101 Y51.509 E7.50914
G1 X106.167 Y51.403 E7.51329
G1 X107.637 Y49.139 E7.60308
G1 X107.707 Y49.035 E7.60725
G1 X109.273 Y46.831 E7.69717
G1 X109.349 Y46.73 E7.70137
G1 X111.004 Y44.597 E7.79117
G1 X111.082 Y44.5 E7.79531
G1 X112.826 Y42.435 E7.88521
G1 X112.91 Y42.34 E7.88943
G1 X114.094 Y41.053 E7.94759
G1 X114.014 Y41.07 E7.95031
G1 X111.855 Y41.624 E8.02445
G1 X109.754 Y42.258 E8.09744
G1 X107.69 Y42.976 E8.17012
G1 X105.648 Y43.785 E8.24317
G1 X103.624 Y44.686 E8.31686
G1 X101.662 Y45.66 E8.38972
G1 X99.744 Y46.714 E8.46251
G1 X97.854 Y47.859 E8.53601
G1 X96.019 Y49.078 E8.60928
G1 X94.236 Y50.374 E8.68259
G1 X92.524 Y51.731 E8.75525
G1 X90.852 Y53.174 E8.82871
G1 X89.266 Y54.663 E8.90106
G1 X87.698 Y56.265 E8.97562
G1 X86.254 Y57.868 E9.04738
G1 X84.834 Y59.586 E9.12151
G1 X83.526 Y61.308 E9.19344
G0 F4800 X83.189 Y61.092
G1 F2100 X81.926 Y62.909 E9.26703
G1 X80.73 Y64.791 E9.3412
G1 X79.633 Y66.694 E9.41426
G1 X78.596 Y68.677 E9.48869
G1 X77.663 Y70.659 E9.56155
G1 X76.8 Y72.712 E9.63562
G1 X76.024 Y74.8 E9.70971
G1 X75.346 Y76.882 E9.78253
G1 X74.751 Y79.017 E9.85625
G1 X74.233 Y81.218 E9.93145
G1 X73.827 Y83.359 E10.00393
G1 X73.505 Y85.544 E10.07739
G1 X73.271 Y87.762 E10.15157
G1 X73.132 Y89.984 E10.22562
G1 X73.085 Y92.185 E10.29884
G1 X73.132 Y94.387 E10.3721
G1 X73.271 Y96.608 E10.44611
G1 X73.505 Y98.826 E10.52029
G1 X73.824 Y100.997 E10.59328
G1 X74.238 Y103.158 E10.66646
G1 X74.751 Y105.353 E10.74143
G1 X75.341 Y107.465 E10.81437
G1 X76.032 Y109.594 E10.88882
G1 X76.793 Y111.642 E10.96148
G1 X77.667 Y113.719 E11.03643
G1 X78.601 Y115.703 E11.10937
G1 X79.631 Y117.675 E11.18336
G1 X80.732 Y119.582 E11.2566
G1 X81.911 Y121.439 E11.32976
G1 X83.196 Y123.286 E11.4046
G1 X84.529 Y125.045 E11.478
G1 X85.942 Y126.752 E11.55171
G1 X87.422 Y128.397 E11.6253
G1 X88.985 Y129.994 E11.69963
G1 X90.586 Y131.495 E11.77262
G1 X92.276 Y132.953 E11.84686
G1 X93.988 Y134.311 E11.91954
G1 X95.801 Y135.628 E11.99407
G1 X97.636 Y136.846 E12.06732
G1 X99.531 Y137.994 E12.14101
G1 X101.483 Y139.068 E12.21512
G1 X103.463 Y140.051 E12.28864
G1 X105.471 Y140.945 E12.36175
G1 X107.567 Y141.777 E12.43675
G1 X109.653 Y142.5 E12.51018
G1 X111.761 Y143.137 E12.58342
G1 X113.894 Y143.684 E12.65666
G1 X116.103 Y144.156 E12.73179
G1 X118.245 Y144.515 E12.80403
G1 X120.462 Y144.795 E12.87835
G1 X122.661 Y144.98 E12.95175
G1 X124.895 Y145.073 E13.02612
G1 X126.02 Y145.085 E13.06354
G1 X126.489 Y145.105 E13.07915
G1 X126.825 Y145.135 E13.09037
G1 X126.938 Y145.149 E13.09416
G1 X131.089 Y145.766 E13.23374
G1 X129.391 Y144.809 E13.29857
G1 X129.297 Y144.754 E13.30219
G1 X127.001 Y143.33 E13.39205
G1 X126.91 Y143.271 E13.39566
G1 X124.676 Y141.753 E13.48549
G1 X124.586 Y141.689 E13.48916
G1 X122.418 Y140.078 E13.579
G1 X122.333 Y140.012 E13.58258
G1 X120.233 Y138.312 E13.67244
G1 X120.15 Y138.241 E13.67608
G1 X118.042 Y136.381 E13.76958
G1 X116.092 Y134.511 E13.85944
G1 X116.015 Y134.434 E13.86306
G1 X114.145 Y132.484 E13.95292
G1 X112.286 Y130.377 E14.04638
G1 X112.216 Y130.294 E14.04999
G1 X110.515 Y128.194 E14.13987
G1 X110.448 Y128.108 E14.1435
G1 X108.838 Y125.94 E14.23332
G1 X108.775 Y125.852 E14.23692
G1 X107.255 Y123.616 E14.32684
G1 X107.195 Y123.523 E14.33052
G1 X105.717 Y121.135 E14.42393
G1 X104.391 Y118.78 E14.51382
G1 X103.114 Y116.279 E14.60722
G1 X103.066 Y116.18 E14.61088
G1 X101.942 Y113.724 E14.70071
G1 X101.899 Y113.625 E14.7043
G1 X100.878 Y111.124 E14.79415
G1 X100.839 Y111.022 E14.79778
G1 X99.923 Y108.479 E14.88769
G1 X99.888 Y108.375 E14.89133
G1 X99.081 Y105.798 E14.98115
G1 X99.051 Y105.694 E14.98475
G1 X98.352 Y103.085 E15.07459
G1 X98.326 Y102.98 E15.07818
G1 X97.736 Y100.343 E15.16806
G1 X97.714 Y100.235 E15.17173
G1 X97.236 Y97.576 E15.26158
G1 X97.219 Y97.469 E15.26519
G1 X96.852 Y94.792 E15.35506
G1 X96.84 Y94.683 E15.3587
G1 X96.586 Y91.993 E15.44857
G1 X96.578 Y91.886 E15.45214
G1 X96.436 Y89.189 E15.54197
G1 X96.432 Y89.079 E15.54563
G1 X96.404 Y86.378 E15.63547
G1 X96.405 Y86.269 E15.63909
G1 X96.49 Y83.568 E15.72897
G1 X96.496 Y83.459 E15.7326
G1 X96.694 Y80.766 E15.82242
G1 X96.704 Y80.659 E15.82599
G1 X97.014 Y77.974 E15.91589
G1 X97.029 Y77.865 E15.91955
G1 X97.452 Y75.198 E16.00936
G1 X97.471 Y75.091 E16.01297
G1 X98.005 Y72.442 E16.10285
G1 X98.029 Y72.336 E16.10647
G1 X98.674 Y69.711 E16.19637
G1 X98.702 Y69.606 E16.19999
G1 X99.455 Y67.013 E16.28979
G1 X99.488 Y66.908 E16.29345
G1 X100.35 Y64.348 E16.3833
G1 X100.387 Y64.247 E16.38687
G1 X101.355 Y61.724 E16.47675
G1 X101.396 Y61.622 E16.48041
G1 X102.469 Y59.144 E16.57022
G1 X102.514 Y59.046 E16.57381
G1 X103.69 Y56.613 E16.66369
G1 X103.739 Y56.516 E16.6673
G1 X105.014 Y54.136 E16.75711
G1 X105.068 Y54.04 E16.76077
G1 X106.445 Y51.713 E16.8507
G1 X106.502 Y51.621 E16.8543
G1 X107.972 Y49.357 E16.94408
G1 X108.034 Y49.267 E16.94772
G1 X109.6 Y47.063 E17.03764
G1 X109.665 Y46.975 E17.04128
G1 X111.32 Y44.842 E17.13108
G1 X111.388 Y44.758 E17.13467
G1 X113.132 Y42.693 E17.22457
G1 X113.204 Y42.611 E17.2282
G1 X115.032 Y40.623 E17.31803
G1 X115.105 Y40.548 E17.32151
G1 X114.862 Y40.482 E17.32988
G1 X113.899 Y40.685 E17.36262
G1 X111.759 Y41.235 E17.43611
G1 X109.647 Y41.872 E17.50948
G1 X107.539 Y42.606 E17.58372
G1 X105.478 Y43.422 E17.65744
G1 X103.471 Y44.316 E17.73052
G1 X101.486 Y45.301 E17.80422
G1 X99.531 Y46.375 E17.87841
G1 X97.636 Y47.524 E17.95212
G1 X95.799 Y48.743 E18.02545
G1 X94.007 Y50.046 E18.09914
G1 X92.258 Y51.432 E18.17336
G1 X90.588 Y52.874 E18.24675
G1 X88.977 Y54.386 E18.32023
G1 X87.421 Y55.976 E18.39423
G1 X85.944 Y57.615 E18.46761
G1 X84.524 Y59.333 E18.54174
G1 X83.189 Y61.092 E18.61519
G0 F4800 X82.878 Y60.838
G1 F2100 X81.589 Y62.693 E18.69032
G1 X80.393 Y64.576 E18.76451
G1 X79.279 Y66.507 E18.83866
G1 X78.237 Y68.5 E18.91346
G1 X77.294 Y70.503 E18.9871
G1 X76.431 Y72.558 E19.06123
G1 X75.65 Y74.657 E19.13572
G1 X74.962 Y76.771 E19.20966
G1 X74.364 Y78.916 E19.28372
G1 X73.839 Y81.149 E19.36002
G1 X73.431 Y83.296 E19.4327
G1 X73.107 Y85.493 E19.50657
G1 X72.874 Y87.719 E19.58101
G1 X72.733 Y89.951 E19.65539
G1 X72.686 Y92.185 E19.72971
G1 X72.733 Y94.42 E19.80407
G1 X72.874 Y96.651 E19.87842
G1 X73.105 Y98.853 E19.95206
G1 X73.434 Y101.084 E20.02706
G1 X73.848 Y103.251 E20.10044
G1 X74.359 Y105.433 E20.17498
G1 X74.959 Y107.584 E20.24925
G1 X75.656 Y109.73 E20.3243
G1 X76.423 Y111.796 E20.3976
G1 X77.298 Y113.875 E20.47262
G1 X78.237 Y115.87 E20.54596
G1 X79.283 Y117.872 E20.62108
G1 X80.395 Y119.798 E20.69505
G1 X81.588 Y121.677 E20.76908
G1 X82.865 Y123.513 E20.84347
G1 X84.208 Y125.283 E20.91736
G1 X85.643 Y127.018 E20.99225
G1 X87.132 Y128.673 E21.0663
G1 X88.708 Y130.283 E21.14123
G1 X90.309 Y131.785 E21.21425
G1 X92.01 Y133.252 E21.28895
G1 X93.763 Y134.642 E21.36336
G1 X95.561 Y135.949 E21.4373
G1 X97.424 Y137.185 E21.51166
G1 X99.347 Y138.35 E21.58644
G1 X101.291 Y139.42 E21.66024
G1 X103.272 Y140.404 E21.73381
G1 X105.338 Y141.324 E21.80903
G1 X107.421 Y142.15 E21.88356
G1 X109.526 Y142.88 E21.95766
G1 X111.649 Y143.521 E22.03142
G1 X113.808 Y144.075 E22.10556
G1 X116.022 Y144.547 E22.18085
G1 X118.199 Y144.913 E22.25428
G1 X120.425 Y145.194 E22.3289
G1 X122.635 Y145.38 E22.40267
G1 X124.875 Y145.473 E22.47723
G1 X126.091 Y145.487 E22.51768
G1 X126.471 Y145.504 E22.53033
G1 X126.783 Y145.533 E22.54075
G1 X126.879 Y145.545 E22.54397
G1 X133.348 Y146.506 E22.76149
G1 X132.022 Y145.831 E22.81098
G1 X131.94 Y145.787 E22.81407
G1 X129.587 Y144.461 E22.90391
G1 X129.507 Y144.414 E22.90699
G1 X127.211 Y142.99 E22.99685
G1 X124.901 Y141.422 E23.08971
G1 X124.825 Y141.368 E23.09281
G1 X122.657 Y139.757 E23.18265
G1 X122.585 Y139.701 E23.18568
G1 X120.485 Y138.001 E23.27555
G1 X120.414 Y137.941 E23.27864
G1 X118.387 Y136.154 E23.36852
G1 X118.319 Y136.092 E23.37158
G1 X116.369 Y134.222 E23.46144
G1 X116.304 Y134.157 E23.46449
G1 X114.434 Y132.207 E23.55435
G1 X114.372 Y132.139 E23.55742
G1 X112.526 Y130.043 E23.65031
G1 X110.825 Y127.943 E23.7402
G1 X109.159 Y125.702 E23.83307
G1 X109.106 Y125.627 E23.83613
G1 X107.586 Y123.391 E23.92605
G1 X107.535 Y123.313 E23.92915
G1 X106.113 Y121.018 E24.01895
G1 X106.066 Y120.938 E24.02204
G1 X104.74 Y118.583 E24.11193
G1 X104.697 Y118.503 E24.11495
G1 X103.47 Y116.097 E24.20478
G1 X103.43 Y116.014 E24.20784
G1 X102.269 Y113.474 E24.30073
G1 X101.248 Y110.973 E24.39058
G1 X101.215 Y110.887 E24.39364
G1 X100.299 Y108.344 E24.48354
G1 X99.463 Y105.678 E24.57647
G1 X99.437 Y105.59 E24.57952
G1 X98.738 Y102.981 E24.66936
G1 X98.716 Y102.892 E24.67241
G1 X98.126 Y100.255 E24.76228
G1 X98.108 Y100.164 E24.76537
G1 X97.615 Y97.415 E24.85826
G1 X97.248 Y94.738 E24.94813
G1 X96.984 Y91.956 E25.04107
G1 X96.977 Y91.865 E25.04411
G1 X96.835 Y89.168 E25.13394
G1 X96.832 Y89.075 E25.13703
G1 X96.804 Y86.374 E25.22687
G1 X96.805 Y86.282 E25.22993
G1 X96.89 Y83.581 E25.31981
G1 X96.895 Y83.489 E25.32288
G1 X97.093 Y80.796 E25.41269
G1 X97.102 Y80.705 E25.41573
G1 X97.424 Y77.927 E25.50874
G1 X97.847 Y75.26 E25.59856
G1 X97.863 Y75.17 E25.6016
G1 X98.397 Y72.521 E25.69148
G1 X99.063 Y69.806 E25.78446
G1 X99.086 Y69.717 E25.78751
G1 X99.839 Y67.124 E25.87732
G1 X99.867 Y67.036 E25.88039
G1 X100.729 Y64.476 E25.97023
G1 X100.76 Y64.39 E25.97327
G1 X101.728 Y61.867 E26.06315
G1 X101.763 Y61.781 E26.06624
G1 X102.836 Y59.303 E26.15606
G1 X102.874 Y59.22 E26.15909
G1 X104.05 Y56.787 E26.24897
G1 X104.092 Y56.705 E26.25204
G1 X105.367 Y54.325 E26.34184
G1 X105.413 Y54.244 E26.34494
G1 X106.79 Y51.917 E26.43487
G1 X106.838 Y51.839 E26.43791
G1 X108.308 Y49.575 E26.5277
G1 X108.36 Y49.499 E26.53076
G1 X109.981 Y47.22 E26.62378
G1 X111.636 Y45.087 E26.71357
G1 X111.693 Y45.016 E26.7166
G1 X113.437 Y42.951 E26.8065
G1 X115.327 Y40.894 E26.89941
G1 X115.39 Y40.827 E26.90247
G1 X115.912 Y40.305 E26.92702
G1 X115.663 Y40.262 E26.93543
G1 X115.374 Y40.202 E26.94524
G1 X115.084 Y40.13 E26.95518
G1 X114.878 Y40.068 E26.96234
G1 X113.814 Y40.295 E26.99852
G1 X111.635 Y40.855 E27.07335
G1 X109.527 Y41.491 E27.14658
G1 X107.392 Y42.233 E27.22176
G1 X105.346 Y43.044 E27.29496
G1 X103.291 Y43.959 E27.36978
G1 X101.289 Y44.953 E27.44412
G1 X99.338 Y46.025 E27.51816
G1 X97.423 Y47.185 E27.59263
G1 X95.559 Y48.422 E27.66704
G1 X93.756 Y49.734 E27.7412
G1 X92.006 Y51.12 E27.81545
G1 X90.335 Y52.563 E27.88888
G1 X88.688 Y54.109 E27.96402
G1 X87.132 Y55.698 E28.03799
G1 X85.632 Y57.364 E28.11255
G1 X84.214 Y59.079 E28.18656
G1 X82.878 Y60.838 E28.26003
G0 F4800 X82.538 Y60.626
G1 F2100 X81.255 Y62.472 E28.3348
G1 X80.051 Y64.367 E28.40947
G1 X78.931 Y66.31 E28.48406
G1 X77.893 Y68.295 E28.55857
G1 X76.924 Y70.352 E28.63419
G1 X76.058 Y72.411 E28.70849
G1 X75.277 Y74.512 E28.78304
G1 X74.581 Y76.653 E28.85792
G1 X73.97 Y78.843 E28.93354
G1 X73.451 Y81.047 E29.00885
G1 X73.039 Y83.217 E29.08231
G1 X72.708 Y85.463 E29.15782
G1 X72.473 Y87.699 E29.2326
G1 X72.334 Y89.917 E29.30652
G1 X72.286 Y92.185 E29.38197
G1 X72.334 Y94.454 E29.45745
G1 X72.473 Y96.671 E29.53134
G1 X72.708 Y98.907 E29.60611
G1 X73.038 Y101.144 E29.68132
G1 X73.454 Y103.32 E29.75501
G1 X73.973 Y105.54 E29.83084
G1 X74.58 Y107.711 E29.90581
G1 X75.274 Y109.852 E29.98067
G1 X76.054 Y111.95 E30.05512
G1 X76.921 Y114.011 E30.12948
G1 X77.893 Y116.075 E30.20536
G1 X78.925 Y118.05 E30.27948
G1 X80.048 Y119.996 E30.35421
G1 X81.259 Y121.903 E30.42934
G1 X82.546 Y123.754 E30.50433
G1 X83.895 Y125.533 E30.57859
