;FLAVOR:Marlin
;TIME:1120
;Filament used: 1.38096m
;Layer height: 0.3
;MINX:88.6
;MINY:106.1
;MINZ:0.2
;MAXX:146.4
;MAXY:128.9
;MAXZ:11.2
;Generated with Cura_SteamEngine master
M140 S30
M105
M190 S30
M104 S218
M105
M109 S218
M82 ;absolute extrusion mode
; Ender 3 Custom Start G-code
G92 E0 ; Reset Extruder
G28 ; Home all axes
G1 Z2.0 F3000 ; Move Z Axis up little to prevent scratching of Heat Bed
G1 X0.1 Y20 Z0.3 F5000.0 ; Move to start position
G1 X0.1 Y200.0 Z0.3 F1500.0 E15 ; Draw the first line
G1 X0.4 Y200.0 Z0.3 F5000.0 ; Move to side a little
G1 X0.4 Y20 Z0.3 F1500.0 E30 ; Draw the second line
G92 E0 ; Reset Extruder
G1 Z2.0 F3000 ; Move Z Axis up little to prevent scratching of Heat Bed
G1 X5 Y20 Z0.3 F5000.0 ; Move over to prevent blob squish
G92 E0
G92 E0
G1 F2700 E-5
;LAYER_COUNT:37
;LAYER:0
M107
G1 F300 Z0.4
G0 F4800 X89.127 Y106.51 Z0.4
;TYPE:SKIRT
G1 F300 Z0.2
G1 F2700 E0
G1 F2100 X89.39 Y106.304 E0.01111
G1 X89.694 Y106.165 E0.02223
G1 X90.117 Y106.1 E0.03646
G1 X98.8 Y106.1 E0.32526
G1 X99.132 Y106.14 E0.33638
G1 X99.444 Y106.257 E0.34747
G1 X99.464 Y106.27 E0.34826
G1 X99.694 Y106.165 E0.35667
G1 X100.117 Y106.1 E0.3709
G1 X105.883 Y106.1 E0.56268
G1 X106.215 Y106.14 E0.5738
G1 X106.527 Y106.257 E0.58489
G1 X106.687 Y106.197 E0.59057
G1 X107.011 Y106.113 E0.6017
G1 X107.2 Y106.1 E0.608
G1 X137.8 Y106.1 E1.62576
G1 X138.132 Y106.14 E1.63689
G1 X138.444 Y106.257 E1.64797
G1 X138.464 Y106.27 E1.64876
G1 X138.694 Y106.165 E1.65717
G1 X139.117 Y106.1 E1.67141
G1 X144.883 Y106.1 E1.86318
G1 X145.215 Y106.14 E1.87431
G1 X145.527 Y106.257 E1.88539
G1 X145.873 Y106.51 E1.89964
G1 X145.99 Y106.627 E1.90515
G1 X146.196 Y106.89 E1.91626
G1 X146.335 Y107.194 E1.92738
G1 X146.4 Y107.617 E1.94161
G1 X146.4 Y127.383 E2.59903
G1 X146.36 Y127.715 E2.61015
G1 X146.243 Y128.027 E2.62124
G1 X145.99 Y128.373 E2.63549
G1 X145.873 Y128.49 E2.641
G1 X145.61 Y128.696 E2.65211
G1 X145.306 Y128.835 E2.66322
G1 X144.883 Y128.9 E2.67746
G1 X139.117 Y128.9 E2.86924
G1 X138.785 Y128.86 E2.88036
G1 X138.473 Y128.743 E2.89144
G1 X138.127 Y128.49 E2.9057
G1 X138.01 Y128.373 E2.9112
G1 X137.804 Y128.11 E2.92231
G1 X137.665 Y127.806 E2.93343
G1 X137.6 Y127.383 E2.94767
G1 X137.6 Y123.9 E3.06351
G1 X107.4 Y123.9 E4.06797
G1 X107.4 Y127.383 E4.18381
G1 X107.36 Y127.715 E4.19493
G1 X107.243 Y128.027 E4.20602
G1 X106.99 Y128.373 E4.22027
G1 X106.873 Y128.49 E4.22578
G1 X106.61 Y128.696 E4.23689
G1 X106.306 Y128.835 E4.24801
G1 X105.883 Y128.9 E4.26224
G1 X100.117 Y128.9 E4.45402
G1 X99.785 Y128.86 E4.46514
G1 X99.473 Y128.743 E4.47622
G1 X99.313 Y128.803 E4.48191
G1 X98.989 Y128.887 E4.49304
G1 X98.8 Y128.9 E4.49934
G1 X90.117 Y128.9 E4.78814
G1 X89.785 Y128.86 E4.79926
G1 X89.473 Y128.743 E4.81034
G1 X89.127 Y128.49 E4.8246
G1 X89.01 Y128.373 E4.8301
G1 X88.804 Y128.11 E4.84121
G1 X88.665 Y127.806 E4.85233
G1 X88.6 Y127.383 E4.86657
G1 X88.6 Y107.617 E5.52399
G1 X88.64 Y107.285 E5.53511
G1 X88.757 Y106.973 E5.54619
G1 X89.01 Y106.627 E5.56045
G1 X89.127 Y106.51 E5.56595
G0 F4800 X89.41 Y106.793
G1 F2100 X89.636 Y106.624 E5.57534
G1 X89.9 Y106.524 E5.58473
G1 X90.117 Y106.5 E5.59199
G1 X98.8 Y106.5 E5.88078
G1 X99.079 Y106.54 E5.89016
G1 X99.336 Y106.656 E5.89954
G1 X99.456 Y106.758 E5.90478
G1 X99.636 Y106.624 E5.91224
G1 X99.9 Y106.524 E5.92163
G1 X100.117 Y106.5 E5.92889
G1 X105.883 Y106.5 E6.12067
G1 X106.162 Y106.54 E6.13004
G1 X106.419 Y106.656 E6.13942
G1 X106.539 Y106.749 E6.14447
G1 X106.775 Y106.595 E6.15384
G1 X107.045 Y106.512 E6.16324
G1 X107.2 Y106.5 E6.16841
G1 X137.8 Y106.5 E7.18617
G1 X138.079 Y106.54 E7.19554
G1 X138.336 Y106.656 E7.20492
G1 X138.456 Y106.758 E7.21016
G1 X138.636 Y106.624 E7.21762
G1 X138.9 Y106.524 E7.22701
G1 X139.117 Y106.5 E7.23427
G1 X144.883 Y106.5 E7.42605
G1 X145.162 Y106.54 E7.43543
G1 X145.419 Y106.656 E7.4448
G1 X145.707 Y106.91 E7.45758
G1 X145.876 Y107.136 E7.46696
G1 X145.976 Y107.4 E7.47635
G1 X146 Y107.617 E7.48361
G1 X146 Y127.383 E8.14103
G1 X145.96 Y127.662 E8.15041
G1 X145.844 Y127.919 E8.15979
G1 X145.59 Y128.207 E8.17256
G1 X145.364 Y128.376 E8.18194
G1 X145.1 Y128.476 E8.19133
G1 X144.883 Y128.5 E8.1986
G1 X139.117 Y128.5 E8.39037
G1 X138.838 Y128.46 E8.39975
G1 X138.581 Y128.344 E8.40913
G1 X138.293 Y128.09 E8.4219
G1 X138.124 Y127.864 E8.43128
G1 X138.024 Y127.6 E8.44067
G1 X138 Y127.383 E8.44794
G1 X138 Y123.474 E8.57795
G1 X137.8 Y123.5 E8.58466
G1 X107.2 Y123.5 E9.60242
G1 X107 Y123.471 E9.60914
G1 X107 Y127.383 E9.73925
G1 X106.96 Y127.662 E9.74863
G1 X106.844 Y127.919 E9.75801
G1 X106.59 Y128.207 E9.77078
G1 X106.364 Y128.376 E9.78016
G1 X106.1 Y128.476 E9.78955
G1 X105.883 Y128.5 E9.79681
G1 X100.117 Y128.5 E9.98859
G1 X99.838 Y128.46 E9.99797
G1 X99.581 Y128.344 E10.00734
G1 X99.461 Y128.251 E10.01239
G1 X99.225 Y128.405 E10.02177
G1 X98.955 Y128.488 E10.03116
G1 X98.8 Y128.5 E10.03633
G1 X90.117 Y128.5 E10.32513
G1 X89.838 Y128.46 E10.3345
G1 X89.581 Y128.344 E10.34388
G1 X89.293 Y128.09 E10.35666
G1 X89.124 Y127.864 E10.36604
G1 X89.024 Y127.6 E10.37543
G1 X89 Y127.383 E10.38269
G1 X89 Y107.617 E11.04011
G1 X89.04 Y107.338 E11.04949
G1 X89.156 Y107.081 E11.05886
G1 X89.41 Y106.793 E11.07164
G0 F4800 X89.693 Y107.076
G1 F2100 X89.872 Y106.952 E11.07888
G1 X90.117 Y106.9 E11.08721
G1 X98.8 Y106.9 E11.37601
G1 X99.015 Y106.94 E11.38328
G1 X99.201 Y107.053 E11.39052
G1 X99.334 Y107.226 E11.39778
G1 X99.4 Y107.5 E11.40715
G1 X99.4 Y107.617 E11.41104
G1 X99.44 Y107.402 E11.41832
G1 X99.693 Y107.076 E11.43204
G1 X99.872 Y106.952 E11.43928
G1 X100.117 Y106.9 E11.44761
G1 X105.883 Y106.9 E11.63939
G1 X106.098 Y106.94 E11.64667
G1 X106.424 Y107.193 E11.66039
G1 X106.548 Y107.372 E11.66763
G1 X106.6 Y107.617 E11.67596
G1 X106.64 Y107.285 E11.68709
G1 X106.753 Y107.099 E11.69432
G1 X106.926 Y106.966 E11.70158
G1 X107.2 Y106.9 E11.71096
G1 X137.8 Y106.9 E12.72872
G1 X138.015 Y106.94 E12.73599
G1 X138.201 Y107.053 E12.74323
G1 X138.334 Y107.226 E12.75049
G1 X138.4 Y107.5 E12.75986
G1 X138.4 Y107.617 E12.76375
G1 X138.44 Y107.402 E12.77103
G1 X138.693 Y107.076 E12.78475
G1 X138.872 Y106.952 E12.79199
G1 X139.117 Y106.9 E12.80032
G1 X144.883 Y106.9 E12.9921
G1 X145.098 Y106.94 E12.99937
G1 X145.424 Y107.193 E13.0131
G1 X145.548 Y107.372 E13.02034
G1 X145.6 Y107.617 E13.02867
G1 X145.6 Y127.383 E13.68609
G1 X145.56 Y127.598 E13.69337
G1 X145.307 Y127.924 E13.70709
G1 X145.128 Y128.048 E13.71433
G1 X144.883 Y128.1 E13.72266
G1 X139.117 Y128.1 E13.91444
G1 X138.902 Y128.06 E13.92172
G1 X138.576 Y127.807 E13.93544
G1 X138.452 Y127.628 E13.94268
G1 X138.4 Y127.383 E13.95101
G1 X138.4 Y122.5 E14.11342
G1 X138.36 Y122.715 E14.1207
G1 X138.247 Y122.901 E14.12793
G1 X138.074 Y123.034 E14.13519
G1 X137.8 Y123.1 E14.14457
G1 X107.2 Y123.1 E15.16233
G1 X106.985 Y123.06 E15.1696
G1 X106.799 Y122.947 E15.17684
G1 X106.666 Y122.774 E15.1841
G1 X106.6 Y122.5 E15.19347
G1 X106.6 Y127.383 E15.35588
G1 X106.56 Y127.598 E15.36315
G1 X106.307 Y127.924 E15.37688
G1 X106.128 Y128.048 E15.38412
G1 X105.883 Y128.1 E15.39245
G1 X100.117 Y128.1 E15.58423
G1 X99.902 Y128.06 E15.5915
G1 X99.576 Y127.807 E15.60523
G1 X99.452 Y127.628 E15.61247
G1 X99.4 Y127.383 E15.6208
G1 X99.36 Y127.715 E15.63192
G1 X99.247 Y127.901 E15.63916
G1 X99.074 Y128.034 E15.64642
G1 X98.8 Y128.1 E15.65579
G1 X90.117 Y128.1 E15.94459
G1 X89.902 Y128.06 E15.95186
G1 X89.576 Y127.807 E15.96559
G1 X89.452 Y127.628 E15.97283
G1 X89.4 Y127.383 E15.98116
G1 X89.4 Y107.617 E16.63858
G1 X89.44 Y107.402 E16.64586
G1 X89.693 Y107.076 E16.65958
G0 F4800 X89.976 Y107.359
G1 F2100 X90.117 Y107.3 E16.66466
G1 X98.8 Y107.3 E16.95346
G1 X98.919 Y107.339 E16.95763
G1 X99 Y107.5 E16.96362
G1 X99 Y127.5 E17.62882
G1 X98.961 Y127.619 E17.63299
G1 X98.8 Y127.7 E17.63898
G1 X90.117 Y127.7 E17.92778
G1 X89.976 Y127.641 E17.93287
G1 X89.859 Y127.524 E17.93837
G1 X89.8 Y127.383 E17.94345
G1 X89.8 Y107.617 E18.60087
G1 X89.859 Y107.476 E18.60596
G1 X89.976 Y107.359 E18.61146
G0 F4800 X90.2 Y107.7
G1 F2100 X98.6 Y107.7 E18.89084
G1 X98.6 Y127.3 E19.54274
G1 X90.2 Y127.3 E19.82213
G1 X90.2 Y107.7 E20.47403
G0 F4800 X90.6 Y108.1
G1 F2100 X98.2 Y108.1 E20.7268
G1 X98.2 Y126.9 E21.35209
G1 X90.6 Y126.9 E21.60487
G1 X90.6 Y108.1 E22.23016
G0 F4800 X91 Y108.5
G1 F2100 X97.8 Y108.5 E22.45633
G1 X97.8 Y126.5 E23.05501
G1 X91 Y126.5 E23.28118
G1 X91 Y108.5 E23.87986
G0 F4800 X91.4 Y108.9
G1 F2100 X97.4 Y108.9 E24.07943
G1 X97.4 Y126.1 E24.6515
G1 X91.4 Y126.1 E24.85106
G1 X91.4 Y108.9 E25.42313
G0 F4800 X91.8 Y109.3
G1 F2100 X97 Y109.3 E25.59609
G1 X97 Y125.7 E26.14155
G1 X91.8 Y125.7 E26.31451
G1 X91.8 Y109.3 E26.85997
G0 F4800 X92.2 Y109.7
G1 F2100 X96.6 Y109.7 E27.00632
G1 X96.6 Y125.3 E27.52518
G1 X92.2 Y125.3 E27.67152
G1 X92.2 Y109.7 E28.19038
G0 F4800 X92.6 Y110.1
G1 F2100 X96.2 Y110.1 E28.31011
G1 X96.2 Y124.9 E28.80236
G1 X92.6 Y124.9 E28.9221
G1 X92.6 Y110.1 E29.41435
G0 F4800 X93 Y110.5
G1 F2100 X95.8 Y110.5 E29.50748
G1 X95.8 Y124.5 E29.97312
G1 X93 Y124.5 E30.06625
G1 X93 Y110.5 E30.53189
G0 F4800 X93.4 Y110.9
G1 F2100 X95.4 Y110.9 E30.59841
G1 X95.4 Y124.1 E31.03745
G1 X93.4 Y124.1 E31.10397
G1 X93.4 Y110.9 E31.543
G0 F4800 X93.8 Y111.3
G1 F2100 X95 Y111.3 E31.58291
G1 X95 Y123.7 E31.99534
G1 X93.8 Y123.7 E32.03525
G1 X93.8 Y111.3 E32.44768
G1 F2700 E27.44768
G1 F300 Z0.4
G0 F4800 X99.8 Y107.617 Z0.4
G1 F300 Z0.2
G1 F2700 E32.44768
G1 F2100 X99.859 Y107.476 E32.45276
G1 X99.976 Y107.359 E32.45826
G1 X100.117 Y107.3 E32.46335
G1 X105.883 Y107.3 E32.65512
G1 X106.024 Y107.359 E32.66021
G1 X106.141 Y107.476 E32.66571
G1 X106.2 Y107.617 E32.67079
G1 X106.2 Y127.383 E33.32821
G1 X106.141 Y127.524 E33.3333
G1 X106.024 Y127.641 E33.3388
G1 X105.883 Y127.7 E33.34389
G1 X100.117 Y127.7 E33.53566
G1 X99.976 Y127.641 E33.54075
G1 X99.859 Y127.524 E33.54625
G1 X99.8 Y127.383 E33.55133
G1 X99.8 Y107.617 E34.20875
G1 F2700 E29.20875
G1 F300 Z0.4
G0 F4800 X107 Y107.5 Z0.4
G1 F300 Z0.2
G1 F2700 E34.20875
G1 F2100 X107.039 Y107.381 E34.21292
G1 X107.2 Y107.3 E34.21891
G1 X137.8 Y107.3 E35.23667
G1 X137.919 Y107.339 E35.24084
G1 X138 Y107.5 E35.24683
G1 X138 Y122.5 E35.74573
G1 X137.961 Y122.619 E35.7499
G1 X137.8 Y122.7 E35.75589
G1 X107.2 Y122.7 E36.77365
G1 X107.081 Y122.661 E36.77782
G1 X107 Y122.5 E36.78381
G1 X107 Y107.5 E37.28272
G0 F4800 X107.4 Y107.7
G1 F2100 X137.6 Y107.7 E38.28717
G1 X137.6 Y122.3 E38.77277
G1 X107.4 Y122.3 E39.77723
G1 X107.4 Y107.7 E40.26282
G0 F4800 X107.8 Y108.1
G1 F2100 X137.2 Y108.1 E41.24067
G1 X137.2 Y121.9 E41.69966
G1 X107.8 Y121.9 E42.67751
G1 X107.8 Y108.1 E43.1365
G0 F4800 X108.2 Y108.5
G1 F2100 X136.8 Y108.5 E44.08774
G1 X136.8 Y121.5 E44.52012
G1 X108.2 Y121.5 E45.47136
G1 X108.2 Y108.5 E45.90374
G0 F4800 X108.6 Y108.9
G1 F2100 X136.4 Y108.9 E46.82837
G1 X136.4 Y121.1 E47.23415
G1 X108.6 Y121.1 E48.15878
G1 X108.6 Y108.9 E48.56455
G0 F4800 X109 Y109.3
G1 F2100 X136 Y109.3 E49.46258
G1 X136 Y120.7 E49.84174
G1 X109 Y120.7 E50.73977
G1 X109 Y109.3 E51.11893
G0 F4800 X109.4 Y109.7
G1 F2100 X135.6 Y109.7 E51.99035
G1 X135.6 Y120.3 E52.34291
G1 X109.4 Y120.3 E53.21432
G1 X109.4 Y109.7 E53.56688
G0 F4800 X109.8 Y110.1
G1 F2100 X135.2 Y110.1 E54.41169
G1 X135.2 Y119.9 E54.73763
G1 X109.8 Y119.9 E55.58244
G1 X109.8 Y110.1 E55.90839
G0 F4800 X110.2 Y110.5
G1 F2100 X134.8 Y110.5 E56.72659
G1 X134.8 Y119.5 E57.02593
G1 X110.2 Y119.5 E57.84413
G1 X110.2 Y110.5 E58.14347
G0 F4800 X110.6 Y110.9
G1 F2100 X134.4 Y110.9 E58.93506
G1 X134.4 Y119.1 E59.2078
G1 X110.6 Y119.1 E59.99939
G1 X110.6 Y110.9 E60.27212
G0 F4800 X111 Y111.3
G1 F2100 X134 Y111.3 E61.0371
G1 X134 Y118.7 E61.28323
G1 X111 Y118.7 E62.04821
G1 X111 Y111.3 E62.29434
G1 F2700 E57.29434
G1 F300 Z0.4
G0 F4800 X138.8 Y107.617 Z0.4
G1 F300 Z0.2
G1 F2700 E62.29434
G1 F2100 X138.859 Y107.476 E62.29942
G1 X138.976 Y107.359 E62.30492
G1 X139.117 Y107.3 E62.31001
G1 X144.883 Y107.3 E62.50179
G1 X145.024 Y107.359 E62.50687
G1 X145.141 Y107.476 E62.51237
G1 X145.2 Y107.617 E62.51746
G1 X145.2 Y127.383 E63.17488
G1 X145.141 Y127.524 E63.17996
G1 X145.024 Y127.641 E63.18546
G1 X144.883 Y127.7 E63.19055
G1 X139.117 Y127.7 E63.38233
G1 X138.976 Y127.641 E63.38741
G1 X138.859 Y127.524 E63.39291
G1 X138.8 Y127.383 E63.398
G1 X138.8 Y107.617 E64.05542
G1 F2700 E59.05542
G1 F300 Z0.4
G0 F4800 X133.6 Y111.7 Z0.4
;TYPE:SUPPORT
G1 F300 Z0.2
G1 F2700 E64.05542
G1 F1800 X133.6 Y118.3 E64.27493
G1 X111.4 Y118.3 E65.01331
G1 X111.4 Y111.7 E65.23282
G1 X133.6 Y111.7 E65.9712
G0 F4800 X133.32 Y111.78
G1 F1800 X133.32 Y118.22 E66.1854
G1 F2700 E61.1854
G1 F300 Z0.4
G0 F4800 X133.52 Y116.352 Z0.4
G1 F300 Z0.2
G1 F2700 E66.1854
G1 F1800 X111.48 Y116.352 E66.91845
G1 F2700 E61.91845
G1 F300 Z0.4
G0 F4800 X111.504 Y118.22 Z0.4
G1 F300 Z0.2
G1 F2700 E66.91845
G1 F1800 X111.504 Y111.78 E67.13264
G1 F2700 E62.13264
G1 F300 Z0.4
G0 F4800 X111.48 Y113.928 Z0.4
G1 F300 Z0.2
G1 F2700 E67.13264
G1 F1800 X133.52 Y113.928 E67.8657
G1 F2700 E62.8657
G1 F300 Z0.4
G0 F4800 X130.896 Y111.78 Z0.4
G1 F300 Z0.2
G1 F2700 E67.8657
G1 F1800 X130.896 Y118.22 E68.07989
G1 F2700 E63.07989
G1 F300 Z0.4
G0 F4800 X128.472 Y118.22 Z0.4
G1 F300 Z0.2
G1 F2700 E68.07989
G1 F1800 X128.472 Y111.78 E68.29409
G1 F2700 E63.29409
G1 F300 Z0.4
G0 F4800 X126.048 Y111.78 Z0.4
G1 F300 Z0.2
G1 F2700 E68.29409
G1 F1800 X126.048 Y118.22 E68.50828
G1 F2700 E63.50828
G1 F300 Z0.4
G0 F4800 X123.624 Y118.22 Z0.4
G1 F300 Z0.2
G1 F2700 E68.50828
G1 F1800 X123.624 Y111.78 E68.72248
G1 F2700 E63.72248
G1 F300 Z0.4
G0 F4800 X121.2 Y111.78 Z0.4
G1 F300 Z0.2
G1 F2700 E68.72248
G1 F1800 X121.2 Y118.22 E68.93667
G1 F2700 E63.93667
G1 F300 Z0.4
G0 F4800 X118.776 Y118.22 Z0.4
G1 F300 Z0.2
G1 F2700 E68.93667
G1 F1800 X118.776 Y111.78 E69.15087
G1 F2700 E64.15087
G1 F300 Z0.4
G0 F4800 X116.352 Y111.78 Z0.4
G1 F300 Z0.2
G1 F2700 E69.15087
G1 F1800 X116.352 Y118.22 E69.36506
G1 F2700 E64.36506
G1 F300 Z0.4
G0 F4800 X113.928 Y118.22 Z0.4
G1 F300 Z0.2
G1 F2700 E69.36506
G1 F1800 X113.928 Y111.78 E69.57926
G1 F2700 E64.57926
G1 F300 Z0.4
G0 F4800 X94.6 Y111.7 Z0.4
G1 F300 Z0.2
G1 F2700 E69.57926
G1 F1800 X94.6 Y123.3 E69.96508
G1 X94.2 Y123.3 E69.97838
G1 X94.2 Y111.7 E70.3642
G1 X94.6 Y111.7 E70.3775
G1 F2700 E65.3775
G1 F300 Z0.4
;MESH:ClawLimitSwitch_X_Right.stl
G0 F4800 X105.8 Y127.3 Z0.4
;TYPE:WALL-OUTER
G1 F300 Z0.2
G1 F2700 E70.3775
G1 F1800 X100.2 Y127.3 E70.56376
G1 X100.2 Y107.7 E71.21566
G1 X105.8 Y107.7 E71.40191
G1 X105.8 Y127.3 E72.05381
G0 F4800 X105.4 Y126.9
;TYPE:WALL-INNER
G1 F1800 X100.6 Y126.9 E72.21346
G1 X100.6 Y108.1 E72.83875
G1 X105.4 Y108.1 E72.9984
G1 X105.4 Y126.9 E73.62369
G0 F4800 X105 Y126.5
G1 F1800 X101 Y126.5 E73.75673
G1 X101 Y108.5 E74.35541
G1 X105 Y108.5 E74.48846
G1 X105 Y126.5 E75.08714
G0 F4800 X104.6 Y126.1
G1 F1800 X101.4 Y126.1 E75.19357
G1 X101.4 Y108.9 E75.76564
G1 X104.6 Y108.9 E75.87208
G1 X104.6 Y126.1 E76.44415
G0 F4800 X104.2 Y125.7
G1 F1800 X101.8 Y125.7 E76.52398
G1 X101.8 Y109.3 E77.06944
G1 X104.2 Y109.3 E77.14927
G1 X104.2 Y125.7 E77.69473
G0 F4800 X103.81 Y125.31
;TYPE:SKIN
G1 F1800 X102.19 Y125.31 E77.74861
G1 X102.19 Y109.69 E78.26814
G1 X103.81 Y109.69 E78.32202
G1 X103.81 Y125.31 E78.84154
G0 F4800 X102.521 Y125.149
G1 F1800 X102.349 Y124.976 E78.84966
G0 F4800 X102.349 Y124.411
G1 F1800 X103.087 Y125.149 E78.88437
G0 F4800 X103.65 Y125.146
G1 F1800 X102.349 Y123.845 E78.94556
G0 F4800 X102.349 Y123.279
G1 F1800 X103.65 Y124.58 E79.00676
G0 F4800 X103.65 Y124.015
G1 F1800 X102.349 Y122.714 E79.06795
G0 F4800 X102.349 Y122.148
G1 F1800 X103.65 Y123.449 E79.12915
G0 F4800 X103.65 Y122.883
G1 F1800 X102.349 Y121.582 E79.19034
G0 F4800 X102.349 Y121.017
G1 F1800 X103.65 Y122.318 E79.25154
G0 F4800 X103.65 Y121.752
G1 F1800 X102.349 Y120.451 E79.31273
G0 F4800 X102.349 Y119.885
G1 F1800 X103.65 Y121.186 E79.37393
G0 F4800 X103.65 Y120.621
G1 F1800 X102.349 Y119.32 E79.43512
G0 F4800 X102.349 Y118.754
G1 F1800 X103.65 Y120.055 E79.49632
G0 F4800 X103.65 Y119.489
G1 F1800 X102.349 Y118.188 E79.55751
G0 F4800 X102.349 Y117.622
G1 F1800 X103.65 Y118.924 E79.61873
G0 F4800 X103.65 Y118.358
G1 F1800 X102.349 Y117.057 E79.67993
G0 F4800 X102.349 Y116.491
G1 F1800 X103.65 Y117.792 E79.74112
