;FLAVOR:Marlin
;TIME:1066
;Filament used: 1.5478m
;Layer height: 0.3
;MINX:74.998
;MINY:13.511
;MINZ:0.2
;MAXX:106.196
;MAXY:44.706
;MAXZ:12.1
;Generated with Cura_SteamEngine master
M140 S35
M105
M190 S35
M104 S218
M105
M109 S218
M82 ;absolute extrusion mode
; Ender 3 Custom Start G-code
G92 E0 ; Reset Extruder
G28 ; Home all axes
G1 Z2.0 F3000 ; Move Z Axis up little to prevent scratching of Heat Bed
G1 X0.1 Y20 Z0.3 F5000.0 ; Move to start position
G1 X0.1 Y200.0 Z0.3 F1500.0 E15 ; Draw the first line
G1 X0.4 Y200.0 Z0.3 F5000.0 ; Move to side a little
G1 X0.4 Y20 Z0.3 F1500.0 E30 ; Draw the second line
G92 E0 ; Reset Extruder
G1 Z2.0 F3000 ; Move Z Axis up little to prevent scratching of Heat Bed
G1 X5 Y20 Z0.3 F5000.0 ; Move over to prevent blob squish
G92 E0
G92 E0
G1 F2700 E-5
;LAYER_COUNT:40
;LAYER:0
M107
G1 F300 Z0.4
G0 F4800 X75.682 Y24.539 Z0.4
;TYPE:SKIRT
G1 F300 Z0.2
G1 F2700 E0
G1 F2100 X75.845 Y24.038 E0.01752
G1 X75.885 Y23.923 E0.02157
G1 X76.069 Y23.427 E0.03917
G1 X76.116 Y23.308 E0.04342
G1 X76.321 Y22.82 E0.06103
G1 X76.373 Y22.705 E0.06523
G1 X76.597 Y22.229 E0.08272
G1 X76.65 Y22.121 E0.08673
G1 X76.893 Y21.654 E0.10423
G1 X76.957 Y21.537 E0.10867
G1 X77.222 Y21.079 E0.12627
G1 X77.285 Y20.975 E0.13031
G1 X77.567 Y20.53 E0.14784
G1 X77.639 Y20.422 E0.15215
G1 X77.941 Y19.988 E0.16974
G1 X78.013 Y19.888 E0.17384
G1 X78.331 Y19.469 E0.19133
G1 X78.411 Y19.369 E0.19559
G1 X78.749 Y18.961 E0.21321
G1 X78.829 Y18.868 E0.21729
G1 X79.181 Y18.477 E0.23479
G1 X79.267 Y18.385 E0.23898
G1 X79.64 Y18.004 E0.25671
G1 X79.729 Y17.917 E0.26085
G1 X80.113 Y17.556 E0.27838
G1 X80.212 Y17.467 E0.28281
G1 X80.612 Y17.123 E0.30036
G1 X80.705 Y17.047 E0.30435
G1 X81.119 Y16.719 E0.32192
G1 X81.22 Y16.642 E0.32615
G1 X81.647 Y16.332 E0.3437
G1 X81.748 Y16.262 E0.34778
G1 X82.187 Y15.97 E0.36532
G1 X82.295 Y15.901 E0.36958
G1 X82.748 Y15.627 E0.38719
G1 X82.853 Y15.566 E0.39123
G1 X83.314 Y15.312 E0.40874
G1 X83.429 Y15.252 E0.41305
G1 X83.903 Y15.017 E0.43065
G1 X84.026 Y14.96 E0.43515
G1 X84.507 Y14.748 E0.45264
G1 X84.612 Y14.704 E0.45642
G1 X85.104 Y14.509 E0.47403
G1 X85.219 Y14.466 E0.47811
G1 X85.717 Y14.292 E0.49566
G1 X85.837 Y14.253 E0.49985
G1 X86.342 Y14.1 E0.5174
G1 X86.472 Y14.064 E0.52189
G1 X86.983 Y13.934 E0.53943
G1 X87.099 Y13.907 E0.54339
G1 X87.616 Y13.797 E0.56097
G1 X87.74 Y13.773 E0.56517
G1 X88.261 Y13.685 E0.58274
G1 X88.385 Y13.667 E0.58691
G1 X88.908 Y13.601 E0.60444
G1 X89.034 Y13.587 E0.60866
G1 X89.56 Y13.543 E0.62622
G1 X89.685 Y13.536 E0.63038
G1 X90.212 Y13.514 E0.64792
G1 X90.337 Y13.511 E0.65208
G1 X90.864 Y13.511 E0.66961
G1 X90.989 Y13.514 E0.67377
G1 X91.517 Y13.536 E0.69135
G1 X91.642 Y13.543 E0.69551
G1 X92.168 Y13.587 E0.71307
G1 X92.817 Y13.667 E0.73481
G1 X92.949 Y13.686 E0.73925
G1 X93.468 Y13.775 E0.75676
G1 X93.585 Y13.798 E0.76073
G1 X94.102 Y13.908 E0.77831
G1 X94.227 Y13.937 E0.78258
G1 X94.739 Y14.069 E0.80016
G1 X94.856 Y14.102 E0.80421
G1 X95.36 Y14.254 E0.82172
G1 X95.482 Y14.293 E0.82598
G1 X95.981 Y14.467 E0.84355
G1 X96.1 Y14.512 E0.84779
G1 X96.591 Y14.707 E0.86536
G1 X96.703 Y14.754 E0.8694
G1 X97.184 Y14.968 E0.88691
G1 X97.3 Y15.022 E0.89116
G1 X97.773 Y15.257 E0.90873
G1 X97.879 Y15.312 E0.9127
G1 X98.343 Y15.566 E0.93029
G1 X98.465 Y15.637 E0.93499
G1 X98.914 Y15.911 E0.95248
G1 X99.009 Y15.971 E0.95622
G1 X99.448 Y16.262 E0.97374
G1 X99.554 Y16.336 E0.97804
G1 X99.982 Y16.647 E0.99564
G1 X100.087 Y16.727 E1.00003
G1 X100.499 Y17.055 E1.01754
G1 X100.59 Y17.131 E1.02148
G1 X100.991 Y17.477 E1.0391
G1 X101.079 Y17.556 E1.04303
G1 X101.461 Y17.913 E1.06042
G1 X101.56 Y18.009 E1.06501
G1 X101.929 Y18.387 E1.08258
G1 X102.011 Y18.475 E1.08658
G1 X102.364 Y18.867 E1.10413
G1 X102.448 Y18.965 E1.10842
G1 X102.784 Y19.372 E1.12597
G1 X102.859 Y19.467 E1.13
G1 X103.179 Y19.888 E1.14759
G1 X103.254 Y19.991 E1.15182
G1 X103.555 Y20.424 E1.16936
G1 X103.624 Y20.528 E1.17352
G1 X103.906 Y20.972 E1.19101
G1 X103.973 Y21.082 E1.19529
G1 X104.237 Y21.54 E1.21288
G1 X104.296 Y21.647 E1.21694
G1 X104.541 Y22.115 E1.23451
G1 X104.596 Y22.226 E1.23863
G1 X104.821 Y22.703 E1.25617
G1 X104.876 Y22.827 E1.26068
G1 X105.079 Y23.313 E1.2782
G1 X105.122 Y23.421 E1.28207
G1 X105.307 Y23.917 E1.29967
G1 X105.348 Y24.035 E1.30383
G1 X105.512 Y24.538 E1.32143
G1 X105.55 Y24.664 E1.3258
G1 X105.691 Y25.171 E1.34331
G1 X105.722 Y25.292 E1.34746
G1 X105.842 Y25.805 E1.36498
G1 X105.868 Y25.926 E1.3691
G1 X105.967 Y26.445 E1.38667
G1 X105.987 Y26.563 E1.39065
G1 X106.065 Y27.084 E1.40818
G1 X106.082 Y27.216 E1.4126
G1 X106.137 Y27.742 E1.43019
G1 X106.147 Y27.866 E1.43433
G1 X106.18 Y28.392 E1.45186
G1 X106.185 Y28.518 E1.45605
G1 X106.196 Y29.046 E1.47362
G1 X106.196 Y29.171 E1.47778
G1 X106.185 Y29.698 E1.49531
G1 X106.18 Y29.818 E1.4993
G1 X106.148 Y30.341 E1.51673
G1 X106.137 Y30.474 E1.52117
G1 X106.081 Y31.003 E1.53886
G1 X106.065 Y31.13 E1.54312
G1 X105.987 Y31.653 E1.56071
G1 X105.969 Y31.761 E1.56435
G1 X105.872 Y32.28 E1.58191
G1 X105.842 Y32.423 E1.58677
G1 X105.72 Y32.936 E1.60431
G1 X105.69 Y33.051 E1.60826
G1 X105.548 Y33.558 E1.62577
G1 X105.513 Y33.674 E1.6298
G1 X105.35 Y34.177 E1.64739
G1 X105.309 Y34.295 E1.65154
G1 X105.125 Y34.791 E1.66914
G1 X105.077 Y34.911 E1.67344
G1 X104.873 Y35.396 E1.69094
G1 X104.822 Y35.511 E1.69512
G1 X104.597 Y35.989 E1.71269
G1 X104.54 Y36.105 E1.71699
G1 X104.295 Y36.572 E1.73453
G1 X104.234 Y36.681 E1.73869
G1 X103.97 Y37.137 E1.75621
G1 X103.911 Y37.235 E1.76002
G1 X103.629 Y37.682 E1.7776
G1 X103.551 Y37.8 E1.7823
G1 X103.249 Y38.232 E1.79983
G1 X102.864 Y38.744 E1.82114
G1 X102.782 Y38.848 E1.82554
G1 X102.446 Y39.254 E1.84307
G1 X102.367 Y39.346 E1.8471
G1 X102.014 Y39.739 E1.86467
G1 X101.923 Y39.835 E1.86907
G1 X101.551 Y40.214 E1.88674
G1 X101.465 Y40.299 E1.89076
G1 X101.08 Y40.661 E1.90833
G1 X100.978 Y40.752 E1.91288
G1 X100.493 Y41.166 E1.93409
G1 X100.081 Y41.494 E1.95161
G1 X99.973 Y41.575 E1.9561
G1 X99.547 Y41.884 E1.9736
G1 X99.444 Y41.956 E1.97778
G1 X99.002 Y42.249 E1.99542
G1 X98.893 Y42.318 E1.99971
G1 X98.442 Y42.59 E2.01722
G1 X98.34 Y42.649 E2.02114
G1 X97.877 Y42.904 E2.03872
G1 X97.769 Y42.96 E2.04277
G1 X97.296 Y43.196 E2.06035
G1 X97.172 Y43.255 E2.06492
G1 X96.691 Y43.468 E2.08242
G1 X96.578 Y43.515 E2.08649
G1 X96.087 Y43.709 E2.10405
G1 X95.973 Y43.752 E2.1081
G1 X95.474 Y43.926 E2.12568
G1 X95.349 Y43.966 E2.13004
G1 X94.843 Y44.118 E2.14761
G1 X94.726 Y44.151 E2.15166
G1 X94.216 Y44.282 E2.16917
G1 X94.091 Y44.311 E2.17344
G1 X93.576 Y44.42 E2.19095
G1 X93.455 Y44.443 E2.19504
G1 X92.934 Y44.531 E2.21262
G1 X92.809 Y44.549 E2.21682
G1 X92.16 Y44.629 E2.23857
G1 X91.634 Y44.673 E2.25612
G1 X91.515 Y44.68 E2.26009
G1 X90.987 Y44.703 E2.27766
G1 X90.856 Y44.706 E2.28202
G1 X90.329 Y44.706 E2.29955
G1 X90.198 Y44.703 E2.30391
G1 X89.672 Y44.68 E2.32142
G1 X89.553 Y44.673 E2.32539
G1 X89.026 Y44.629 E2.34297
G1 X88.377 Y44.549 E2.36472
G1 X88.246 Y44.53 E2.36913
G1 X87.726 Y44.441 E2.38667
G1 X87.608 Y44.418 E2.39067
G1 X87.091 Y44.308 E2.40825
G1 X86.97 Y44.28 E2.41238
G1 X86.459 Y44.149 E2.42993
G1 X86.338 Y44.115 E2.43411
G1 X85.834 Y43.963 E2.45162
G1 X85.712 Y43.924 E2.45588
G1 X85.213 Y43.75 E2.47345
G1 X85.094 Y43.705 E2.47769
G1 X84.603 Y43.51 E2.49526
G1 X84.488 Y43.462 E2.4994
G1 X84.006 Y43.247 E2.51696
G1 X83.891 Y43.193 E2.52118
G1 X83.419 Y42.958 E2.53872
G1 X83.313 Y42.902 E2.54271
G1 X82.85 Y42.648 E2.56027
G1 X82.735 Y42.582 E2.56468
G1 X82.284 Y42.308 E2.58223
G1 X82.184 Y42.245 E2.58616
G1 X81.745 Y41.954 E2.60368
G1 X81.639 Y41.88 E2.60798
G1 X81.211 Y41.569 E2.62558
G1 X81.109 Y41.491 E2.62985
G1 X80.696 Y41.163 E2.64739
G1 X80.597 Y41.081 E2.65167
G1 X80.115 Y40.661 E2.67293
G1 X79.732 Y40.303 E2.69037
G1 X79.634 Y40.207 E2.69493
G1 X79.265 Y39.829 E2.7125
G1 X79.183 Y39.741 E2.7165
G1 X78.83 Y39.349 E2.73404
G1 X78.751 Y39.257 E2.73808
G1 X78.414 Y38.851 E2.75563
G1 X78.331 Y38.747 E2.76005
G1 X78.012 Y38.326 E2.77762
G1 X77.938 Y38.224 E2.78181
G1 X77.637 Y37.79 E2.79938
G1 X77.571 Y37.69 E2.80336
G1 X77.288 Y37.245 E2.8209
G1 X77.22 Y37.133 E2.82526
G1 X76.956 Y36.675 E2.84285
G1 X76.897 Y36.569 E2.84688
G1 X76.653 Y36.103 E2.86438
G1 X76.597 Y35.989 E2.8686
G1 X76.372 Y35.511 E2.88617
G1 X76.32 Y35.394 E2.89043
G1 X76.116 Y34.908 E2.90796
G1 X76.071 Y34.794 E2.91204
G1 X75.887 Y34.3 E2.92957
G1 X75.844 Y34.178 E2.93387
G1 X75.681 Y33.675 E2.95146
G1 X75.645 Y33.556 E2.95559
G1 X75.503 Y33.047 E2.97317
G1 X75.473 Y32.93 E2.97719
G1 X75.352 Y32.417 E2.99472
G1 X75.326 Y32.292 E2.99896
G1 X75.227 Y31.775 E3.01647
G1 X75.205 Y31.648 E3.02076
G1 X75.128 Y31.125 E3.03834
G1 X75.112 Y31 E3.04253
G1 X75.057 Y30.474 E3.06012
G1 X75.047 Y30.35 E3.06426
G1 X75.014 Y29.824 E3.08179
G1 X75.009 Y29.698 E3.08598
G1 X74.998 Y29.17 E3.10355
G1 X74.998 Y29.045 E3.10771
G1 X75.009 Y28.518 E3.12524
G1 X75.014 Y28.393 E3.1294
G1 X75.047 Y27.867 E3.14693
G1 X75.057 Y27.743 E3.15107
G1 X75.112 Y27.217 E3.16866
G1 X75.128 Y27.09 E3.17291
G1 X75.205 Y26.569 E3.19043
G1 X75.226 Y26.446 E3.19458
G1 X75.325 Y25.927 E3.21215
G1 X75.352 Y25.803 E3.21638
G1 X75.473 Y25.288 E3.23397
G1 X75.504 Y25.165 E3.23819
G1 X75.646 Y24.658 E3.2557
G1 X75.682 Y24.539 E3.25984
G0 F4800 X76.031 Y24.766
G1 F2100 X76.226 Y24.162 E3.28095
G1 X76.26 Y24.062 E3.28446
G1 X76.444 Y23.566 E3.30206
G1 X76.485 Y23.463 E3.30574
G1 X76.69 Y22.975 E3.32335
G1 X76.734 Y22.875 E3.32698
G1 X76.958 Y22.399 E3.34448
G1 X77.248 Y21.839 E3.36545
G1 X77.304 Y21.737 E3.36932
G1 X77.623 Y21.189 E3.39041
G1 X77.905 Y20.744 E3.40794
G1 X77.967 Y20.651 E3.41165
G1 X78.269 Y20.217 E3.42924
G1 X78.332 Y20.13 E3.43281
G1 X78.65 Y19.711 E3.45031
G1 X78.719 Y19.624 E3.454
G1 X79.057 Y19.216 E3.47162
G1 X79.127 Y19.135 E3.47518
G1 X79.479 Y18.744 E3.49268
G1 X79.553 Y18.665 E3.49628
G1 X79.926 Y18.284 E3.51402
G1 X80.003 Y18.209 E3.51759
G1 X80.387 Y17.848 E3.53512
G1 X80.473 Y17.771 E3.53896
G1 X80.953 Y17.36 E3.55998
G1 X81.367 Y17.032 E3.57754
G1 X81.455 Y16.966 E3.5812
G1 X81.882 Y16.656 E3.59875
G1 X81.969 Y16.595 E3.60229
G1 X82.408 Y16.303 E3.61982
G1 X82.502 Y16.243 E3.62353
G1 X82.955 Y15.969 E3.64114
G1 X83.507 Y15.663 E3.66213
G1 X83.607 Y15.611 E3.66588
G1 X84.081 Y15.376 E3.68348
G1 X84.187 Y15.326 E3.68738
G1 X84.668 Y15.114 E3.70486
G1 X84.759 Y15.076 E3.70814
G1 X85.251 Y14.881 E3.72574
G1 X85.351 Y14.844 E3.72929
G1 X85.849 Y14.67 E3.74683
G1 X85.953 Y14.636 E3.75047
G1 X86.458 Y14.483 E3.76802
G1 X86.571 Y14.451 E3.77193
G1 X87.082 Y14.321 E3.78947
G1 X87.699 Y14.188 E3.81046
G1 X87.807 Y14.167 E3.81412
G1 X88.328 Y14.079 E3.83169
G1 X88.435 Y14.063 E3.83529
G1 X88.958 Y13.997 E3.85282
G1 X89.067 Y13.986 E3.85647
G1 X89.593 Y13.942 E3.87402
G1 X89.702 Y13.935 E3.87766
G1 X90.229 Y13.913 E3.8952
G1 X90.337 Y13.911 E3.89879
G1 X90.864 Y13.911 E3.91632
G1 X90.972 Y13.913 E3.91991
G1 X91.5 Y13.935 E3.93749
G1 X91.609 Y13.942 E3.94112
G1 X92.135 Y13.986 E3.95868
G1 X92.243 Y13.997 E3.96229
G1 X92.767 Y14.063 E3.97986
G1 X92.881 Y14.08 E3.98369
G1 X93.4 Y14.169 E4.0012
G1 X94.019 Y14.299 E4.02224
G1 X94.127 Y14.324 E4.02593
G1 X94.639 Y14.456 E4.04351
G1 X95.245 Y14.637 E4.06455
G1 X95.35 Y14.671 E4.06822
G1 X95.849 Y14.845 E4.0858
G1 X95.953 Y14.884 E4.08949
G1 X96.541 Y15.119 E4.11055
G1 X97.022 Y15.333 E4.12806
G1 X97.595 Y15.616 E4.14932
G1 X97.686 Y15.663 E4.15272
G1 X98.15 Y15.917 E4.17032
G1 X98.256 Y15.979 E4.1744
G1 X98.788 Y16.305 E4.19515
G1 X99.227 Y16.596 E4.21267
G1 X99.318 Y16.66 E4.21637
G1 X99.746 Y16.971 E4.23397
G1 X99.837 Y17.04 E4.23777
G1 X100.329 Y17.433 E4.25871
G1 X100.73 Y17.779 E4.27633
G1 X101.188 Y18.205 E4.29713
G1 X101.273 Y18.289 E4.30111
G1 X101.714 Y18.743 E4.32216
G1 X102.067 Y19.135 E4.3397
G1 X102.14 Y19.22 E4.34343
G1 X102.476 Y19.627 E4.36098
G1 X102.541 Y19.709 E4.36446
G1 X102.861 Y20.13 E4.38205
G1 X102.926 Y20.219 E4.38572
G1 X103.227 Y20.652 E4.40326
G1 X103.287 Y20.742 E4.40685
G1 X103.569 Y21.186 E4.42435
G1 X103.627 Y21.282 E4.42808
G1 X103.891 Y21.74 E4.44566
G1 X104.186 Y22.3 E4.46671
G1 X104.235 Y22.397 E4.47033
G1 X104.46 Y22.874 E4.48787
G1 X104.507 Y22.981 E4.49176
G1 X104.71 Y23.467 E4.50927
G1 X104.747 Y23.56 E4.5126
G1 X104.932 Y24.056 E4.53021
G1 X104.968 Y24.159 E4.53384
G1 X105.132 Y24.662 E4.55144
G1 X105.165 Y24.771 E4.55522
G1 X105.306 Y25.278 E4.57273
G1 X105.333 Y25.383 E4.57633
G1 X105.453 Y25.896 E4.59386
G1 X105.475 Y26.001 E4.59742
G1 X105.574 Y26.52 E4.615
G1 X105.591 Y26.622 E4.61844
G1 X105.669 Y27.143 E4.63596
G1 X105.684 Y27.258 E4.63982
G1 X105.739 Y27.784 E4.65741
G1 X105.748 Y27.891 E4.66098
G1 X105.781 Y28.417 E4.67851
G1 X105.785 Y28.526 E4.68213
G1 X105.796 Y29.054 E4.6997
G1 X105.796 Y29.162 E4.70329
G1 X105.785 Y29.689 E4.72082
G1 X105.781 Y29.794 E4.72432
G1 X105.749 Y30.317 E4.74175
G1 X105.74 Y30.432 E4.74558
G1 X105.684 Y30.961 E4.76328
G1 X105.67 Y31.071 E4.76696
G1 X105.592 Y31.594 E4.78455
G1 X105.479 Y32.207 E4.80528
G1 X105.452 Y32.331 E4.8095
G1 X105.305 Y32.943 E4.83044
G1 X105.163 Y33.45 E4.84795
G1 X104.969 Y34.054 E4.86905
G1 X104.934 Y34.156 E4.87264
G1 X104.75 Y34.652 E4.89023
G1 X104.709 Y34.756 E4.89395
G1 X104.505 Y35.241 E4.91145
G1 X104.235 Y35.818 E4.93264
G1 X104.185 Y35.919 E4.93639
G1 X103.94 Y36.386 E4.95393
G1 X103.888 Y36.481 E4.95753
G1 X103.624 Y36.937 E4.97505
G1 X103.573 Y37.021 E4.97832
G1 X103.291 Y37.468 E4.9959
G1 X103.223 Y37.571 E5.00001
G1 X102.921 Y38.003 E5.01754
G1 X102.545 Y38.503 E5.03835
G1 X102.474 Y38.593 E5.04216
G1 X102.138 Y38.999 E5.05969
G1 X101.716 Y39.471 E5.08074
G1 X101.638 Y39.555 E5.08456
G1 X101.266 Y39.934 E5.10222
G1 X101.191 Y40.007 E5.1057
G1 X100.806 Y40.369 E5.12328
G1 X100.718 Y40.448 E5.12721
G1 X100.317 Y40.792 E5.14478
G1 X99.831 Y41.181 E5.16549
G1 X99.739 Y41.252 E5.16935
G1 X99.313 Y41.561 E5.18686
G1 X99.223 Y41.623 E5.19049
G1 X98.781 Y41.916 E5.20813
G1 X98.687 Y41.975 E5.21182
G1 X98.236 Y42.247 E5.22934
G1 X98.147 Y42.298 E5.23275
G1 X97.684 Y42.553 E5.25033
G1 X97.591 Y42.602 E5.25383
G1 X97.118 Y42.838 E5.27141
G1 X97.01 Y42.889 E5.27538
G1 X96.529 Y43.102 E5.29288
G1 X96.431 Y43.143 E5.29641
G1 X95.94 Y43.337 E5.31397
G1 X95.841 Y43.374 E5.31749
G1 X95.342 Y43.548 E5.33506
G1 X95.234 Y43.583 E5.33884
G1 X94.728 Y43.735 E5.35641
G1 X94.627 Y43.763 E5.3599
G1 X94.117 Y43.894 E5.37741
G1 X94.008 Y43.92 E5.38114
G1 X93.493 Y44.029 E5.39865
G1 X93.388 Y44.049 E5.4022
G1 X92.867 Y44.137 E5.41977
G1 X92.759 Y44.153 E5.42341
G1 X92.235 Y44.219 E5.44097
G1 X92.127 Y44.23 E5.44458
G1 X91.601 Y44.274 E5.46214
G1 X91.497 Y44.281 E5.46561
G1 X90.969 Y44.304 E5.48318
G1 X90.856 Y44.306 E5.48694
G1 X90.329 Y44.306 E5.50447
G1 X90.215 Y44.304 E5.50826
G1 X89.689 Y44.281 E5.52577
G1 X89.06 Y44.23 E5.54676
G1 X88.951 Y44.219 E5.55041
G1 X88.427 Y44.153 E5.56797
G1 X88.313 Y44.136 E5.57181
G1 X87.793 Y44.047 E5.58935
G1 X87.174 Y43.917 E5.61039
G1 X87.069 Y43.893 E5.61397
G1 X86.558 Y43.762 E5.63152
G1 X85.949 Y43.58 E5.65266
G1 X85.844 Y43.546 E5.65633
G1 X85.345 Y43.372 E5.67391
G1 X85.241 Y43.333 E5.6776
G1 X84.75 Y43.138 E5.69517
G1 X84.651 Y43.096 E5.69875
G1 X84.169 Y42.881 E5.7163
G1 X84.069 Y42.834 E5.71998
G1 X83.505 Y42.552 E5.74095
G1 X83.042 Y42.298 E5.75852
G1 X82.943 Y42.24 E5.76233
G1 X82.492 Y41.966 E5.77988
G1 X82.405 Y41.911 E5.78331
G1 X81.966 Y41.62 E5.80082
G1 X81.875 Y41.556 E5.80453
G1 X81.447 Y41.245 E5.82212
G1 X81.358 Y41.178 E5.82583
G1 X80.945 Y40.85 E5.84337
G1 X80.859 Y40.779 E5.84708
G1 X80.461 Y40.434 E5.8646
G1 X80.006 Y40.01 E5.88528
G1 X79.921 Y39.927 E5.88923
G1 X79.48 Y39.473 E5.91028
G1 X79.058 Y39.002 E5.93132
G1 X78.721 Y38.596 E5.94887
G1 X78.331 Y38.084 E5.97027
G1 X78.267 Y37.996 E5.97389
G1 X77.966 Y37.562 E5.99146
G1 X77.908 Y37.475 E5.99494
G1 X77.625 Y37.03 E6.01248
G1 X77.566 Y36.933 E6.01625
G1 X77.302 Y36.475 E6.03384
G1 X77.008 Y35.917 E6.05481
G1 X76.959 Y35.818 E6.05849
G1 X76.734 Y35.34 E6.07606
G1 X76.689 Y35.239 E6.07974
G1 X76.485 Y34.753 E6.09727
G1 X76.446 Y34.655 E6.10078
G1 X76.262 Y34.161 E6.11831
G1 X76.225 Y34.055 E6.12204
G1 X76.062 Y33.552 E6.13963
G1 X76.031 Y33.449 E6.14321
G1 X75.862 Y32.838 E6.16429
