;FLAVOR:Marlin
;TIME:1929
;Filament used: 1.95021m
;Layer height: 0.3
;MINX:55.22
;MINY:107.1
;MINZ:0.2
;MAXX:179.777
;MAXY:127.9
;MAXZ:12.3
;Generated with Cura_SteamEngine master
M140 S30
M105
M190 S30
M104 S225
M105
M109 S225
M82 ;absolute extrusion mode
; Ender 3 Custom Start G-code
G92 E0 ; Reset Extruder
G28 ; Home all axes
G1 Z2.0 F3000 ; Move Z Axis up little to prevent scratching of Heat Bed
G1 X0.1 Y20 Z0.3 F5000.0 ; Move to start position
G1 X0.1 Y200.0 Z0.3 F1500.0 E15 ; Draw the first line
G1 X0.4 Y200.0 Z0.3 F5000.0 ; Move to side a little
G1 X0.4 Y20 Z0.3 F1500.0 E30 ; Draw the second line
G92 E0 ; Reset Extruder
G1 Z2.0 F3000 ; Move Z Axis up little to prevent scratching of Heat Bed
G1 X5 Y20 Z0.3 F5000.0 ; Move over to prevent blob squish
G92 E0
G92 E0
G1 F2700 E-5
;LAYER_COUNT:40
;LAYER:0
M106 S89.3
G1 F300 Z0.6
G0 F4800 X57.026 Y114.8 Z0.6
;TYPE:SKIRT
G1 F300 Z0.2
G1 F2700 E0
G1 F2100 X57.59 Y114.619 E0.0197
G1 X57.954 Y114.541 E0.03208
G1 X58.44 Y114.477 E0.04839
G1 X58.929 Y114.494 E0.06466
G1 X59.409 Y114.59 E0.08094
G1 X59.867 Y114.763 E0.09723
G1 X60.291 Y115.008 E0.11351
G1 X60.669 Y115.318 E0.12977
G1 X60.992 Y115.686 E0.14606
G1 X61.251 Y116.102 E0.16236
G1 X61.462 Y116.632 E0.18133
G1 X62.418 Y119.9 E0.29458
G1 X100.5 Y119.9 E1.56119
G1 X100.5 Y118.617 E1.60386
G1 X100.54 Y118.129 E1.62015
G1 X100.659 Y117.654 E1.63644
G1 X100.853 Y117.205 E1.65271
G1 X101.118 Y116.793 E1.669
G1 X101.376 Y116.5 E1.68198
G1 X101.062 Y116.131 E1.6981
G1 X100.81 Y115.711 E1.71439
G1 X100.63 Y115.256 E1.73066
G1 X100.526 Y114.778 E1.74693
G1 X100.5 Y114.383 E1.7601
G1 X100.5 Y110.217 E1.89866
G1 X100.54 Y109.729 E1.91495
G1 X100.659 Y109.254 E1.93123
G1 X100.853 Y108.805 E1.9475
G1 X101.118 Y108.393 E1.96379
G1 X101.379 Y108.096 E1.97695
G1 X101.496 Y107.979 E1.98245
G1 X101.869 Y107.662 E1.99873
G1 X102.289 Y107.41 E2.01502
G1 X102.744 Y107.23 E2.0313
G1 X103.222 Y107.126 E2.04757
G1 X103.617 Y107.1 E2.06073
G1 X131.383 Y107.1 E2.98423
G1 X131.871 Y107.14 E3.00052
G1 X132.346 Y107.259 E3.0168
G1 X132.795 Y107.453 E3.03307
G1 X133.207 Y107.718 E3.04937
G1 X133.504 Y107.979 E3.06252
G1 X133.621 Y108.096 E3.06802
G1 X133.938 Y108.469 E3.0843
G1 X134.19 Y108.889 E3.10059
G1 X134.37 Y109.344 E3.11687
G1 X134.474 Y109.822 E3.13314
G1 X134.5 Y110.217 E3.1463
G1 X134.5 Y114.383 E3.28486
G1 X134.46 Y114.871 E3.30115
G1 X134.341 Y115.346 E3.31744
G1 X134.147 Y115.795 E3.3337
G1 X133.882 Y116.207 E3.35
G1 X133.624 Y116.5 E3.36298
G1 X133.938 Y116.869 E3.3791
G1 X134.19 Y117.289 E3.39539
G1 X134.37 Y117.744 E3.41166
G1 X134.474 Y118.222 E3.42793
G1 X134.5 Y118.617 E3.4411
G1 X134.5 Y119.9 E3.48377
G1 X172.582 Y119.9 E4.75038
G1 X173.538 Y116.632 E4.86363
G1 X173.713 Y116.175 E4.87991
G1 X173.96 Y115.752 E4.8962
G1 X174.273 Y115.376 E4.91247
G1 X174.643 Y115.055 E4.92877
G1 X175.06 Y114.799 E4.94504
G1 X175.513 Y114.614 E4.96132
G1 X175.99 Y114.505 E4.97759
G1 X176.479 Y114.475 E4.99388
G1 X177.046 Y114.541 E5.01287
G1 X177.41 Y114.619 E5.02525
G1 X177.878 Y114.76 E5.04151
G1 X178.318 Y114.975 E5.0578
G1 X178.716 Y115.26 E5.07408
G1 X179.063 Y115.605 E5.09035
G1 X179.35 Y116.002 E5.10665
G1 X179.567 Y116.44 E5.1229
G1 X179.711 Y116.908 E5.13919
G1 X179.777 Y117.393 E5.15547
G1 X179.749 Y117.986 E5.17522
G1 X178.971 Y123.312 E5.35424
G1 X178.835 Y123.869 E5.37331
G1 X178.821 Y123.909 E5.37472
G1 X178.579 Y124.431 E5.39386
G1 X177.452 Y126.36 E5.46816
G1 X177.172 Y126.761 E5.48443
G1 X176.83 Y127.112 E5.50073
G1 X176.335 Y127.46 E5.52085
G1 X176.241 Y127.513 E5.52444
G1 X175.797 Y127.718 E5.54071
G1 X175.325 Y127.848 E5.55699
G1 X174.768 Y127.9 E5.5756
G1 X60.232 Y127.9 E9.38508
G1 X59.744 Y127.86 E9.40137
G1 X59.269 Y127.741 E9.41765
G1 X58.759 Y127.513 E9.43623
G1 X58.665 Y127.46 E9.43982
G1 X58.259 Y127.186 E9.45611
G1 X57.904 Y126.849 E9.47239
G1 X57.548 Y126.36 E9.49251
G1 X56.421 Y124.431 E9.56682
G1 X56.179 Y123.909 E9.58595
G1 X56.165 Y123.869 E9.58736
G1 X56.029 Y123.312 E9.60643
G1 X55.251 Y117.986 E9.78546
G1 X55.22 Y117.497 E9.80175
G1 X55.268 Y117.01 E9.81803
G1 X55.396 Y116.537 E9.83433
G1 X55.598 Y116.092 E9.85058
G1 X55.871 Y115.685 E9.86688
G1 X56.206 Y115.328 E9.88317
G1 X56.594 Y115.03 E9.89944
G1 X57.026 Y114.8 E9.91572
G0 F4800 X57.001 Y115.255
G1 F2100 X57.421 Y115.078 E9.93088
G1 X57.674 Y115.01 E9.93959
G1 X58.038 Y114.932 E9.95197
G1 X58.49 Y114.876 E9.96712
G1 X58.945 Y114.899 E9.98227
G1 X59.389 Y115.002 E9.99743
G1 X59.808 Y115.181 E10.01259
G1 X60.19 Y115.43 E10.02775
G1 X60.522 Y115.742 E10.0429
G1 X60.795 Y116.107 E10.05806
G1 X60.999 Y116.514 E10.07321
G1 X61.078 Y116.744 E10.0813
G1 X62.118 Y120.3 E10.20452
G1 X100.9 Y120.3 E11.49442
G1 X100.9 Y118.617 E11.55039
G1 X100.94 Y118.163 E11.56555
G1 X101.058 Y117.723 E11.5807
G1 X101.252 Y117.311 E11.59585
G1 X101.662 Y116.779 E11.61819
G1 X101.779 Y116.662 E11.62369
G1 X101.98 Y116.493 E11.63243
G1 X101.779 Y116.338 E11.64087
G1 X101.662 Y116.221 E11.64637
G1 X101.369 Y115.872 E11.66153
G1 X101.142 Y115.477 E11.67668
G1 X100.987 Y115.049 E11.69182
G1 X100.9 Y114.383 E11.71416
G1 X100.9 Y110.217 E11.85272
G1 X100.94 Y109.763 E11.86788
G1 X101.058 Y109.323 E11.88303
G1 X101.252 Y108.911 E11.89818
G1 X101.662 Y108.379 E11.92052
G1 X101.779 Y108.262 E11.92602
G1 X102.128 Y107.969 E11.94118
G1 X102.523 Y107.742 E11.95633
G1 X102.951 Y107.587 E11.97147
G1 X103.617 Y107.5 E11.99381
G1 X131.383 Y107.5 E12.91731
G1 X131.837 Y107.54 E12.93247
G1 X132.277 Y107.658 E12.94762
G1 X132.689 Y107.852 E12.96277
G1 X133.221 Y108.262 E12.98511
G1 X133.338 Y108.379 E12.99061
G1 X133.631 Y108.728 E13.00577
G1 X133.858 Y109.123 E13.02092
G1 X134.013 Y109.551 E13.03606
G1 X134.1 Y110.217 E13.0584
G1 X134.1 Y114.383 E13.19696
G1 X134.06 Y114.837 E13.21212
G1 X133.942 Y115.277 E13.22727
G1 X133.748 Y115.689 E13.24242
G1 X133.338 Y116.221 E13.26476
G1 X133.221 Y116.338 E13.27026
G1 X133.02 Y116.507 E13.279
G1 X133.221 Y116.662 E13.28744
G1 X133.338 Y116.779 E13.29294
G1 X133.631 Y117.128 E13.3081
G1 X133.858 Y117.523 E13.32325
G1 X134.013 Y117.951 E13.33839
G1 X134.1 Y118.617 E13.36073
G1 X134.1 Y120.3 E13.41671
G1 X172.882 Y120.3 E14.7066
G1 X173.922 Y116.744 E14.82983
G1 X174.087 Y116.32 E14.84496
G1 X174.325 Y115.931 E14.86013
G1 X174.626 Y115.589 E14.87528
G1 X174.983 Y115.305 E14.89045
G1 X175.383 Y115.088 E14.90559
G1 X175.816 Y114.945 E14.92076
G1 X176.266 Y114.878 E14.93589
G1 X176.722 Y114.892 E14.95106
G1 X176.962 Y114.932 E14.95915
G1 X177.326 Y115.01 E14.97154
G1 X177.761 Y115.144 E14.98668
G1 X178.167 Y115.352 E15.00185
G1 X178.529 Y115.628 E15.01699
G1 X178.838 Y115.962 E15.03212
G1 X179.084 Y116.346 E15.04729
G1 X179.26 Y116.767 E15.06247
G1 X179.359 Y117.211 E15.0776
G1 X179.378 Y117.666 E15.09274
G1 X179.354 Y117.928 E15.10149
G1 X178.576 Y123.254 E15.28052
G1 X178.457 Y123.737 E15.29706
G1 X178.443 Y123.777 E15.29847
G1 X178.234 Y124.23 E15.31507
G1 X177.107 Y126.159 E15.38937
G1 X176.844 Y126.53 E15.4045
G1 X176.519 Y126.85 E15.41967
G1 X176.139 Y127.112 E15.43502
G1 X176.045 Y127.165 E15.43861
G1 X175.63 Y127.353 E15.45376
G1 X175.189 Y127.466 E15.4689
G1 X174.768 Y127.5 E15.48295
G1 X60.232 Y127.5 E19.29243
G1 X59.778 Y127.46 E19.30759
G1 X59.338 Y127.342 E19.32274
G1 X58.955 Y127.165 E19.33678
G1 X58.861 Y127.112 E19.34037
G1 X58.485 Y126.854 E19.35553
G1 X58.16 Y126.535 E19.37068
G1 X57.893 Y126.159 E19.38602
G1 X56.766 Y124.23 E19.46032
G1 X56.557 Y123.777 E19.47692
G1 X56.543 Y123.737 E19.47833
G1 X56.424 Y123.254 E19.49487
G1 X55.646 Y117.928 E19.6739
G1 X55.62 Y117.473 E19.68905
G1 X55.674 Y117.02 E19.70423
G1 X55.806 Y116.584 E19.71938
G1 X56.012 Y116.178 E19.73452
G1 X56.286 Y115.814 E19.74967
G1 X56.619 Y115.503 E19.76483
G1 X57.001 Y115.255 E19.77998
G0 F4800 X57.402 Y115.509
G1 F2100 X57.758 Y115.401 E19.79235
G1 X58.122 Y115.323 E19.80473
G1 X58.538 Y115.274 E19.81866
G1 X58.956 Y115.306 E19.83261
G1 X59.36 Y115.416 E19.84653
G1 X59.737 Y115.601 E19.8605
G1 X60.071 Y115.853 E19.87442
G1 X60.351 Y116.165 E19.88836
G1 X60.567 Y116.524 E19.90229
G1 X60.695 Y116.856 E19.91413
G1 X61.819 Y120.7 E20.04734
G1 X101.3 Y120.7 E21.36048
G1 X101.3 Y118.617 E21.42976
G1 X101.34 Y118.2 E21.44369
G1 X101.458 Y117.798 E21.45763
G1 X101.651 Y117.426 E21.47157
G1 X101.944 Y117.061 E21.48713
G1 X102.061 Y116.944 E21.49264
G1 X102.385 Y116.678 E21.50658
G1 X102.713 Y116.498 E21.51902
G1 X102.426 Y116.349 E21.52978
G1 X102.061 Y116.056 E21.54535
G1 X101.944 Y115.939 E21.55085
G1 X101.678 Y115.615 E21.56479
G1 X101.477 Y115.248 E21.57871
G1 X101.35 Y114.848 E21.59267
G1 X101.3 Y114.383 E21.60822
G1 X101.3 Y110.217 E21.74679
G1 X101.34 Y109.8 E21.76072
G1 X101.458 Y109.398 E21.77465
G1 X101.651 Y109.026 E21.78859
G1 X101.944 Y108.661 E21.80416
G1 X102.061 Y108.544 E21.80966
G1 X102.385 Y108.278 E21.82361
G1 X102.752 Y108.077 E21.83752
G1 X103.152 Y107.95 E21.85148
G1 X103.617 Y107.9 E21.86704
G1 X131.383 Y107.9 E22.79054
G1 X131.8 Y107.94 E22.80447
G1 X132.202 Y108.058 E22.81841
G1 X132.574 Y108.251 E22.83234
G1 X132.939 Y108.544 E22.84791
G1 X133.056 Y108.661 E22.85342
G1 X133.322 Y108.985 E22.86736
G1 X133.523 Y109.352 E22.88128
G1 X133.65 Y109.752 E22.89523
G1 X133.7 Y110.217 E22.91079
G1 X133.7 Y114.383 E23.04935
G1 X133.66 Y114.8 E23.06328
G1 X133.542 Y115.202 E23.07722
G1 X133.349 Y115.574 E23.09116
G1 X133.056 Y115.939 E23.10672
G1 X132.939 Y116.056 E23.11223
G1 X132.615 Y116.322 E23.12617
G1 X132.287 Y116.502 E23.13861
G1 X132.574 Y116.651 E23.14937
G1 X132.939 Y116.944 E23.16494
G1 X133.056 Y117.061 E23.17044
G1 X133.322 Y117.385 E23.18438
G1 X133.523 Y117.752 E23.1983
G1 X133.65 Y118.152 E23.21226
G1 X133.7 Y118.617 E23.22781
G1 X133.7 Y120.7 E23.2971
G1 X173.181 Y120.7 E24.61024
G1 X174.305 Y116.856 E24.74344
G1 X174.461 Y116.467 E24.75738
G1 X174.687 Y116.115 E24.7713
G1 X174.976 Y115.811 E24.78525
G1 X175.318 Y115.568 E24.7992
G1 X175.699 Y115.394 E24.81313
G1 X176.106 Y115.296 E24.82706
G1 X176.525 Y115.277 E24.84101
G1 X176.878 Y115.323 E24.85285
G1 X177.242 Y115.401 E24.86523
G1 X177.641 Y115.527 E24.87915
G1 X178.01 Y115.727 E24.89311
G1 X178.334 Y115.993 E24.90705
G1 X178.601 Y116.316 E24.92099
G1 X178.802 Y116.683 E24.9349
G1 X178.93 Y117.082 E24.94884
G1 X178.98 Y117.498 E24.96278
G1 X178.958 Y117.87 E24.97517
G1 X178.18 Y123.196 E25.15419
G1 X178.079 Y123.605 E25.16821
G1 X178.065 Y123.645 E25.16962
G1 X177.889 Y124.028 E25.18364
G1 X176.762 Y125.957 E25.25794
G1 X176.517 Y126.297 E25.27188
G1 X176.212 Y126.584 E25.28581
G1 X175.943 Y126.763 E25.29656
G1 X175.849 Y126.816 E25.30015
G1 X175.466 Y126.986 E25.31408
G1 X175.057 Y127.081 E25.32805
G1 X174.768 Y127.1 E25.33768
G1 X60.232 Y127.1 E29.14716
G1 X59.815 Y127.06 E29.1611
G1 X59.413 Y126.942 E29.17503
G1 X59.151 Y126.816 E29.1847
G1 X59.057 Y126.763 E29.18829
G1 X58.714 Y126.524 E29.20219
G1 X58.422 Y126.223 E29.21614
G1 X58.238 Y125.957 E29.2269
G1 X57.111 Y124.028 E29.30121
G1 X56.935 Y123.645 E29.31523
G1 X56.921 Y123.605 E29.31664
G1 X56.82 Y123.196 E29.33065
G1 X56.042 Y117.87 E29.50967
G1 X56.021 Y117.451 E29.52362
G1 X56.08 Y117.037 E29.53753
G1 X56.217 Y116.64 E29.5515
G1 X56.426 Y116.277 E29.56543
G1 X56.7 Y115.96 E29.57937
G1 X57.029 Y115.701 E29.5933
G1 X57.402 Y115.509 E29.60725
G0 F4800 X57.435 Y115.931
G1 F2100 X57.842 Y115.792 E29.62155
G1 X58.206 Y115.714 E29.63394
G1 X58.583 Y115.674 E29.64654
G1 X58.96 Y115.714 E29.65915
G1 X59.32 Y115.832 E29.67175
G1 X59.647 Y116.022 E29.68433
G1 X59.928 Y116.277 E29.69695
G1 X60.148 Y116.585 E29.70954
G1 X60.311 Y116.969 E29.72342
G1 X61.519 Y121.1 E29.86657
G1 X101.7 Y121.1 E31.203
G1 X101.7 Y118.617 E31.28558
G1 X101.74 Y118.24 E31.29819
G1 X101.858 Y117.88 E31.31079
G1 X102.048 Y117.553 E31.32337
G1 X102.227 Y117.344 E31.33252
G1 X102.344 Y117.227 E31.33802
G1 X102.639 Y116.989 E31.35063
G1 X102.977 Y116.818 E31.36323
G1 X103.343 Y116.721 E31.37582
G1 X103.617 Y116.7 E31.38496
G1 X104.075 Y116.7 E31.4002
G1 X104.003 Y116.3 E31.41371
G1 X103.617 Y116.3 E31.42655
G1 X103.24 Y116.26 E31.43916
G1 X102.88 Y116.142 E31.45176
G1 X102.553 Y115.952 E31.46434
G1 X102.344 Y115.773 E31.47349
G1 X102.227 Y115.656 E31.479
G1 X101.989 Y115.361 E31.4916
G1 X101.818 Y115.023 E31.5042
G1 X101.721 Y114.657 E31.5168
G1 X101.7 Y114.383 E31.52594
G1 X101.7 Y110.217 E31.6645
G1 X101.74 Y109.84 E31.67711
G1 X101.858 Y109.48 E31.68971
G1 X102.048 Y109.153 E31.70229
G1 X102.227 Y108.944 E31.71144
G1 X102.344 Y108.827 E31.71694
G1 X102.639 Y108.589 E31.72955
G1 X102.977 Y108.418 E31.74215
G1 X103.343 Y108.321 E31.75474
G1 X103.617 Y108.3 E31.76388
G1 X131.383 Y108.3 E32.68738
G1 X131.76 Y108.34 E32.69999
G1 X132.12 Y108.458 E32.71259
G1 X132.447 Y108.648 E32.72517
G1 X132.656 Y108.827 E32.73432
G1 X132.773 Y108.944 E32.73983
G1 X133.011 Y109.239 E32.75243
G1 X133.182 Y109.577 E32.76503
G1 X133.279 Y109.943 E32.77763
G1 X133.3 Y110.217 E32.78677
G1 X133.3 Y114.383 E32.92533
G1 X133.26 Y114.76 E32.93794
G1 X133.142 Y115.12 E32.95054
G1 X132.952 Y115.447 E32.96312
G1 X132.773 Y115.656 E32.97227
G1 X132.656 Y115.773 E32.97777
G1 X132.361 Y116.011 E32.99038
G1 X132.023 Y116.182 E33.00298
G1 X131.657 Y116.279 E33.01557
G1 X131.383 Y116.3 E33.02471
G1 X130.997 Y116.3 E33.03755
G1 X130.925 Y116.7 E33.05107
G1 X131.383 Y116.7 E33.0663
G1 X131.76 Y116.74 E33.07891
G1 X132.12 Y116.858 E33.09151
G1 X132.447 Y117.048 E33.10409
G1 X132.656 Y117.227 E33.11324
G1 X132.773 Y117.344 E33.11874
G1 X133.011 Y117.639 E33.13135
G1 X133.182 Y117.977 E33.14395
G1 X133.279 Y118.343 E33.15654
G1 X133.3 Y118.617 E33.16568
G1 X133.3 Y121.1 E33.24827
G1 X173.481 Y121.1 E34.58469
G1 X174.689 Y116.969 E34.72785
G1 X174.833 Y116.618 E34.74046
G1 X175.048 Y116.306 E34.75307
G1 X175.323 Y116.045 E34.76568
G1 X175.646 Y115.847 E34.77828
G1 X176.004 Y115.722 E34.79089
G1 X176.38 Y115.674 E34.8035
G1 X176.794 Y115.714 E34.81733
G1 X177.158 Y115.792 E34.82971
G1 X177.518 Y115.91 E34.84231
G1 X177.846 Y116.101 E34.85494
G1 X178.126 Y116.356 E34.86753
G1 X178.347 Y116.664 E34.88014
G1 X178.498 Y117.011 E34.89273
G1 X178.573 Y117.383 E34.90535
G1 X178.562 Y117.812 E34.91962
G1 X177.784 Y123.138 E35.09865
G1 X177.702 Y123.473 E35.11012
G1 X177.688 Y123.513 E35.11153
G1 X177.543 Y123.826 E35.123
G1 X176.416 Y125.755 E35.19731
G1 X176.192 Y126.06 E35.20989
G1 X175.908 Y126.312 E35.22252
G1 X175.652 Y126.468 E35.23249
G1 X175.304 Y126.618 E35.2451
G1 X174.768 Y126.7 E35.26313
G1 X60.232 Y126.7 E39.07261
G1 X59.855 Y126.66 E39.08522
G1 X59.348 Y126.468 E39.10325
G1 X59.254 Y126.415 E39.10684
G1 X58.945 Y126.195 E39.11946
G1 X58.689 Y125.916 E39.13205
G1 X58.584 Y125.755 E39.13845
G1 X57.457 Y123.826 E39.21275
G1 X57.312 Y123.513 E39.22423
G1 X57.298 Y123.473 E39.22564
G1 X57.216 Y123.138 E39.23711
G1 X56.438 Y117.812 E39.41613
G1 X56.423 Y117.434 E39.42871
G1 X56.488 Y117.06 E39.44134
G1 X56.629 Y116.709 E39.45392
G1 X56.841 Y116.394 E39.46655
G1 X57.114 Y116.131 E39.47916
G1 X57.435 Y115.931 E39.49174
G0 F4800 X57.523 Y116.337
G1 F2100 X57.926 Y116.183 E39.50609
G1 X58.29 Y116.105 E39.51847
G1 X58.622 Y116.075 E39.52955
G1 X58.953 Y116.124 E39.54068
G1 X59.262 Y116.25 E39.55178
G1 X59.533 Y116.446 E39.56291
G1 X59.749 Y116.7 E39.574
G1 X59.927 Y117.081 E39.58798
G1 X61.219 Y121.5 E39.74111
G1 X102.1 Y121.5 E41.10082
G1 X102.1 Y118.617 E41.19671
G1 X102.14 Y118.285 E41.20783
G1 X102.257 Y117.973 E41.21891
G1 X102.51 Y117.627 E41.23317
G1 X102.627 Y117.51 E41.23867
G1 X102.89 Y117.304 E41.24978
G1 X103.194 Y117.165 E41.2609
G1 X103.617 Y117.1 E41.27514
G1 X104.556 Y117.1 E41.30637
G1 X104.346 Y115.951 E41.34522
G1 X104.343 Y115.9 E41.34692
G1 X103.617 Y115.9 E41.37106
G1 X103.285 Y115.86 E41.38219
G1 X102.973 Y115.743 E41.39327
G1 X102.627 Y115.49 E41.40752
G1 X102.51 Y115.373 E41.41303
G1 X102.304 Y115.11 E41.42414
G1 X102.165 Y114.806 E41.43526
G1 X102.1 Y114.383 E41.44949
G1 X102.1 Y110.217 E41.58805
G1 X102.14 Y109.885 E41.59918
G1 X102.257 Y109.573 E41.61026
G1 X102.51 Y109.227 E41.62451
G1 X102.627 Y109.11 E41.63002
G1 X102.89 Y108.904 E41.64113
G1 X103.194 Y108.765 E41.65225
G1 X103.617 Y108.7 E41.66648
G1 X131.383 Y108.7 E42.58998
G1 X131.715 Y108.74 E42.6011
