;FLAVOR:Marlin
;TIME:453
;Filament used: 0.407751m
;Layer height: 0.3
;MINX:112.116
;MINY:43.1
;MINZ:0.2
;MAXX:123.303
;MAXY:63.1
;MAXZ:12.1
;Generated with Cura_SteamEngine master
M140 S30
M105
M190 S30
M104 S218
M105
M109 S218
M82 ;absolute extrusion mode
; Ender 3 Custom Start G-code
G92 E0 ; Reset Extruder
G28 ; Home all axes
G1 Z2.0 F3000 ; Move Z Axis up little to prevent scratching of Heat Bed
G1 X0.1 Y20 Z0.3 F5000.0 ; Move to start position
G1 X0.1 Y200.0 Z0.3 F1500.0 E15 ; Draw the first line
G1 X0.4 Y200.0 Z0.3 F5000.0 ; Move to side a little
G1 X0.4 Y20 Z0.3 F1500.0 E30 ; Draw the second line
G92 E0 ; Reset Extruder
G1 Z2.0 F3000 ; Move Z Axis up little to prevent scratching of Heat Bed
G1 X5 Y20 Z0.3 F5000.0 ; Move over to prevent blob squish
G92 E0
G92 E0
G1 F2700 E-5
;LAYER_COUNT:40
;LAYER:0
M107
G1 F300 Z0.4
G0 F4800 X121.491 Y44.9 Z0.4
;TYPE:SKIRT
G1 F300 Z0.2
G1 F2700 E0
G1 F2100 X121.504 Y44.9 E0.00043
G1 X121.504 Y61.3 E0.5459
G1 X121.492 Y61.3 E0.5463
G1 X121.491 Y44.9 E1.09176
G0 F4800 X121.091 Y44.5
G1 F2100 X121.904 Y44.5 E1.1188
G1 X121.904 Y61.7 E1.69088
G1 X121.092 Y61.7 E1.71789
G1 X121.091 Y44.5 E2.28996
G0 F4800 X120.691 Y44.1
G1 F2100 X122.304 Y44.1 E2.34361
G1 X122.304 Y62.1 E2.94229
G1 X120.692 Y62.1 E2.99591
G1 X120.691 Y44.1 E3.59459
G0 F4800 X120.291 Y43.7
G1 F2100 X122.704 Y43.7 E3.67485
G1 X122.704 Y62.5 E4.30014
G1 X120.292 Y62.5 E4.38036
G1 X120.291 Y43.7 E5.00565
G0 F4800 X119.891 Y43.3
G1 F2100 X123.104 Y43.3 E5.11252
G1 X123.104 Y62.9 E5.76441
G1 X119.892 Y62.9 E5.87125
G1 X119.891 Y43.3 E6.52314
G1 F2700 E1.52314
G1 F300 Z0.4
;MESH:ClawLimitSwitch_Y.stl
G0 F4800 X116.58 Y61.3 Z0.4
;TYPE:WALL-INNER
G1 F300 Z0.2
G1 F2700 E6.52314
G1 F1800 X115.029 Y61.3 E6.57473
G1 X115.028 Y44.9 E7.1202
G1 X116.579 Y44.9 E7.17178
G1 X116.58 Y61.3 E7.71725
G0 F4800 X116.98 Y61.7
G1 F1800 X114.629 Y61.7 E7.79544
G1 X114.628 Y44.5 E8.36752
G1 X116.979 Y44.5 E8.44571
G1 X116.98 Y61.7 E9.01779
G0 F4800 X117.38 Y62.1
G1 F1800 X114.229 Y62.1 E9.12259
G1 X114.228 Y44.1 E9.72127
G1 X117.379 Y44.1 E9.82607
G1 X117.38 Y62.1 E10.42476
G0 F4800 X117.78 Y62.5
G1 F1800 X113.829 Y62.5 E10.55617
G1 X113.828 Y43.7 E11.18146
G1 X117.779 Y43.7 E11.31287
G1 X117.78 Y62.5 E11.93816
G0 F4800 X118.18 Y62.9
;TYPE:WALL-OUTER
G1 F1800 X113.429 Y62.9 E12.09618
G1 X113.428 Y43.3 E12.74808
G1 X118.179 Y43.3 E12.9061
G1 X118.18 Y62.9 E13.558
G1 F2700 E8.558
G1 F300 Z0.4
G0 F4800 X116.19 Y60.91 Z0.4
;TYPE:SKIN
G1 F300 Z0.2
G1 F2700 E13.558
G1 F1800 X115.419 Y60.91 E13.58364
G1 X115.418 Y45.29 E14.10316
G1 X116.189 Y45.29 E14.12881
G1 X116.19 Y60.91 E14.64833
G0 F4800 X116.029 Y60.591
G1 F1800 X115.577 Y60.14 E14.66957
G0 F4800 X116.029 Y60.026
G1 F1800 X115.577 Y59.574 E14.69083
G0 F4800 X116.029 Y59.46
G1 F1800 X115.577 Y59.008 E14.71209
G0 F4800 X116.029 Y58.894
G1 F1800 X115.577 Y58.443 E14.73332
G0 F4800 X116.029 Y58.329
G1 F1800 X115.577 Y57.877 E14.75459
G0 F4800 X116.029 Y57.763
G1 F1800 X115.577 Y57.311 E14.77585
G0 F4800 X116.029 Y57.197
G1 F1800 X115.577 Y56.746 E14.79708
G0 F4800 X116.029 Y56.632
G1 F1800 X115.577 Y56.18 E14.81834
G0 F4800 X116.029 Y56.066
G1 F1800 X115.577 Y55.614 E14.8396
G0 F4800 X116.029 Y55.5
G1 F1800 X115.577 Y55.048 E14.86087
G0 F4800 X116.029 Y54.935
G1 F1800 X115.577 Y54.483 E14.88213
G0 F4800 X116.029 Y54.369
G1 F1800 X115.577 Y53.917 E14.90339
G0 F4800 X116.029 Y53.803
G1 F1800 X115.577 Y53.351 E14.92465
G0 F4800 X116.029 Y53.238
G1 F1800 X115.576 Y52.785 E14.94596
G0 F4800 X116.028 Y52.671
G1 F1800 X115.576 Y52.219 E14.96722
G0 F4800 X116.028 Y52.105
G1 F1800 X115.576 Y51.654 E14.98845
G0 F4800 X116.028 Y51.54
G1 F1800 X115.576 Y51.088 E15.00971
G0 F4800 X116.028 Y50.974
G1 F1800 X115.576 Y50.522 E15.03097
G0 F4800 X116.028 Y50.408
G1 F1800 X115.576 Y49.957 E15.05221
G0 F4800 X116.028 Y49.843
G1 F1800 X115.576 Y49.391 E15.07347
G0 F4800 X116.028 Y49.277
G1 F1800 X115.576 Y48.825 E15.09473
G0 F4800 X116.028 Y48.711
G1 F1800 X115.576 Y48.26 E15.11597
G0 F4800 X116.028 Y48.146
G1 F1800 X115.576 Y47.694 E15.13723
G0 F4800 X116.028 Y47.58
G1 F1800 X115.576 Y47.128 E15.15849
G0 F4800 X116.028 Y47.014
G1 F1800 X115.576 Y46.562 E15.17975
G0 F4800 X116.028 Y46.449
G1 F1800 X115.576 Y45.997 E15.20101
G0 F4800 X116.028 Y45.883
G1 F1800 X115.594 Y45.449 E15.22143
G1 F2700 E10.22143
G1 F300 Z0.4
;MESH:NONMESH
G0 F4800 X119.891 Y43.3 Z0.4
;TIME_ELAPSED:24.063671
;LAYER:1
M106 S10.2
G0 F6000 X119.891 Y43.3 Z0.7
;TYPE:SUPPORT
G1 F300 Z0.5
G1 F2700 E15.22143
G1 F2250 X123.104 Y43.3 E15.38172
G1 X123.104 Y62.9 E16.35957
G1 X119.892 Y62.9 E16.51982
G1 X119.891 Y43.3 E17.49767
G0 F6000 X119.971 Y43.632
G1 F2250 X123.024 Y43.632 E17.64998
G1 F2700 E12.64998
G1 F300 Z0.7
G0 F6000 X121.2 Y43.38 Z0.7
G1 F300 Z0.5
G1 F2700 E17.64998
G1 F2250 X121.2 Y62.82 E18.61985
G1 F2700 E13.61985
G1 F300 Z0.7
G0 F6000 X119.971 Y60.6 Z0.7
G1 F300 Z0.5
G1 F2700 E18.61985
G1 F2250 X123.024 Y60.6 E18.77216
G1 F2700 E13.77216
G1 F300 Z0.7
G0 F6000 X123.024 Y58.176 Z0.7
G1 F300 Z0.5
G1 F2700 E18.77216
G1 F2250 X119.971 Y58.176 E18.92448
G1 F2700 E13.92448
G1 F300 Z0.7
G0 F6000 X119.971 Y55.752 Z0.7
G1 F300 Z0.5
G1 F2700 E18.92448
G1 F2250 X123.024 Y55.752 E19.07679
G1 F2700 E14.07679
G1 F300 Z0.7
G0 F6000 X123.024 Y53.328 Z0.7
G1 F300 Z0.5
G1 F2700 E19.07679
G1 F2250 X119.971 Y53.328 E19.22911
G1 F2700 E14.22911
G1 F300 Z0.7
G0 F6000 X119.971 Y50.904 Z0.7
G1 F300 Z0.5
G1 F2700 E19.22911
G1 F2250 X123.024 Y50.904 E19.38142
G1 F2700 E14.38142
G1 F300 Z0.7
G0 F6000 X123.024 Y48.48 Z0.7
G1 F300 Z0.5
G1 F2700 E19.38142
G1 F2250 X119.971 Y48.48 E19.53374
G1 F2700 E14.53374
G1 F300 Z0.7
G0 F6000 X119.971 Y46.056 Z0.7
G1 F300 Z0.5
G1 F2700 E19.53374
G1 F2250 X123.024 Y46.056 E19.68605
G1 F2700 E14.68605
G1 F300 Z0.7
;MESH:ClawLimitSwitch_Y.stl
G0 F6000 X116.767 Y61.3 Z0.7
;TYPE:WALL-INNER
G1 F300 Z0.5
G1 F2700 E19.68605
G1 F2250 X114.842 Y61.3 E19.78209
G1 X114.841 Y44.9 E20.60029
G1 X116.766 Y44.9 E20.69633
G1 X116.767 Y61.3 E21.51453
G0 F6000 X117.167 Y61.7
G1 F2250 X114.442 Y61.7 E21.65048
G1 X114.441 Y44.5 E22.50859
G1 X117.166 Y44.5 E22.64454
G1 X117.167 Y61.7 E23.50265
G0 F6000 X117.567 Y62.1
G1 F2250 X114.042 Y62.1 E23.67851
G1 X114.041 Y44.1 E24.57654
G1 X117.566 Y44.1 E24.7524
G1 X117.567 Y62.1 E25.65043
G0 F6000 X117.967 Y62.5
G1 F2250 X113.642 Y62.5 E25.8662
G1 X113.641 Y43.7 E26.80414
G1 X117.966 Y43.7 E27.01991
G1 X117.967 Y62.5 E27.95785
G0 F6000 X118.367 Y62.9
;TYPE:WALL-OUTER
G1 F2250 X113.242 Y62.9 E28.21353
G1 X113.241 Y43.3 E29.19138
G1 X118.366 Y43.3 E29.44707
G1 X118.367 Y62.9 E30.42492
G1 F2700 E25.42492
G1 F300 Z0.7
G0 F6000 X116.377 Y60.91 Z0.7
;TYPE:SKIN
G1 F300 Z0.5
G1 F2700 E30.42492
G1 F2100 X115.232 Y60.91 E30.48204
G1 X115.231 Y45.29 E31.26133
G1 X116.376 Y45.29 E31.31845
G1 X116.377 Y60.91 E32.09774
G0 F6000 X116.215 Y60.278
G1 F2100 X115.743 Y60.75 E32.13104
G0 F6000 X115.391 Y60.536
G1 F2100 X116.215 Y59.712 E32.18918
G0 F6000 X116.215 Y59.146
G1 F2100 X115.391 Y59.971 E32.24735
G0 F6000 X115.391 Y59.405
G1 F2100 X116.215 Y58.58 E32.30552
G0 F6000 X116.215 Y58.015
G1 F2100 X115.391 Y58.839 E32.36366
G0 F6000 X115.391 Y58.274
G1 F2100 X116.215 Y57.449 E32.42183
G0 F6000 X116.215 Y56.883
G1 F2100 X115.391 Y57.708 E32.48001
G0 F6000 X115.391 Y57.142
G1 F2100 X116.215 Y56.318 E32.53814
G0 F6000 X116.215 Y55.752
G1 F2100 X115.391 Y56.577 E32.59632
G0 F6000 X115.391 Y56.011
G1 F2100 X116.215 Y55.186 E32.65449
G0 F6000 X116.215 Y54.621
G1 F2100 X115.391 Y55.445 E32.71263
G0 F6000 X115.391 Y54.879
G1 F2100 X116.215 Y54.055 E32.77076
G0 F6000 X116.215 Y53.489
G1 F2100 X115.391 Y54.314 E32.82894
G0 F6000 X115.391 Y53.748
G1 F2100 X116.215 Y52.924 E32.88707
G0 F6000 X116.215 Y52.358
G1 F2100 X115.391 Y53.182 E32.94521
G0 F6000 X115.39 Y52.617
G1 F2100 X116.215 Y51.792 E33.00342
G0 F6000 X116.215 Y51.227
G1 F2100 X115.39 Y52.052 E33.06163
G0 F6000 X115.39 Y51.486
G1 F2100 X116.215 Y50.661 E33.11984
G0 F6000 X116.215 Y50.095
G1 F2100 X115.39 Y50.92 E33.17805
G0 F6000 X115.39 Y50.355
G1 F2100 X116.215 Y49.53 E33.23625
G0 F6000 X116.215 Y48.964
G1 F2100 X115.39 Y49.789 E33.29446
G0 F6000 X115.39 Y49.223
G1 F2100 X116.215 Y48.398 E33.35267
G0 F6000 X116.215 Y47.832
G1 F2100 X115.39 Y48.658 E33.41091
G0 F6000 X115.39 Y48.092
G1 F2100 X116.215 Y47.267 E33.46912
G0 F6000 X116.215 Y46.701
G1 F2100 X115.39 Y47.526 E33.52733
G0 F6000 X115.39 Y46.961
G1 F2100 X116.215 Y46.135 E33.58557
G0 F6000 X116.215 Y45.57
G1 F2100 X115.39 Y46.395 E33.64378
G0 F6000 X115.39 Y45.829
G1 F2100 X115.77 Y45.449 E33.67059
G1 F2700 E28.67059
G1 F300 Z0.7
;MESH:NONMESH
G0 F6000 X119.891 Y43.3 Z0.7
;TIME_ELAPSED:43.615869
;LAYER:2
M106 S20.4
G0 F7200 X119.891 Y43.3 Z1
;TYPE:SUPPORT
G1 F300 Z0.8
G1 F2700 E33.67059
G1 X123.104 Y43.3 E33.83089
G1 X123.104 Y62.9 E34.80874
G1 X119.892 Y62.9 E34.96898
G1 X119.891 Y43.3 E35.94683
G0 F7200 X119.971 Y43.632
G1 F2700 X123.024 Y43.632 E36.09915
G1 F2700 E31.09915
G1 F300 Z1
G0 F7200 X121.2 Y43.38 Z1
G1 F300 Z0.8
G1 F2700 E36.09915
G1 X121.2 Y62.82 E37.06901
G1 F2700 E32.06901
G1 F300 Z1
G0 F7200 X119.971 Y60.6 Z1
G1 F300 Z0.8
G1 F2700 E37.06901
G1 X123.024 Y60.6 E37.22133
G1 F2700 E32.22133
G1 F300 Z1
G0 F7200 X123.024 Y58.176 Z1
G1 F300 Z0.8
G1 F2700 E37.22133
G1 X119.971 Y58.176 E37.37364
G1 F2700 E32.37364
G1 F300 Z1
G0 F7200 X119.971 Y55.752 Z1
G1 F300 Z0.8
G1 F2700 E37.37364
G1 X123.024 Y55.752 E37.52596
G1 F2700 E32.52596
G1 F300 Z1
G0 F7200 X123.024 Y53.328 Z1
G1 F300 Z0.8
G1 F2700 E37.52596
G1 X119.971 Y53.328 E37.67827
G1 F2700 E32.67827
G1 F300 Z1
G0 F7200 X119.971 Y50.904 Z1
G1 F300 Z0.8
G1 F2700 E37.67827
G1 X123.024 Y50.904 E37.83059
G1 F2700 E32.83059
G1 F300 Z1
G0 F7200 X123.024 Y48.48 Z1
G1 F300 Z0.8
G1 F2700 E37.83059
G1 X119.971 Y48.48 E37.9829
G1 F2700 E32.9829
G1 F300 Z1
G0 F7200 X119.971 Y46.056 Z1
G1 F300 Z0.8
G1 F2700 E37.9829
G1 X123.024 Y46.056 E38.13522
G1 F2700 E33.13522
G1 F300 Z1
;MESH:ClawLimitSwitch_Y.stl
G0 F7200 X116.992 Y61.3 Z1
;TYPE:WALL-INNER
G1 F300 Z0.8
G1 F2700 E38.13522
G1 X114.617 Y61.3 E38.25371
G1 X114.616 Y44.9 E39.07191
G1 X116.991 Y44.9 E39.19039
G1 X116.992 Y61.3 E40.00859
G0 F7200 X117.392 Y61.7
G1 F2700 X114.217 Y61.7 E40.167
G1 X114.216 Y44.5 E41.02511
G1 X117.391 Y44.5 E41.18351
G1 X117.392 Y61.7 E42.04162
G0 F7200 X117.792 Y62.1
G1 F2700 X113.817 Y62.1 E42.23993
G1 X113.816 Y44.1 E43.13796
G1 X117.791 Y44.1 E43.33627
G1 X117.792 Y62.1 E44.23429
G0 F7200 X118.192 Y62.5
G1 F2700 X113.417 Y62.5 E44.47252
G1 X113.416 Y43.7 E45.41046
G1 X118.191 Y43.7 E45.64868
G1 X118.192 Y62.5 E46.58662
G0 F7200 X118.592 Y62.9
;TYPE:WALL-OUTER
G1 F2700 X113.017 Y62.9 E46.86475
G1 X113.016 Y43.3 E47.8426
G1 X118.591 Y43.3 E48.12074
G1 X118.592 Y62.9 E49.09859
G1 F2700 E44.09859
G1 F300 Z1
G0 F7200 X116.602 Y60.91 Z1
;TYPE:SKIN
G1 F300 Z0.8
G1 F2700 E49.09859
G1 F2400 X115.007 Y60.91 E49.17816
G1 X115.006 Y45.29 E49.95745
G1 X116.601 Y45.29 E50.03702
G1 X116.602 Y60.91 E50.81631
G0 F7200 X115.621 Y60.749
G1 F2400 X115.165 Y60.294 E50.84845
G0 F7200 X115.165 Y59.728
G1 F2400 X116.186 Y60.749 E50.92048
G0 F7200 X116.441 Y60.438
G1 F2400 X115.165 Y59.162 E51.01051
G0 F7200 X115.165 Y58.597
G1 F2400 X116.441 Y59.872 E51.10051
G0 F7200 X116.441 Y59.307
G1 F2400 X115.165 Y58.031 E51.19053
G0 F7200 X115.165 Y57.465
G1 F2400 X116.441 Y58.741 E51.28056
G0 F7200 X116.441 Y58.175
G1 F2400 X115.165 Y56.9 E51.37056
G0 F7200 X115.165 Y56.334
G1 F2400 X116.441 Y57.61 E51.46059
G0 F7200 X116.441 Y57.044
G1 F2400 X115.165 Y55.768 E51.55061
G0 F7200 X115.165 Y55.203
G1 F2400 X116.441 Y56.478 E51.64061
G0 F7200 X116.441 Y55.913
G1 F2400 X115.165 Y54.637 E51.73064
G0 F7200 X115.165 Y54.071
G1 F2400 X116.441 Y55.347 E51.82066
G0 F7200 X116.441 Y54.781
G1 F2400 X115.165 Y53.506 E51.91066
G0 F7200 X115.165 Y52.939
G1 F2400 X116.441 Y54.215 E52.00069
G0 F7200 X116.441 Y53.65
G1 F2400 X115.165 Y52.373 E52.09075
G0 F7200 X115.165 Y51.808
G1 F2400 X116.441 Y53.084 E52.18078
G0 F7200 X116.441 Y52.518
G1 F2400 X115.165 Y51.242 E52.27081
G0 F7200 X115.165 Y50.676
G1 F2400 X116.441 Y51.953 E52.36087
G0 F7200 X116.441 Y51.387
G1 F2400 X115.165 Y50.111 E52.4509
G0 F7200 X115.165 Y49.545
G1 F2400 X116.441 Y50.821 E52.54093
G0 F7200 X116.441 Y50.256
G1 F2400 X115.165 Y48.979 E52.63099
G0 F7200 X115.165 Y48.414
G1 F2400 X116.441 Y49.69 E52.72102
G0 F7200 X116.441 Y49.124
G1 F2400 X115.165 Y47.848 E52.81105
G0 F7200 X115.165 Y47.282
G1 F2400 X116.441 Y48.559 E52.90111
G0 F7200 X116.441 Y47.993
G1 F2400 X115.165 Y46.717 E52.99114
G0 F7200 X115.165 Y46.151
G1 F2400 X116.441 Y47.427 E53.08117
G0 F7200 X116.441 Y46.862
G1 F2400 X115.165 Y45.585 E53.17124
G0 F7200 X115.594 Y45.449
G1 F2400 X116.441 Y46.296 E53.231
G0 F7200 X116.441 Y45.73
G1 F2400 X116.16 Y45.449 E53.25082
G1 F2700 E48.25082
G1 F300 Z1
;MESH:NONMESH
G0 F7200 X120.016 Y43.3 Z1
;TIME_ELAPSED:63.023207
;LAYER:3
M106 S30.6
G0 X120.016 Y43.3 Z1.3
;TYPE:SUPPORT
G1 F300 Z1.1
G1 F2700 E53.25082
G1 X123.104 Y43.3 E53.40488
G1 X123.104 Y62.9 E54.38273
G1 X120.017 Y62.9 E54.53674
G1 X120.016 Y43.3 E55.51459
G0 F7200 X120.096 Y43.632
G1 F2700 X123.024 Y43.632 E55.66067
G1 F2700 E50.66067
G1 F300 Z1.3
G0 F7200 X121.2 Y43.38 Z1.3
G1 F300 Z1.1
G1 F2700 E55.66067
G1 X121.2 Y62.82 E56.63053
G1 F2700 E51.63053
G1 F300 Z1.3
G0 F7200 X120.096 Y60.6 Z1.3
G1 F300 Z1.1
G1 F2700 E56.63053
G1 X123.024 Y60.6 E56.77661
G1 F2700 E51.77661
G1 F300 Z1.3
G0 F7200 X123.024 Y58.176 Z1.3
G1 F300 Z1.1
G1 F2700 E56.77661
G1 X120.096 Y58.176 E56.92269
G1 F2700 E51.92269
G1 F300 Z1.3
G0 F7200 X120.096 Y55.752 Z1.3
G1 F300 Z1.1
G1 F2700 E56.92269
G1 X123.024 Y55.752 E57.06877
G1 F2700 E52.06877
G1 F300 Z1.3
G0 F7200 X123.024 Y53.328 Z1.3
G1 F300 Z1.1
G1 F2700 E57.06877
G1 X120.096 Y53.328 E57.21485
G1 F2700 E52.21485
G1 F300 Z1.3
G0 F7200 X120.096 Y50.904 Z1.3
G1 F300 Z1.1
G1 F2700 E57.21485
G1 X123.024 Y50.904 E57.36093
G1 F2700 E52.36093
G1 F300 Z1.3
G0 F7200 X123.024 Y48.48 Z1.3
G1 F300 Z1.1
G1 F2700 E57.36093
G1 X120.096 Y48.48 E57.50701
G1 F2700 E52.50701
G1 F300 Z1.3
G0 F7200 X120.096 Y46.056 Z1.3
G1 F300 Z1.1
G1 F2700 E57.50701
G1 X123.024 Y46.056 E57.65308
G1 F2700 E52.65308
G1 F300 Z1.3
;MESH:ClawLimitSwitch_Y.stl
G0 F7200 X117.217 Y61.3 Z1.3
;TYPE:WALL-INNER
G1 F300 Z1.1
G1 F2700 E57.65308
G1 X114.392 Y61.3 E57.79402
G1 X114.391 Y44.9 E58.61222
G1 X117.216 Y44.9 E58.75316
G1 X117.217 Y61.3 E59.57136
G0 F7200 X117.617 Y61.7
G1 F2700 X113.992 Y61.7 E59.75221
G1 X113.991 Y44.5 E60.61033
G1 X117.616 Y44.5 E60.79118
G1 X117.617 Y61.7 E61.64929
G0 F7200 X118.017 Y62.1
G1 F2700 X113.592 Y62.1 E61.87005
G1 X113.591 Y44.1 E62.76808
G1 X118.016 Y44.1 E62.98884
G1 X118.017 Y62.1 E63.88686
G0 F7200 X118.417 Y62.5
G1 F2700 X113.192 Y62.5 E64.14754
G1 X113.191 Y43.7 E65.08548
G1 X118.416 Y43.7 E65.34615
G1 X118.417 Y62.5 E66.28409
G0 F7200 X118.817 Y62.9
;TYPE:WALL-OUTER
G1 F2700 X112.792 Y62.9 E66.58468
G1 X112.791 Y43.3 E67.56253
G1 X118.816 Y43.3 E67.86311
G1 X118.817 Y62.9 E68.84096
G1 F2700 E63.84096
G1 F300 Z1.3
G0 F7200 X116.643 Y61.219 Z1.3
;TYPE:FILL
G1 F300 Z1.1
G1 F2700 E68.84096
G1 F3000 X117.136 Y59.38 E68.93595
G0 F7200 X117.136 Y60.07
G1 F3000 X114.47 Y57.404 E69.12405
G0 F7200 X114.471 Y56.8
G1 F3000 X117.135 Y56.086 E69.26165
G0 F7200 X117.136 Y57.241
G1 F3000 X114.47 Y54.575 E69.44975
G1 X114.471 Y54.729
G1 X117.135 Y54.015 E69.58735
G0 F7200 X117.136 Y54.413
G1 F3000 X114.469 Y51.746 E69.77552
G0 F7200 X114.47 Y52.659
G1 F3000 X117.135 Y51.945 E69.91317
G0 F7200 X117.135 Y51.655
G1 F3000 X114.573 Y61.219 E70.40714
G0 F7200 X114.472 Y60.94
G1 F3000 X117.135 Y60.227 E70.54468
G1 F2700 E65.54468
G1 F300 Z1.3
G0 F7200 X115.457 Y61.219 Z1.3
G1 F300 Z1.1
G1 F2700 E70.54468
G1 F3000 X114.47 Y60.232 E70.61431
G0 F7200 X114.471 Y58.87
G1 F3000 X117.135 Y58.156 E70.75191
G1 F2700 E65.75191
G1 F300 Z1.3
G0 F7200 X114.471 Y53.872 Z1.3
G1 F300 Z1.1
G1 F2700 E70.75191
G1 F3000 X116.854 Y44.978 E71.21129
G0 F7200 X116.188 Y44.98
G1 F3000 X117.135 Y45.927 E71.2781
G1 X117.134 Y45.733
G1 X114.47 Y46.447 E71.4157
G0 F7200 X114.471 Y46.145
G1 F3000 X114.783 Y44.979 E71.47592
G0 F7200 X114.469 Y46.089
G1 F3000 X117.135 Y48.755 E71.66402
G0 F7200 X117.135 Y47.803
