;FLAVOR:Marlin
;TIME:4357
;Filament used: 2.83342m
;Layer height: 0.2
;MINX:96.76
;MINY:25.711
;MINZ:0.2
;MAXX:145.794
;MAXY:68.663
;MAXZ:35.4
;TARGET_MACHINE.NAME:Creality Ender-3
;Generated with Cura_SteamEngine 5.6.0
M140 S55
M105
M190 S55
M104 S218
M105
M109 S218
M82 ;absolute extrusion mode
; Ender 3 Custom Start G-code
G92 E0 ; Reset Extruder
G28 ; Home all axes
G1 Z2.0 F3000 ; Move Z Axis up little to prevent scratching of Heat Bed
G1 X0.1 Y20 Z0.3 F5000.0 ; Move to start position
G1 X0.1 Y200.0 Z0.3 F1500.0 E15 ; Draw the first line
G1 X0.4 Y200.0 Z0.3 F5000.0 ; Move to side a little
G1 X0.4 Y20 Z0.3 F1500.0 E30 ; Draw the second line
G92 E0 ; Reset Extruder
G1 Z2.0 F3000 ; Move Z Axis up little to prevent scratching of Heat Bed
G1 X5 Y20 Z0.3 F5000.0 ; Move over to prevent blob squish
G92 E0
G92 E0
G1 F2700 E-5
;LAYER_COUNT:175
;LAYER:0
M106 S76.5
G1 F300 Z0.6
G0 F4800 X97.179 Y39.753 Z0.6
;TYPE:SKIRT
G1 F300 Z0.2
G1 F2700 E0
G1 F2100 X98.125 Y37.93 E0.06831
G1 X99.532 Y36.615 E0.13236
G1 X101.062 Y35.716 E0.19139
G1 X101.644 Y35.489 E0.21216
G1 X103.243 Y35.253 E0.26592
G1 X105.363 Y35.229 E0.33644
G1 X105.521 Y34.634 E0.35692
G1 X105.838 Y33.719 E0.38912
G1 X106.234 Y32.8 E0.42241
G1 X106.507 Y32.265 E0.44238
G1 X106.81 Y31.738 E0.4626
G1 X107.146 Y31.21 E0.48342
G1 X107.489 Y30.718 E0.50337
G1 X107.791 Y30.33 E0.51972
G1 X108.314 Y29.73 E0.54619
G1 X108.619 Y29.41 E0.5609
G1 X109.236 Y28.834 E0.58897
G1 X109.714 Y28.432 E0.60974
G1 X110.107 Y28.131 E0.62621
G1 X111.18 Y27.423 E0.66896
G1 X111.718 Y27.126 E0.6894
G1 X112.345 Y26.822 E0.71258
G1 X112.834 Y26.612 E0.73028
G1 X113.569 Y26.34 E0.75635
G1 X114.089 Y26.181 E0.77443
G1 X115.347 Y25.896 E0.81733
G1 X115.956 Y25.798 E0.83785
G1 X116.241 Y25.766 E0.84739
G1 X117.189 Y25.715 E0.87897
G1 X117.477 Y25.711 E0.88855
G1 X118.788 Y25.784 E0.93222
G1 X119.364 Y25.851 E0.9515
G1 X119.734 Y25.912 E0.96398
G1 X120.932 Y26.192 E1.0049
G1 X121.477 Y26.361 E1.02387
G1 X122.45 Y26.735 E1.05854
G1 X123.015 Y26.994 E1.07922
G1 X123.523 Y27.255 E1.09821
G1 X124.181 Y27.644 E1.12364
G1 X124.718 Y28.003 E1.14512
G1 X125.358 Y28.485 E1.17177
G1 X125.848 Y28.899 E1.1931
G1 X126.08 Y29.112 E1.20358
G1 X126.861 Y29.927 E1.24112
G1 X127.347 Y30.513 E1.26644
G1 X127.739 Y31.043 E1.28837
G1 X128.086 Y31.566 E1.30925
G1 X128.378 Y32.054 E1.32816
G1 X128.688 Y32.637 E1.35012
G1 X128.921 Y33.132 E1.36832
G1 X129.214 Y33.841 E1.39383
G1 X129.426 Y34.462 E1.41566
G1 X129.708 Y35.53 E1.4524
G1 X129.769 Y35.848 E1.46317
G1 X130.883 Y35.742 E1.50039
G1 X131.345 Y35.719 E1.51577
G1 X132.377 Y35.736 E1.5501
G1 X133.101 Y35.789 E1.57425
G1 X133.935 Y35.888 E1.60218
G1 X134.786 Y36.044 E1.63096
G1 X135.271 Y36.162 E1.64756
G1 X136.26 Y36.459 E1.6819
G1 X137.019 Y36.738 E1.7088
G1 X137.588 Y36.986 E1.72944
G1 X138.365 Y37.373 E1.75831
G1 X138.816 Y37.624 E1.77548
G1 X139.627 Y38.138 E1.80742
G1 X140.204 Y38.551 E1.83102
G1 X140.959 Y39.164 E1.86336
G1 X141.419 Y39.58 E1.88399
G1 X141.874 Y40.036 E1.90542
G1 X142.43 Y40.659 E1.93319
G1 X142.662 Y40.939 E1.94528
G1 X143.517 Y42.114 E1.99362
G1 X144.163 Y43.156 E2.03439
G1 X144.79 Y45.071 E2.10141
G1 X144.786 Y46.105 E2.1358
G1 X145.201 Y46.88 E2.16504
G1 X145.794 Y48.838 E2.23309
G1 X145.746 Y50.385 E2.28457
G1 X145.646 Y51.516 E2.32233
G1 X145.573 Y52.008 E2.33887
G1 X145.403 Y52.854 E2.36757
G1 X145.277 Y53.365 E2.38508
G1 X145.024 Y54.205 E2.41426
G1 X144.87 Y54.639 E2.42957
G1 X144.483 Y55.554 E2.46262
G1 X144.181 Y56.177 E2.48565
G1 X143.865 Y56.758 E2.50764
G1 X143.621 Y57.16 E2.52328
G1 X143.061 Y57.987 E2.5565
G1 X142.783 Y58.354 E2.57182
G1 X142.073 Y59.185 E2.60817
G1 X141.556 Y59.718 E2.63287
G1 X140.697 Y60.494 E2.67137
G1 X140.246 Y60.854 E2.69056
G1 X139.555 Y61.349 E2.71883
G1 X139.144 Y61.613 E2.73508
G1 X138.329 Y62.08 E2.76632
G1 X137.764 Y62.365 E2.78737
G1 X137.091 Y62.659 E2.8118
G1 X136.423 Y62.92 E2.83565
G1 X135.889 Y63.1 E2.85439
G1 X135.199 Y63.291 E2.8782
G1 X134.245 Y63.494 E2.91065
G1 X134.099 Y64.103 E2.93147
G1 X133.139 Y65.953 E3.0008
G1 X131.712 Y67.277 E3.06554
G1 X129.929 Y68.34 E3.13458
G1 X128.349 Y68.598 E3.18783
G1 X106.74 Y68.663 E3.90655
G1 X105.036 Y68.244 E3.96492
G1 X103.213 Y67.298 E4.03323
G1 X101.894 Y65.887 E4.09747
G1 X100.823 Y64.091 E4.16702
G1 X100.732 Y63.508 E4.18664
G1 X99.474 Y62.853 E4.23382
G1 X98.169 Y61.456 E4.2974
G1 X97.083 Y59.636 E4.36789
G1 X96.825 Y58.066 E4.42081
G1 X96.76 Y41.459 E4.97317
G1 X97.179 Y39.753 E5.03159
G0 F4800 X97.555 Y39.896
G1 F2100 X98.448 Y38.175 E5.09608
G1 X99.774 Y36.936 E5.15644
G1 X101.208 Y36.089 E5.21183
G1 X101.748 Y35.878 E5.23112
G1 X103.248 Y35.653 E5.28157
G1 X105.687 Y35.625 E5.36269
G1 X105.771 Y35.233 E5.37603
G1 X105.907 Y34.741 E5.393
G1 X106.216 Y33.85 E5.42437
G1 X106.591 Y32.981 E5.45585
G1 X106.854 Y32.464 E5.47514
G1 X107.147 Y31.953 E5.49473
G1 X107.474 Y31.439 E5.515
G1 X107.805 Y30.964 E5.53425
G1 X108.107 Y30.576 E5.55061
G1 X108.604 Y30.006 E5.57576
G1 X108.909 Y29.686 E5.59046
G1 X109.493 Y29.14 E5.61705
G1 X109.957 Y28.75 E5.63721
G1 X110.35 Y28.449 E5.65368
G1 X111.374 Y27.773 E5.69449
G1 X111.892 Y27.486 E5.71418
G1 X112.503 Y27.19 E5.73677
G1 X112.992 Y26.98 E5.75447
G1 X113.686 Y26.723 E5.77908
G1 X114.206 Y26.564 E5.79717
G1 X115.41 Y26.291 E5.83823
G1 X116.001 Y26.196 E5.85814
G1 X116.286 Y26.164 E5.86768
G1 X117.195 Y26.115 E5.89795
G1 X117.483 Y26.111 E5.90753
G1 X118.742 Y26.181 E5.94947
G1 X119.3 Y26.246 E5.96816
G1 X119.643 Y26.302 E5.97972
G1 X120.841 Y26.582 E6.02064
G1 X121.333 Y26.734 E6.03776
G1 X122.306 Y27.108 E6.07243
G1 X122.832 Y27.35 E6.09169
G1 X123.34 Y27.611 E6.11069
G1 X123.959 Y27.977 E6.1346
G1 X124.496 Y28.336 E6.15609
G1 X125.1 Y28.791 E6.18124
G1 X125.577 Y29.194 E6.20201
G1 X125.809 Y29.407 E6.21248
G1 X126.553 Y30.183 E6.24824
G1 X127.025 Y30.751 E6.2728
G1 X127.417 Y31.281 E6.29473
G1 X127.743 Y31.772 E6.31433
G1 X128.025 Y32.242 E6.33256
G1 X128.326 Y32.807 E6.35385
G1 X128.551 Y33.285 E6.37143
G1 X128.835 Y33.97 E6.39609
G1 X129.047 Y34.591 E6.41791
G1 X129.321 Y35.632 E6.45372
G1 X129.449 Y36.31 E6.47667
G1 X129.956 Y36.232 E6.49373
G1 X130.903 Y36.142 E6.52537
G1 X131.365 Y36.119 E6.54075
G1 X132.348 Y36.135 E6.57345
G1 X133.054 Y36.186 E6.59699
G1 X133.863 Y36.282 E6.62409
G1 X134.691 Y36.433 E6.65208
G1 X135.176 Y36.551 E6.66869
G1 X136.145 Y36.842 E6.70234
G1 X136.859 Y37.105 E6.72764
G1 X137.428 Y37.353 E6.74829
G1 X138.17 Y37.723 E6.77587
G1 X138.621 Y37.974 E6.79303
G1 X139.394 Y38.463 E6.82345
G1 X139.971 Y38.876 E6.84706
G1 X140.691 Y39.461 E6.87791
G1 X141.136 Y39.863 E6.89786
G1 X141.591 Y40.319 E6.91928
G1 X142.122 Y40.914 E6.94581
G1 X142.354 Y41.194 E6.9579
G1 X143.177 Y42.325 E7.00442
G1 X143.799 Y43.328 E7.04368
G1 X144.39 Y45.133 E7.10685
G1 X144.386 Y46.206 E7.14254
G1 X144.83 Y47.035 E7.17381
G1 X145.392 Y48.891 E7.23831
G1 X145.346 Y50.373 E7.28763
G1 X145.25 Y51.458 E7.32386
G1 X145.181 Y51.929 E7.33969
G1 X145.015 Y52.758 E7.36781
G1 X144.894 Y53.25 E7.38466
G1 X144.647 Y54.071 E7.41318
G1 X144.493 Y54.505 E7.42849
G1 X144.123 Y55.38 E7.46009
G1 X143.83 Y55.986 E7.48248
G1 X143.523 Y56.55 E7.50384
G1 X143.279 Y56.952 E7.51948
G1 X142.742 Y57.745 E7.55133
G1 X142.464 Y58.112 E7.56664
G1 X141.786 Y58.906 E7.60137
G1 X141.269 Y59.439 E7.62607
G1 X140.447 Y60.182 E7.66292
G1 X140.013 Y60.529 E7.6814
G1 X139.338 Y61.013 E7.70903
G1 X138.945 Y61.266 E7.72457
G1 X138.149 Y61.723 E7.7551
G1 X137.604 Y61.998 E7.77541
G1 X136.931 Y62.292 E7.79983
G1 X136.295 Y62.541 E7.82255
G1 X135.782 Y62.714 E7.84056
G1 X135.092 Y62.905 E7.86437
G1 X133.915 Y63.156 E7.9044
G1 X133.721 Y63.963 E7.932
G1 X132.816 Y65.707 E7.99735
G1 X131.473 Y66.953 E8.05828
G1 X129.789 Y67.957 E8.12349
G1 X128.284 Y68.203 E8.17421
G1 X106.786 Y68.263 E8.88924
G1 X105.179 Y67.868 E8.94428
G1 X103.458 Y66.975 E9.00877
G1 X102.218 Y65.648 E9.06918
G1 X101.206 Y63.951 E9.13489
G1 X101.096 Y63.246 E9.15863
G1 X99.718 Y62.529 E9.21029
G1 X98.49 Y61.214 E9.27013
G1 X97.466 Y59.498 E9.3366
G1 X97.22 Y58.001 E9.38706
G1 X97.16 Y41.504 E9.93575
G1 X97.555 Y39.896 E9.99082
G0 F4800 X97.931 Y40.039
G1 F2100 X98.771 Y38.42 E10.05149
G1 X100.014 Y37.259 E10.10806
G1 X101.354 Y36.462 E10.15992
G1 X101.853 Y36.267 E10.17774
G1 X103.307 Y36.049 E10.22664
G1 X106.011 Y36.022 E10.31658
G1 X106.157 Y35.34 E10.33977
G1 X106.293 Y34.848 E10.35675
G1 X106.594 Y33.981 E10.38728
G1 X106.947 Y33.162 E10.41694
G1 X107.201 Y32.663 E10.43556
G1 X107.485 Y32.167 E10.45457
G1 X107.802 Y31.668 E10.47423
G1 X108.121 Y31.21 E10.4928
G1 X108.423 Y30.822 E10.50915
G1 X108.894 Y30.282 E10.53298
G1 X109.199 Y29.962 E10.54769
G1 X109.75 Y29.446 E10.5728
G1 X110.2 Y29.068 E10.59234
G1 X110.593 Y28.767 E10.60881
G1 X111.594 Y28.107 E10.64869
G1 X112.067 Y27.846 E10.66665
G1 X112.661 Y27.558 E10.68861
G1 X113.15 Y27.348 E10.70631
G1 X113.803 Y27.106 E10.72947
G1 X114.323 Y26.947 E10.74756
G1 X115.474 Y26.686 E10.78681
G1 X116.046 Y26.594 E10.80608
G1 X116.331 Y26.562 E10.81562
G1 X117.201 Y26.515 E10.8446
G1 X117.489 Y26.511 E10.85418
G1 X118.696 Y26.578 E10.89439
G1 X119.236 Y26.641 E10.91247
G1 X119.552 Y26.692 E10.92311
G1 X120.75 Y26.972 E10.96403
G1 X121.214 Y27.116 E10.98019
G1 X122.139 Y27.472 E11.01316
G1 X122.649 Y27.706 E11.03182
G1 X123.157 Y27.967 E11.05082
G1 X123.737 Y28.31 E11.07323
G1 X124.274 Y28.669 E11.09471
G1 X124.842 Y29.097 E11.11837
G1 X125.306 Y29.489 E11.13857
G1 X125.538 Y29.702 E11.14905
G1 X126.246 Y30.439 E11.18304
G1 X126.704 Y30.989 E11.20684
G1 X127.084 Y31.502 E11.22808
G1 X127.4 Y31.978 E11.24708
G1 X127.672 Y32.431 E11.26465
G1 X127.964 Y32.977 E11.28525
G1 X128.181 Y33.438 E11.30219
G1 X128.465 Y34.123 E11.32686
G1 X128.66 Y34.693 E11.34689
G1 X128.928 Y35.709 E11.38184
G1 X129.044 Y36.3 E11.40187
G1 X129.113 Y36.787 E11.41823
G1 X129.545 Y36.699 E11.4329
G1 X130.016 Y36.628 E11.44874
G1 X130.923 Y36.542 E11.47904
G1 X131.385 Y36.519 E11.49443
G1 X132.32 Y36.534 E11.52553
G1 X133.007 Y36.583 E11.54844
G1 X133.792 Y36.676 E11.57473
G1 X134.596 Y36.822 E11.60191
G1 X135.081 Y36.94 E11.61851
G1 X136.007 Y37.218 E11.65067
G1 X136.699 Y37.472 E11.67518
G1 X137.268 Y37.72 E11.69583
G1 X137.976 Y38.073 E11.72214
G1 X138.407 Y38.312 E11.73853
G1 X139.161 Y38.788 E11.76819
G1 X139.738 Y39.201 E11.79179
G1 X140.423 Y39.758 E11.82115
G1 X140.853 Y40.146 E11.84042
G1 X141.308 Y40.602 E11.86184
G1 X141.814 Y41.169 E11.88712
G1 X142.046 Y41.449 E11.89921
G1 X142.837 Y42.536 E11.94393
G1 X143.435 Y43.5 E11.98166
G1 X143.99 Y45.195 E12.04098
G1 X143.986 Y46.356 E12.07959
G1 X144.093 Y46.507 E12.08575
G1 X144.459 Y47.19 E12.11152
G1 X144.99 Y48.944 E12.17248
G1 X144.946 Y50.361 E12.21963
G1 X144.854 Y51.4 E12.25432
G1 X144.785 Y51.871 E12.27015
G1 X144.627 Y52.663 E12.29701
G1 X144.511 Y53.135 E12.31318
G1 X144.27 Y53.937 E12.34103
G1 X144.116 Y54.371 E12.35635
G1 X143.763 Y55.206 E12.3865
G1 X143.478 Y55.795 E12.40826
G1 X143.181 Y56.342 E12.42897
G1 X142.937 Y56.744 E12.44461
G1 X142.423 Y57.503 E12.4751
G1 X142.145 Y57.87 E12.49041
G1 X141.499 Y58.627 E12.52351
G1 X140.982 Y59.16 E12.54821
G1 X140.197 Y59.87 E12.58341
G1 X139.78 Y60.204 E12.60118
G1 X139.121 Y60.677 E12.62816
G1 X138.746 Y60.919 E12.643
G1 X137.968 Y61.366 E12.67285
G1 X137.444 Y61.631 E12.69238
G1 X136.771 Y61.925 E12.7168
G1 X136.167 Y62.162 E12.73838
G1 X135.675 Y62.328 E12.75565
G1 X134.985 Y62.519 E12.77947
G1 X134.061 Y62.717 E12.8109
G1 X133.592 Y62.784 E12.82665
G1 X133.343 Y63.823 E12.86219
G1 X132.493 Y65.461 E12.92357
G1 X131.234 Y66.629 E12.98069
G1 X129.649 Y67.574 E13.04206
G1 X128.219 Y67.808 E13.09026
G1 X106.832 Y67.863 E13.8016
G1 X105.322 Y67.492 E13.85331
G1 X103.703 Y66.652 E13.91398
G1 X102.542 Y65.409 E13.97055
G1 X101.589 Y63.811 E14.03243
G1 X101.46 Y62.984 E14.06027
G1 X99.963 Y62.206 E14.11638
G1 X98.811 Y60.972 E14.17253
G1 X97.849 Y59.36 E14.23497
G1 X97.615 Y57.936 E14.28297
G1 X97.56 Y41.549 E14.828
G1 X97.931 Y40.039 E14.87972
G0 F4800 X98.308 Y40.181
G1 F2100 X99.094 Y38.665 E14.93652
G1 X100.253 Y37.583 E14.98925
G1 X101.559 Y36.806 E15.0398
G1 X101.954 Y36.657 E15.05384
G1 X103.366 Y36.445 E15.10133
G1 X106.349 Y36.419 E15.20055
G1 X106.413 Y36.042 E15.21326
G1 X106.543 Y35.447 E15.23352
G1 X106.679 Y34.955 E15.2505
G1 X106.972 Y34.112 E15.28018
G1 X107.304 Y33.343 E15.30804
G1 X107.548 Y32.862 E15.32598
G1 X107.823 Y32.381 E15.34441
G1 X108.131 Y31.896 E15.36352
G1 X108.437 Y31.455 E15.38137
G1 X108.724 Y31.085 E15.39694
G1 X109.184 Y30.558 E15.42021
G1 X109.489 Y30.238 E15.43491
G1 X110.008 Y29.752 E15.45856
G1 X110.443 Y29.386 E15.47747
G1 X110.836 Y29.085 E15.49394
G1 X111.788 Y28.457 E15.53187
G1 X112.242 Y28.206 E15.54912
G1 X112.836 Y27.918 E15.57108
G1 X113.289 Y27.723 E15.58748
G1 X113.92 Y27.489 E15.60987
G1 X114.44 Y27.33 E15.62795
G1 X115.538 Y27.081 E15.6654
G1 X116.091 Y26.992 E15.68403
G1 X116.376 Y26.96 E15.69357
G1 X117.207 Y26.915 E15.72125
G1 X117.495 Y26.911 E15.73083
G1 X118.65 Y26.975 E15.7693
G1 X119.173 Y27.036 E15.78681
G1 X119.461 Y27.082 E15.79651
G1 X120.659 Y27.362 E15.83743
G1 X121.095 Y27.498 E15.85262
G1 X121.972 Y27.835 E15.88387
G1 X122.466 Y28.062 E15.90195
G1 X122.974 Y28.323 E15.92095
G1 X123.515 Y28.643 E15.94186
G1 X124.052 Y29.002 E15.96334
G1 X124.584 Y29.403 E15.9855
G1 X125.035 Y29.784 E16.00514
G1 X125.267 Y29.997 E16.01561
G1 X125.957 Y30.716 E16.04875
G1 X126.383 Y31.227 E16.07088
G1 X126.751 Y31.724 E16.09145
G1 X127.057 Y32.184 E16.10983
G1 X127.319 Y32.62 E16.12674
G1 X127.602 Y33.148 E16.14667
G1 X127.811 Y33.591 E16.16296
G1 X128.095 Y34.276 E16.18762
G1 X128.273 Y34.795 E16.20587
G1 X128.535 Y35.786 E16.23997
G1 X128.651 Y36.377 E16.26
G1 X128.739 Y37.002 E16.28099
G1 X128.762 Y37.278 E16.2902
G1 X129.029 Y37.212 E16.29935
G1 X129.605 Y37.095 E16.3189
G1 X130.076 Y37.024 E16.33474
G1 X130.943 Y36.942 E16.36371
G1 X131.405 Y36.919 E16.37909
G1 X132.292 Y36.933 E16.4086
G1 X132.96 Y36.98 E16.43087
G1 X133.745 Y37.073 E16.45716
G1 X134.501 Y37.211 E16.48272
G1 X134.986 Y37.329 E16.49932
G1 X135.892 Y37.601 E16.53079
G1 X136.539 Y37.839 E16.55372
G1 X137.108 Y38.087 E16.57436
G1 X137.782 Y38.423 E16.59941
G1 X138.213 Y38.662 E16.6158
G1 X138.928 Y39.113 E16.64392
G1 X139.486 Y39.512 E16.66673
G1 X140.155 Y40.055 E16.69539
G1 X140.57 Y40.429 E16.71397
G1 X141.025 Y40.885 E16.7354
G1 X141.506 Y41.424 E16.75943
G1 X141.738 Y41.704 E16.77152
G1 X142.497 Y42.747 E16.81442
G1 X143.071 Y43.672 E16.85063
G1 X143.59 Y45.257 E16.9061
G1 X143.586 Y46.488 E16.94705
G1 X143.741 Y46.696 E16.95567
G1 X144.087 Y47.341 E16.98002
G1 X144.588 Y48.997 E17.03756
G1 X144.546 Y50.349 E17.08255
G1 X144.458 Y51.342 E17.11571
G1 X144.389 Y51.813 E17.13154
G1 X144.239 Y52.568 E17.15714
G1 X144.128 Y53.02 E17.17262
G1 X143.893 Y53.803 E17.19981
G1 X143.739 Y54.237 E17.21513
G1 X143.403 Y55.032 E17.24384
G1 X143.127 Y55.604 E17.26496
G1 X142.839 Y56.134 E17.28502
G1 X142.595 Y56.536 E17.30066
G1 X142.104 Y57.261 E17.32979
G1 X141.826 Y57.628 E17.3451
G1 X141.212 Y58.348 E17.37657
G1 X140.695 Y58.881 E17.40127
G1 X139.947 Y59.558 E17.43483
G1 X139.547 Y59.879 E17.45188
G1 X138.904 Y60.341 E17.47822
G1 X138.547 Y60.572 E17.49236
G1 X137.787 Y61.009 E17.52152
G1 X137.263 Y61.274 E17.54105
G1 X136.625 Y61.553 E17.56421
G1 X136.039 Y61.783 E17.58515
G1 X135.568 Y61.942 E17.60168
G1 X134.878 Y62.133 E17.62549
G1 X134.005 Y62.321 E17.6552
G1 X133.266 Y62.426 E17.68002
G1 X132.965 Y63.683 E17.72301
G1 X132.17 Y65.215 E17.78042
G1 X130.995 Y66.305 E17.83373
G1 X129.509 Y67.191 E17.89127
G1 X128.154 Y67.413 E17.93694
G1 X106.879 Y67.463 E18.64455
G1 X105.464 Y67.115 E18.69301
G1 X103.948 Y66.329 E18.74981
G1 X102.866 Y65.17 E18.80255
G1 X101.972 Y63.671 E18.8606
G1 X101.82 Y62.697 E18.89338
G1 X101.692 Y62.654 E18.89787
G1 X100.208 Y61.883 E18.9535
G1 X99.132 Y60.73 E19.00595
G1 X98.232 Y59.222 E19.06436
G1 X98.01 Y57.871 E19.1099
G1 X97.96 Y41.596 E19.65121
G1 X98.308 Y40.181 E19.69967
G0 F4800 X98.684 Y40.324
G1 F2100 X99.417 Y38.91 E19.75265
G1 X100.492 Y37.907 E19.80155
G1 X101.764 Y37.15 E19.85078
G1 X102.054 Y37.047 E19.86102
G1 X103.425 Y36.841 E19.90713
G1 X106.339 Y36.817 E20.00405
