;FLAVOR:Marlin
;TIME:512
;Filament used: 0.324527m
;Layer height: 0.2
;MINX:108.521
;MINY:15.451
;MINZ:0.2
;MAXX:127.621
;MAXY:38.051
;MAXZ:7.8
;TARGET_MACHINE.NAME:Creality Ender-3
;Generated with Cura_SteamEngine 5.6.0
M140 S55
M105
M190 S55
M104 S218
M105
M109 S218
M82 ;absolute extrusion mode
; Ender 3 Custom Start G-code
G92 E0 ; Reset Extruder
G28 ; Home all axes
G1 Z2.0 F3000 ; Move Z Axis up little to prevent scratching of Heat Bed
G1 X0.1 Y20 Z0.3 F5000.0 ; Move to start position
G1 X0.1 Y200.0 Z0.3 F1500.0 E15 ; Draw the first line
G1 X0.4 Y200.0 Z0.3 F5000.0 ; Move to side a little
G1 X0.4 Y20 Z0.3 F1500.0 E30 ; Draw the second line
G92 E0 ; Reset Extruder
G1 Z2.0 F3000 ; Move Z Axis up little to prevent scratching of Heat Bed
G1 X5 Y20 Z0.3 F5000.0 ; Move over to prevent blob squish
G92 E0
G92 E0
G1 F2700 E-5
;LAYER_COUNT:37
;LAYER:0
M106 S25.5
G1 F300 Z0.6
G0 F4800 X108.521 Y18.861 Z0.6
;TYPE:SKIRT
G1 F300 Z0.2
G1 F2700 E0
G1 F2100 X108.75 Y17.929 E0.03192
G1 X109.266 Y16.932 E0.06926
G1 X110.021 Y16.229 E0.10357
G1 X111.012 Y15.638 E0.14195
G1 X111.992 Y15.476 E0.17498
G1 X124.211 Y15.451 E0.58139
G1 X125.143 Y15.68 E0.61331
G1 X126.14 Y16.196 E0.65065
G1 X126.843 Y16.951 E0.68496
G1 X127.434 Y17.942 E0.72334
G1 X127.596 Y18.922 E0.75638
G1 X127.621 Y34.641 E1.27919
G1 X127.392 Y35.573 E1.31111
G1 X126.876 Y36.57 E1.34845
G1 X126.121 Y37.273 E1.38276
G1 X125.13 Y37.864 E1.42114
G1 X124.15 Y38.026 E1.45418
G1 X111.931 Y38.051 E1.86058
G1 X110.999 Y37.822 E1.8925
G1 X110.002 Y37.306 E1.92984
G1 X109.299 Y36.551 E1.96415
G1 X108.708 Y35.56 E2.00253
G1 X108.546 Y34.58 E2.03557
G1 X108.521 Y18.861 E2.55839
G0 F4800 X108.921 Y18.907
G1 F2100 X109.126 Y18.072 E2.58698
G1 X109.589 Y17.177 E2.6205
G1 X110.26 Y16.553 E2.65097
G1 X111.152 Y16.021 E2.68552
G1 X112.057 Y15.871 E2.71603
G1 X124.165 Y15.851 E3.11874
G1 X125 Y16.056 E3.14734
G1 X125.895 Y16.519 E3.18086
G1 X126.519 Y17.19 E3.21133
G1 X127.051 Y18.082 E3.24588
G1 X127.201 Y18.987 E3.27639
G1 X127.221 Y34.595 E3.79551
G1 X127.016 Y35.43 E3.82411
G1 X126.553 Y36.325 E3.85762
G1 X125.882 Y36.949 E3.8881
G1 X124.99 Y37.481 E3.92264
G1 X124.085 Y37.631 E3.95316
G1 X111.977 Y37.651 E4.35587
G1 X111.142 Y37.446 E4.38447
G1 X110.247 Y36.983 E4.41798
G1 X109.623 Y36.312 E4.44846
G1 X109.091 Y35.42 E4.483
G1 X108.941 Y34.515 E4.51351
G1 X108.921 Y18.907 E5.03264
G0 F4800 X109.321 Y18.953
G1 F2100 X109.502 Y18.215 E5.05791
G1 X109.912 Y17.422 E5.0876
G1 X110.499 Y16.877 E5.11424
G1 X111.292 Y16.404 E5.14496
G1 X112.123 Y16.266 E5.17297
G1 X124.119 Y16.251 E5.57196
G1 X124.857 Y16.432 E5.59724
G1 X125.65 Y16.842 E5.62693
G1 X126.195 Y17.429 E5.65357
G1 X126.668 Y18.222 E5.68428
G1 X126.806 Y19.053 E5.7123
G1 X126.821 Y34.549 E6.2277
G1 X126.64 Y35.287 E6.25297
G1 X126.23 Y36.08 E6.28266
G1 X125.643 Y36.625 E6.3093
G1 X124.85 Y37.098 E6.34001
G1 X124.019 Y37.236 E6.36803
G1 X112.023 Y37.251 E6.76702
G1 X111.285 Y37.07 E6.79229
G1 X110.492 Y36.66 E6.82199
G1 X109.947 Y36.073 E6.84863
G1 X109.474 Y35.28 E6.87934
G1 X109.336 Y34.449 E6.90736
G1 X109.321 Y18.953 E7.42275
G0 F4800 X109.721 Y19.003
G1 F2100 X109.88 Y18.354 E7.44498
G1 X110.235 Y17.667 E7.4707
G1 X110.738 Y17.201 E7.49351
G1 X111.432 Y16.787 E7.52038
G1 X112.189 Y16.661 E7.54591
G1 X124.069 Y16.651 E7.94104
G1 X124.718 Y16.81 E7.96326
G1 X125.405 Y17.165 E7.98898
G1 X125.871 Y17.668 E8.01179
G1 X126.285 Y18.362 E8.03867
G1 X126.411 Y19.119 E8.06419
G1 X126.421 Y34.499 E8.57573
G1 X126.262 Y35.148 E8.59796
G1 X125.907 Y35.835 E8.62368
G1 X125.404 Y36.301 E8.64648
G1 X124.71 Y36.715 E8.67336
G1 X123.953 Y36.841 E8.69888
G1 X112.073 Y36.851 E9.09401
G1 X111.424 Y36.692 E9.11624
G1 X110.737 Y36.337 E9.14196
G1 X110.271 Y35.834 E9.16476
G1 X109.857 Y35.14 E9.19164
G1 X109.731 Y34.383 E9.21717
G1 X109.721 Y19.003 E9.72871
G0 F4800 X110.121 Y19.053
G1 F2100 X110.258 Y18.493 E9.74788
G1 X110.558 Y17.913 E9.7696
G1 X110.977 Y17.525 E9.78859
G1 X111.572 Y17.17 E9.81164
G1 X112.255 Y17.056 E9.83467
G1 X124.019 Y17.051 E10.22594
G1 X124.579 Y17.188 E10.24512
G1 X125.159 Y17.488 E10.26684
G1 X125.547 Y17.907 E10.28583
G1 X125.902 Y18.502 E10.30887
G1 X126.016 Y19.185 E10.3319
G1 X126.021 Y34.449 E10.83959
G1 X125.884 Y35.009 E10.85876
G1 X125.584 Y35.589 E10.88048
G1 X125.165 Y35.977 E10.89947
G1 X124.57 Y36.332 E10.92252
G1 X123.887 Y36.446 E10.94555
G1 X112.123 Y36.451 E11.33682
G1 X111.563 Y36.314 E11.356
G1 X110.983 Y36.014 E11.37772
G1 X110.595 Y35.595 E11.39671
G1 X110.24 Y35 E11.41975
G1 X110.126 Y34.317 E11.44278
G1 X110.121 Y19.053 E11.95047
G0 F4800 X110.521 Y19.103
G1 F2100 X110.636 Y18.632 E11.96659
G1 X110.881 Y18.159 E11.98431
G1 X111.219 Y17.846 E11.99963
G1 X111.71 Y17.553 E12.01865
G1 X112.321 Y17.451 E12.03925
G1 X123.969 Y17.451 E12.42667
G1 X124.44 Y17.566 E12.44279
G1 X124.913 Y17.811 E12.46051
G1 X125.226 Y18.149 E12.47583
G1 X125.519 Y18.64 E12.49485
G1 X125.621 Y19.251 E12.51545
G1 X125.621 Y34.399 E13.01928
G1 X125.506 Y34.87 E13.0354
G1 X125.261 Y35.343 E13.05312
G1 X124.923 Y35.656 E13.06844
G1 X124.432 Y35.949 E13.08746
G1 X123.821 Y36.051 E13.10806
G1 X112.173 Y36.051 E13.49548
G1 X111.702 Y35.936 E13.5116
G1 X111.229 Y35.691 E13.52932
G1 X110.916 Y35.353 E13.54464
G1 X110.623 Y34.862 E13.56366
G1 X110.521 Y34.251 E13.58426
G1 X110.521 Y19.103 E14.08808
G0 F4800 X110.921 Y19.153
G1 F2100 X111.014 Y18.771 E14.10116
G1 X111.204 Y18.405 E14.11488
G1 X111.461 Y18.167 E14.12653
G1 X111.848 Y17.936 E14.14152
G1 X112.321 Y17.851 E14.1575
G1 X123.919 Y17.851 E14.54325
G1 X124.301 Y17.944 E14.55633
G1 X124.667 Y18.134 E14.57005
G1 X124.905 Y18.391 E14.5817
G1 X125.136 Y18.778 E14.59669
G1 X125.221 Y19.251 E14.61267
G1 X125.221 Y34.349 E15.11483
G1 X125.128 Y34.731 E15.12791
G1 X124.938 Y35.097 E15.14162
G1 X124.681 Y35.335 E15.15327
G1 X124.294 Y35.566 E15.16826
G1 X123.821 Y35.651 E15.18425
G1 X112.223 Y35.651 E15.57
G1 X111.841 Y35.558 E15.58308
G1 X111.475 Y35.368 E15.59679
G1 X111.237 Y35.111 E15.60844
G1 X111.006 Y34.724 E15.62343
G1 X110.921 Y34.251 E15.63942
G1 X110.921 Y19.153 E16.14158
G0 F4800 X111.321 Y19.202
G1 F2100 X111.391 Y18.913 E16.15147
G1 X111.528 Y18.65 E16.16133
G1 X111.666 Y18.511 E16.16785
G1 X111.993 Y18.316 E16.18051
G1 X112.321 Y18.251 E16.19163
G1 X123.87 Y18.251 E16.57575
G1 X124.159 Y18.321 E16.58564
G1 X124.422 Y18.458 E16.5955
G1 X124.561 Y18.596 E16.60202
G1 X124.756 Y18.923 E16.61468
G1 X124.821 Y19.251 E16.6258
G1 X124.821 Y34.3 E17.12634
G1 X124.751 Y34.589 E17.13623
G1 X124.614 Y34.852 E17.14609
G1 X124.476 Y34.991 E17.1526
G1 X124.149 Y35.186 E17.16527
G1 X123.821 Y35.251 E17.17639
G1 X112.272 Y35.251 E17.56051
G1 X111.983 Y35.181 E17.5704
G1 X111.72 Y35.044 E17.58026
G1 X111.581 Y34.906 E17.58678
G1 X111.386 Y34.579 E17.59944
G1 X111.321 Y34.251 E17.61056
G1 X111.321 Y19.202 E18.11109
G0 F4800 X112.121 Y19.251
G1 F2100 X112.16 Y19.132 E18.11526
G1 X112.321 Y19.051 E18.12125
G1 X123.821 Y19.051 E18.50374
G1 X123.94 Y19.09 E18.50791
G1 X124.021 Y19.251 E18.5139
G1 X124.021 Y34.251 E19.01281
G1 X123.982 Y34.37 E19.01697
G1 X123.821 Y34.451 E19.02297
G1 X112.321 Y34.451 E19.40546
G1 X112.202 Y34.412 E19.40962
G1 X112.121 Y34.251 E19.41562
G1 X112.121 Y19.251 E19.91452
G0 F4800 X111.721 Y19.251
G1 F2100 X111.78 Y19.007 E19.92287
G1 X111.871 Y18.855 E19.92876
G1 X112.141 Y18.694 E19.93922
G1 X112.321 Y18.651 E19.94537
G1 X123.821 Y18.651 E20.32786
G1 X124.065 Y18.71 E20.33621
G1 X124.217 Y18.801 E20.3421
G1 X124.378 Y19.071 E20.35256
G1 X124.421 Y19.251 E20.35871
G1 X124.421 Y34.251 E20.85762
G1 X124.362 Y34.495 E20.86597
G1 X124.271 Y34.647 E20.87186
G1 X124.001 Y34.808 E20.88231
G1 X123.821 Y34.851 E20.88847
G1 X112.321 Y34.851 E21.27096
G1 X112.077 Y34.792 E21.27931
G1 X111.925 Y34.701 E21.2852
G1 X111.764 Y34.431 E21.29566
G1 X111.721 Y34.251 E21.30181
G1 X111.721 Y19.251 E21.80072
G1 F2700 E16.80072
G1 F300 Z0.6
;MESH:LimiterCollider.stl
G0 F4800 X122.821 Y33.251 Z0.6
;TYPE:WALL-INNER
G1 F300 Z0.2
G1 F2700 E21.80072
G1 F1800 X122.821 Y20.251 E22.2331
G1 X113.321 Y20.251 E22.54907
G1 X113.321 Y33.251 E22.98145
G1 X122.821 Y33.251 E23.29742
G0 F4800 X123.221 Y33.651
G1 F1800 X123.221 Y19.851 E23.75641
G1 X112.921 Y19.851 E24.09899
G1 X112.921 Y33.651 E24.55798
G1 X123.221 Y33.651 E24.90056
G0 F4800 X123.621 Y34.051
;TYPE:WALL-OUTER
G1 F1800 X123.621 Y19.451 E25.38616
G1 X112.521 Y19.451 E25.75535
G1 X112.521 Y34.051 E26.24094
G1 X123.621 Y34.051 E26.61013
G1 F2700 E21.61013
G1 F300 Z0.6
G0 F4800 X122.461 Y32.891 Z0.6
;TYPE:SKIN
G1 F300 Z0.2
G1 F2700 E26.61013
G1 F1800 X113.681 Y32.891 E26.90216
G1 X113.681 Y20.611 E27.31059
G1 X122.461 Y20.611 E27.60261
G1 X122.461 Y32.891 E28.01105
G1 F2700 E23.01105
G1 F300 Z0.6
G0 F4800 X114.149 Y32.69 Z0.6
G1 F300 Z0.2
G1 F2700 E28.01105
G1 F1800 X113.88 Y32.421 E28.0237
G0 F4800 X113.88 Y31.855
G1 F1800 X114.715 Y32.69 E28.06298
G0 F4800 X115.281 Y32.69
G1 F1800 X113.88 Y31.29 E28.12885
G0 F4800 X113.88 Y30.724
G1 F1800 X115.846 Y32.69 E28.22133
G0 F4800 X116.412 Y32.69
G1 F1800 X113.88 Y30.158 E28.34042
G0 F4800 X113.88 Y29.593
G1 F1800 X116.978 Y32.69 E28.48612
G0 F4800 X117.543 Y32.69
G1 F1800 X113.88 Y29.027 E28.65842
G0 F4800 X113.88 Y28.461
G1 F1800 X118.109 Y32.69 E28.85734
G0 F4800 X118.675 Y32.69
G1 F1800 X113.88 Y27.896 E29.08286
G0 F4800 X113.88 Y27.33
G1 F1800 X119.24 Y32.69 E29.33497
G0 F4800 X119.806 Y32.69
G1 F1800 X113.88 Y26.764 E29.61371
G0 F4800 X113.88 Y26.199
G1 F1800 X120.372 Y32.69 E29.91905
G0 F4800 X120.937 Y32.69
G1 F1800 X113.88 Y25.633 E30.25099
G0 F4800 X113.88 Y25.067
G1 F1800 X121.503 Y32.69 E30.60956
G0 F4800 X122.069 Y32.69
G1 F1800 X113.88 Y24.501 E30.99474
G0 F4800 X113.88 Y23.936
G1 F1800 X122.26 Y32.316 E31.38891
G0 F4800 X122.26 Y31.75
G1 F1800 X113.88 Y23.37 E31.78308
G0 F4800 X113.88 Y22.804
G1 F1800 X122.26 Y31.184 E32.17725
G0 F4800 X122.26 Y30.619
G1 F1800 X113.88 Y22.239 E32.57142
G0 F4800 X113.88 Y21.673
G1 F1800 X122.26 Y30.053 E32.96559
G0 F4800 X122.26 Y29.487
G1 F1800 X113.88 Y21.107 E33.35976
G0 F4800 X114.149 Y20.811
G1 F1800 X122.26 Y28.922 E33.74128
G0 F4800 X122.26 Y28.356
G1 F1800 X114.715 Y20.811 E34.09617
G0 F4800 X115.281 Y20.811
G1 F1800 X122.26 Y27.79 E34.42444
G0 F4800 X122.26 Y27.225
G1 F1800 X115.846 Y20.811 E34.72613
G0 F4800 X116.412 Y20.811
G1 F1800 X122.26 Y26.659 E35.00121
G0 F4800 X122.26 Y26.093
G1 F1800 X116.978 Y20.811 E35.24966
G0 F4800 X117.543 Y20.811
G1 F1800 X122.26 Y25.527 E35.47151
G0 F4800 X122.26 Y24.962
G1 F1800 X118.109 Y20.811 E35.66676
G0 F4800 X118.675 Y20.811
G1 F1800 X122.26 Y24.396 E35.83538
G0 F4800 X122.26 Y23.83
G1 F1800 X119.24 Y20.811 E35.97741
G0 F4800 X119.806 Y20.811
G1 F1800 X122.26 Y23.265 E36.09284
G0 F4800 X122.26 Y22.699
G1 F1800 X120.372 Y20.811 E36.18165
G0 F4800 X120.937 Y20.811
G1 F1800 X122.26 Y22.133 E36.24385
G0 F4800 X122.26 Y21.568
G1 F1800 X121.503 Y20.811 E36.27946
G0 F4800 X122.069 Y20.811
G1 F1800 X122.26 Y21.002 E36.28844
G1 F2700 E31.28844
G1 F300 Z0.6
;MESH:NONMESH
G0 F4800 X122.821 Y33.251 Z0.6
;TIME_ELAPSED:44.386889
;LAYER:1
M106 S170.9
;MESH:LimiterCollider.stl
G0 F5100 X122.821 Y33.251 Z0.8
;TYPE:WALL-INNER
G1 F300 Z0.4
G1 F2700 E36.28844
G1 F2100 X122.821 Y20.251 E36.72082
G1 X113.321 Y20.251 E37.0368
G1 X113.321 Y33.251 E37.46918
G1 X122.821 Y33.251 E37.78515
G0 F5100 X123.221 Y33.651
G1 F2100 X123.221 Y19.851 E38.24414
G1 X112.921 Y19.851 E38.58672
G1 X112.921 Y33.651 E39.04571
G1 X123.221 Y33.651 E39.38829
G0 F5100 X123.621 Y34.051
;TYPE:WALL-OUTER
G1 F2100 X123.621 Y19.451 E39.87389
G1 X112.521 Y19.451 E40.24307
G1 X112.521 Y34.051 E40.72867
G1 X123.621 Y34.051 E41.09786
G1 F2700 E36.09786
G1 F300 Z0.8
G0 F5100 X122.461 Y32.891 Z0.8
;TYPE:SKIN
G1 F300 Z0.4
G1 F2700 E41.09786
G1 F2100 X113.681 Y32.891 E41.38988
G1 X113.681 Y20.611 E41.79832
G1 X122.461 Y20.611 E42.09034
G1 X122.461 Y32.891 E42.49878
G0 F5100 X122.26 Y32.171
G1 F2100 X121.74 Y32.691 E42.52323
G0 F5100 X121.174 Y32.691
G1 F2100 X122.26 Y31.606 E42.57429
G0 F5100 X122.26 Y31.04
G1 F2100 X120.609 Y32.691 E42.65195
G0 F5100 X120.043 Y32.691
G1 F2100 X122.26 Y30.474 E42.75623
G0 F5100 X122.26 Y29.909
G1 F2100 X119.477 Y32.691 E42.88711
G0 F5100 X118.912 Y32.691
G1 F2100 X122.26 Y29.343 E43.04459
G0 F5100 X122.26 Y28.777
G1 F2100 X118.346 Y32.691 E43.22869
G0 F5100 X117.78 Y32.691
G1 F2100 X122.26 Y28.212 E43.4394
G0 F5100 X122.26 Y27.646
G1 F2100 X117.214 Y32.691 E43.67672
G0 F5100 X116.649 Y32.691
G1 F2100 X122.26 Y27.08 E43.94065
G0 F5100 X122.26 Y26.515
G1 F2100 X116.083 Y32.691 E44.23117
G0 F5100 X115.517 Y32.691
G1 F2100 X122.26 Y25.949 E44.54832
G0 F5100 X122.26 Y25.383
G1 F2100 X114.952 Y32.691 E44.89206
G0 F5100 X114.386 Y32.691
G1 F2100 X122.26 Y24.818 E45.26241
G0 F5100 X122.26 Y24.252
G1 F2100 X113.88 Y32.632 E45.65658
G0 F5100 X113.88 Y32.066
G1 F2100 X122.26 Y23.686 E46.05075
G0 F5100 X122.26 Y23.12
G1 F2100 X113.88 Y31.5 E46.44492
G0 F5100 X113.88 Y30.935
G1 F2100 X122.26 Y22.555 E46.83909
G0 F5100 X122.26 Y21.989
G1 F2100 X113.88 Y30.369 E47.23325
G0 F5100 X113.88 Y29.803
G1 F2100 X122.26 Y21.423 E47.62742
G0 F5100 X122.26 Y20.858
G1 F2100 X113.88 Y29.238 E48.02159
G0 F5100 X113.88 Y28.672
G1 F2100 X121.741 Y20.81 E48.39137
G0 F5100 X121.176 Y20.81
G1 F2100 X113.88 Y28.106 E48.73456
G0 F5100 X113.88 Y27.541
G1 F2100 X120.61 Y20.81 E49.05114
G0 F5100 X120.044 Y20.81
G1 F2100 X113.88 Y26.975 E49.3411
G0 F5100 X113.88 Y26.409
G1 F2100 X119.479 Y20.81 E49.60446
G0 F5100 X118.913 Y20.81
G1 F2100 X113.88 Y25.844 E49.84122
G0 F5100 X113.88 Y25.278
G1 F2100 X118.347 Y20.81 E50.05135
G0 F5100 X117.782 Y20.81
G1 F2100 X113.88 Y24.712 E50.23489
G0 F5100 X113.88 Y24.146
G1 F2100 X117.216 Y20.81 E50.39181
G0 F5100 X116.65 Y20.81
G1 F2100 X113.88 Y23.581 E50.52212
G0 F5100 X113.88 Y23.015
G1 F2100 X116.085 Y20.81 E50.62584
G0 F5100 X115.519 Y20.81
G1 F2100 X113.88 Y22.449 E50.70293
G0 F5100 X113.88 Y21.884
G1 F2100 X114.953 Y20.81 E50.75343
G0 F5100 X114.387 Y20.81
G1 F2100 X113.88 Y21.318 E50.7773
G1 F2700 E45.7773
G1 F300 Z0.8
;MESH:NONMESH
G0 F5100 X122.821 Y33.251 Z0.8
;TIME_ELAPSED:62.064574
;LAYER:2
M106 S198.6
;MESH:LimiterCollider.stl
G0 F5400 X122.821 Y33.251 Z1
;TYPE:WALL-INNER
G1 F300 Z0.6
G1 F2700 E50.7773
G1 F2400 X122.821 Y20.251 E51.20968
G1 X113.321 Y20.251 E51.52565
G1 X113.321 Y33.251 E51.95803
G1 X122.821 Y33.251 E52.27401
G0 F5400 X123.221 Y33.651
G1 F2400 X123.221 Y19.851 E52.733
G1 X112.921 Y19.851 E53.07557
G1 X112.921 Y33.651 E53.53456
G1 X123.221 Y33.651 E53.87714
G0 F5400 X123.621 Y34.051
;TYPE:WALL-OUTER
G1 F2400 X123.621 Y19.451 E54.36274
G1 X112.521 Y19.451 E54.73193
G1 X112.521 Y34.051 E55.21753
G1 X123.621 Y34.051 E55.58671
G1 F2700 E50.58671
G1 F300 Z1
G0 F5400 X122.461 Y32.891 Z1
;TYPE:SKIN
G1 F300 Z0.6
G1 F2700 E55.58671
G1 F2400 X113.681 Y32.891 E55.87874
G1 X113.681 Y20.611 E56.28717
G1 X122.461 Y20.611 E56.5792
G1 X122.461 Y32.891 E56.98763
G1 F2700 E51.98763
G1 F300 Z1
G0 F5400 X114.149 Y32.69 Z1
G1 F300 Z0.6
G1 F2700 E56.98763
G1 F2400 X113.88 Y32.421 E57.00028
G0 F5400 X113.88 Y31.855
G1 F2400 X114.715 Y32.69 E57.03956
G0 F5400 X115.281 Y32.69
G1 F2400 X113.88 Y31.29 E57.10544
G0 F5400 X113.88 Y30.724
G1 F2400 X115.846 Y32.69 E57.19791
G0 F5400 X116.412 Y32.69
G1 F2400 X113.88 Y30.158 E57.31701
G0 F5400 X113.88 Y29.593
G1 F2400 X116.978 Y32.69 E57.4627
G0 F5400 X117.543 Y32.69
G1 F2400 X113.88 Y29.027 E57.635
G0 F5400 X113.88 Y28.461
G1 F2400 X118.109 Y32.69 E57.83392
G0 F5400 X118.675 Y32.69
G1 F2400 X113.88 Y27.896 E58.05944
G0 F5400 X113.88 Y27.33
G1 F2400 X119.24 Y32.69 E58.31156
G0 F5400 X119.806 Y32.69
G1 F2400 X113.88 Y26.764 E58.5903
G0 F5400 X113.88 Y26.199
G1 F2400 X120.372 Y32.69 E58.89564
G0 F5400 X120.937 Y32.69
G1 F2400 X113.88 Y25.633 E59.22758
G0 F5400 X113.88 Y25.067
G1 F2400 X121.503 Y32.69 E59.58614
G0 F5400 X122.069 Y32.69
G1 F2400 X113.88 Y24.501 E59.97133
G0 F5400 X113.88 Y23.936
G1 F2400 X122.26 Y32.316 E60.3655
G0 F5400 X122.26 Y31.75
G1 F2400 X113.88 Y23.37 E60.75966
G0 F5400 X113.88 Y22.804
G1 F2400 X122.26 Y31.184 E61.15383
G0 F5400 X122.26 Y30.619
G1 F2400 X113.88 Y22.239 E61.548
G0 F5400 X113.88 Y21.673
G1 F2400 X122.26 Y30.053 E61.94217
