;FLAVOR:Marlin
;TIME:2586
;Filament used: 2.91812m
;Layer height: 0.3
;MINX:106.1
;MINY:26.997
;MINZ:0.2
;MAXX:150.4
;MAXY:71.297
;MAXZ:10.5
;TARGET_MACHINE.NAME:Creality Ender-3
;Generated with Cura_SteamEngine 5.6.0
M140 S30
M105
M190 S30
M104 S218
M105
M109 S218
M82 ;absolute extrusion mode
; Ender 3 Custom Start G-code
G92 E0 ; Reset Extruder
G28 ; Home all axes
G1 Z2.0 F3000 ; Move Z Axis up little to prevent scratching of Heat Bed
G1 X0.1 Y20 Z0.3 F5000.0 ; Move to start position
G1 X0.1 Y200.0 Z0.3 F1500.0 E15 ; Draw the first line
G1 X0.4 Y200.0 Z0.3 F5000.0 ; Move to side a little
G1 X0.4 Y20 Z0.3 F1500.0 E30 ; Draw the second line
G92 E0 ; Reset Extruder
G1 Z2.0 F3000 ; Move Z Axis up little to prevent scratching of Heat Bed
G1 X5 Y20 Z0.3 F5000.0 ; Move over to prevent blob squish
G92 E0
G92 E0
G1 F2700 E-5
;LAYER_COUNT:34
;LAYER:0
M106 S25.5
G1 F300 Z0.6
G0 F4800 X106.193 Y27.917 Z0.6
;TYPE:SKIRT
G1 F300 Z0.2
G1 F2700 E0
G1 F2100 X106.383 Y27.551 E0.01372
G1 X106.64 Y27.313 E0.02537
G1 X107.027 Y27.082 E0.04036
G1 X107.5 Y26.997 E0.05634
G1 X127.598 Y26.997 E0.7248
G1 X127.98 Y27.09 E0.73788
G1 X128.266 Y27.239 E0.7486
G1 X128.594 Y27.071 E0.76086
G1 X129 Y26.998 E0.77458
G1 X149.098 Y26.998 E1.44304
G1 X149.48 Y27.091 E1.45612
G1 X149.846 Y27.281 E1.46984
G1 X150.084 Y27.538 E1.48149
G1 X150.315 Y27.925 E1.49648
G1 X150.4 Y28.398 E1.51246
G1 X150.4 Y48.496 E2.18092
G1 X150.307 Y48.878 E2.194
G1 X150.159 Y49.163 E2.20468
G1 X150.327 Y49.491 E2.21694
G1 X150.4 Y49.897 E2.23066
G1 X150.4 Y69.995 E2.89912
G1 X150.307 Y70.377 E2.9122
G1 X150.117 Y70.743 E2.92591
G1 X149.86 Y70.981 E2.93756
G1 X149.473 Y71.212 E2.95255
G1 X149 Y71.297 E2.96854
G1 X128.902 Y71.297 E3.637
G1 X128.52 Y71.204 E3.65008
G1 X128.235 Y71.056 E3.66076
G1 X127.906 Y71.224 E3.67304
G1 X127.5 Y71.297 E3.68676
G1 X107.402 Y71.297 E4.35523
G1 X107.02 Y71.204 E4.3683
G1 X106.654 Y71.014 E4.38202
G1 X106.416 Y70.757 E4.39367
G1 X106.185 Y70.37 E4.40866
G1 X106.1 Y69.897 E4.42464
G1 X106.1 Y49.799 E5.0931
G1 X106.193 Y49.417 E5.10618
G1 X106.341 Y49.132 E5.11686
G1 X106.173 Y48.803 E5.12915
G1 X106.1 Y48.397 E5.14287
G1 X106.1 Y28.299 E5.81133
G1 X106.193 Y27.917 E5.82441
G0 F4800 X106.57 Y28.059
G1 F2100 X106.707 Y27.796 E5.83427
G1 X106.845 Y27.657 E5.84079
G1 X107.172 Y27.462 E5.85345
G1 X107.5 Y27.397 E5.86457
G1 X127.549 Y27.397 E6.5314
G1 X127.838 Y27.467 E6.54129
G1 X128.101 Y27.604 E6.55116
G1 X128.248 Y27.756 E6.55819
G1 X128.345 Y27.658 E6.56278
G1 X128.672 Y27.463 E6.57544
G1 X129 Y27.398 E6.58656
G1 X149.049 Y27.398 E7.25339
G1 X149.338 Y27.468 E7.26328
G1 X149.601 Y27.605 E7.27315
G1 X149.74 Y27.743 E7.27966
G1 X149.935 Y28.07 E7.29232
G1 X150 Y28.398 E7.30344
G1 X150 Y48.447 E7.97028
G1 X149.93 Y48.736 E7.98017
G1 X149.793 Y48.999 E7.99003
G1 X149.643 Y49.145 E7.99699
G1 X149.74 Y49.242 E8.00155
G1 X149.935 Y49.569 E8.01422
G1 X150 Y49.897 E8.02534
G1 X150 Y69.946 E8.69217
G1 X149.93 Y70.235 E8.70206
G1 X149.793 Y70.498 E8.71193
G1 X149.655 Y70.637 E8.71844
G1 X149.328 Y70.832 E8.7311
G1 X149 Y70.897 E8.74222
G1 X128.951 Y70.897 E9.40906
G1 X128.662 Y70.827 E9.41895
G1 X128.399 Y70.69 E9.42881
G1 X128.252 Y70.539 E9.43582
G1 X128.155 Y70.637 E9.44041
G1 X127.828 Y70.832 E9.45307
G1 X127.5 Y70.897 E9.46419
G1 X107.451 Y70.897 E10.13102
G1 X107.162 Y70.827 E10.14091
G1 X106.899 Y70.69 E10.15078
G1 X106.76 Y70.552 E10.15729
G1 X106.565 Y70.225 E10.16995
G1 X106.5 Y69.897 E10.18107
G1 X106.5 Y49.848 E10.84791
G1 X106.57 Y49.559 E10.8578
G1 X106.707 Y49.296 E10.86766
G1 X106.858 Y49.149 E10.87467
G1 X106.76 Y49.052 E10.87926
G1 X106.565 Y48.725 E10.89192
G1 X106.5 Y48.397 E10.90304
G1 X106.5 Y28.348 E11.56987
G1 X106.57 Y28.059 E11.57976
G0 F4800 X107.3 Y28.397
G1 F2100 X107.339 Y28.278 E11.58393
G1 X107.5 Y28.197 E11.58992
G1 X127.5 Y28.197 E12.25512
G1 X127.619 Y28.236 E12.25929
G1 X127.7 Y28.397 E12.26528
G1 X127.7 Y48.397 E12.93049
G1 X127.661 Y48.516 E12.93465
G1 X127.5 Y48.597 E12.94065
G1 X107.5 Y48.597 E13.60585
G1 X107.381 Y48.558 E13.61001
G1 X107.3 Y48.397 E13.61601
G1 X107.3 Y28.397 E14.28121
G0 F4800 X106.959 Y28.153
G1 F2100 X107.05 Y28.001 E14.2871
G1 X107.32 Y27.84 E14.29756
G1 X107.5 Y27.797 E14.30371
G1 X127.5 Y27.797 E14.96892
G1 X127.744 Y27.856 E14.97727
G1 X127.896 Y27.947 E14.98316
G1 X128.057 Y28.217 E14.99361
G1 X128.1 Y28.397 E14.99977
G1 X128.1 Y48.397 E15.66497
G1 X128.041 Y48.641 E15.67332
G1 X127.95 Y48.793 E15.67921
G1 X127.68 Y48.954 E15.68967
G1 X127.5 Y48.997 E15.69583
G1 X107.5 Y48.997 E16.36103
G1 X107.256 Y48.938 E16.36938
G1 X107.104 Y48.847 E16.37527
G1 X106.943 Y48.577 E16.38572
G1 X106.9 Y48.397 E16.39188
G1 X106.9 Y28.397 E17.05708
G1 X106.959 Y28.153 E17.06543
G1 F2700 E12.06543
G1 F300 Z0.6
G0 F4800 X107.5 Y49.297 Z0.6
G1 F300 Z0.2
G1 F2700 E17.06543
G1 F2100 X127.5 Y49.297 E17.73064
G1 X127.744 Y49.356 E17.73898
G1 X127.896 Y49.447 E17.74488
G1 X128.057 Y49.717 E17.75533
G1 X128.1 Y49.897 E17.76149
G1 X128.1 Y69.897 E18.42669
G1 X128.041 Y70.141 E18.43504
G1 X127.95 Y70.293 E18.44093
G1 X127.68 Y70.454 E18.45139
G1 X127.5 Y70.497 E18.45754
G1 X107.5 Y70.497 E19.12275
G1 X107.256 Y70.438 E19.13109
G1 X107.104 Y70.347 E19.13699
G1 X106.943 Y70.077 E19.14744
G1 X106.9 Y69.897 E19.1536
G1 X106.9 Y49.897 E19.8188
G1 X106.959 Y49.653 E19.82715
G1 X107.05 Y49.501 E19.83304
G1 X107.32 Y49.34 E19.8435
G1 X107.5 Y49.297 E19.84965
G1 F2700 E14.84965
G1 F300 Z0.6
G0 F4800 X128.4 Y49.897 Z0.6
G1 F300 Z0.2
G1 F2700 E19.84965
G1 F2100 X128.459 Y49.653 E19.858
G1 X128.55 Y49.501 E19.86389
G1 X128.82 Y49.34 E19.87435
G1 X129 Y49.297 E19.88051
G1 X149 Y49.297 E20.54571
G1 X149.244 Y49.356 E20.55406
G1 X149.396 Y49.447 E20.55995
G1 X149.557 Y49.717 E20.57041
G1 X149.6 Y49.897 E20.57656
G1 X149.6 Y69.897 E21.24176
G1 X149.541 Y70.141 E21.25011
G1 X149.45 Y70.293 E21.25601
G1 X149.18 Y70.454 E21.26646
G1 X149 Y70.497 E21.27262
G1 X129 Y70.497 E21.93782
G1 X128.756 Y70.438 E21.94617
G1 X128.604 Y70.347 E21.95206
G1 X128.443 Y70.077 E21.96252
G1 X128.4 Y69.897 E21.96867
G1 X128.4 Y49.897 E22.63387
G0 F4800 X128.756 Y48.939
G1 F2100 X128.604 Y48.848 E22.63977
G1 X128.443 Y48.578 E22.65022
G1 X128.4 Y48.398 E22.65638
G1 X128.4 Y28.398 E23.32158
G1 X128.459 Y28.154 E23.32993
G1 X128.55 Y28.002 E23.33582
G1 X128.82 Y27.841 E23.34628
G1 X129 Y27.798 E23.35243
G1 X149 Y27.798 E24.01764
G1 X149.244 Y27.857 E24.02598
G1 X149.396 Y27.948 E24.03188
G1 X149.557 Y28.218 E24.04233
G1 X149.6 Y28.398 E24.04849
G1 X149.6 Y48.398 E24.71369
G1 X149.541 Y48.642 E24.72204
G1 X149.45 Y48.794 E24.72793
G1 X149.18 Y48.955 E24.73839
G1 X149 Y48.998 E24.74454
G1 X129 Y48.998 E25.40975
G1 X128.756 Y48.939 E25.4181
G1 F2700 E20.4181
G1 F300 Z0.6
G0 F4800 X107.5 Y49.697 Z0.6
G1 F300 Z0.2
G1 F2700 E25.4181
G1 F2100 X127.5 Y49.697 E26.0833
G1 X127.619 Y49.736 E26.08746
G1 X127.7 Y49.897 E26.09346
G1 X127.7 Y69.897 E26.75866
G1 X127.661 Y70.016 E26.76283
G1 X127.5 Y70.097 E26.76882
G1 X107.5 Y70.097 E27.43402
G1 X107.381 Y70.058 E27.43819
G1 X107.3 Y69.897 E27.44418
G1 X107.3 Y49.897 E28.10938
G1 X107.339 Y49.778 E28.11355
G1 X107.5 Y49.697 E28.11954
G1 F2700 E23.11954
G1 F300 Z0.6
G0 F4800 X128.8 Y49.897 Z0.6
G1 F300 Z0.2
G1 F2700 E28.11954
G1 F2100 X128.839 Y49.778 E28.12371
G1 X129 Y49.697 E28.1297
G1 X149 Y49.697 E28.79491
G1 X149.119 Y49.736 E28.79907
G1 X149.2 Y49.897 E28.80507
G1 X149.2 Y69.897 E29.47027
G1 X149.161 Y70.016 E29.47443
G1 X149 Y70.097 E29.48043
G1 X129 Y70.097 E30.14563
G1 X128.881 Y70.058 E30.1498
G1 X128.8 Y69.897 E30.15579
G1 X128.8 Y49.897 E30.82099
G0 F4800 X129 Y48.598
G1 F2100 X128.881 Y48.559 E30.82516
G1 X128.8 Y48.398 E30.83115
G1 X128.8 Y28.398 E31.49635
G1 X128.839 Y28.279 E31.50052
G1 X129 Y28.198 E31.50651
G1 X149 Y28.198 E32.17172
G1 X149.119 Y28.237 E32.17588
G1 X149.2 Y28.398 E32.18188
G1 X149.2 Y48.398 E32.84708
G1 X149.161 Y48.517 E32.85124
G1 X149 Y48.598 E32.85724
G1 X129 Y48.598 E33.52244
G1 F2700 E28.52244
G1 F300 Z0.6
;MESH:PCB_StandOff_sturdy.stl(1)
G0 F4800 X126.5 Y47.397 Z0.6
;TYPE:WALL-INNER
G1 F300 Z0.2
G1 F2700 E33.52244
G1 F1800 X126.5 Y29.397 E34.12112
G1 X108.5 Y29.397 E34.71981
G1 X108.501 Y47.396 E35.31846
G1 X126.5 Y47.397 E35.9171
G0 F4800 X126.9 Y47.797
G1 F1800 X126.9 Y28.997 E36.5424
G1 X108.1 Y28.997 E37.16769
G1 X108.101 Y47.796 E37.79294
G1 X126.9 Y47.797 E38.4182
G1 F2700 E33.4182
G1 F300 Z0.6
G0 F4800 X117.116 Y40.377 Z0.6
G1 F300 Z0.2
G1 F2700 E38.4182
G1 F1800 X116.859 Y40.312 E38.42702
G1 X116.35 Y40.048 E38.44609
G1 X115.964 Y39.687 E38.46367
G1 X115.676 Y39.252 E38.48102
G1 X115.492 Y38.521 E38.50609
G1 X115.551 Y37.875 E38.52767
G1 X115.908 Y37.155 E38.55439
G1 X116.424 Y36.705 E38.57717
G1 X116.876 Y36.489 E38.59383
G1 X117.357 Y36.395 E38.61013
G1 X117.83 Y36.42 E38.62588
G1 X118.111 Y36.468 E38.63536
G1 X118.785 Y36.821 E38.66067
G1 X119.223 Y37.361 E38.6838
G1 X119.391 Y37.76 E38.6982
G1 X119.458 Y38.002 E38.70655
G1 X119.505 Y38.414 E38.72034
G1 X119.388 Y39.098 E38.74342
G1 X119.13 Y39.565 E38.76116
G1 X118.729 Y39.992 E38.78065
G1 X118.217 Y40.276 E38.80012
G1 X117.755 Y40.388 E38.81593
G1 X117.116 Y40.377 E38.83719
G0 F4800 X117.715 Y39.987
G1 F1800 X117.098 Y39.977 E38.85771
G1 X116.585 Y39.712 E38.87692
G1 X116.25 Y39.399 E38.89217
G1 X116.046 Y39.085 E38.90462
G1 X115.891 Y38.474 E38.92559
G1 X115.946 Y37.979 E38.94215
G1 X116.234 Y37.399 E38.96369
G1 X116.677 Y37.024 E38.98299
G1 X117 Y36.873 E38.99485
G1 X117.388 Y36.796 E39.00801
G1 X117.933 Y36.827 E39.02617
G1 X118.532 Y37.141 E39.04866
G1 X118.87 Y37.57 E39.06682
G1 X119.054 Y37.99 E39.08208
G1 X119.103 Y38.392 E39.09555
G1 X119.011 Y38.932 E39.11376
G1 X118.841 Y39.279 E39.12662
G1 X118.48 Y39.674 E39.14441
G1 X118.07 Y39.894 E39.15989
G1 X117.715 Y39.987 E39.1721
G0 F4800 X117.682 Y39.584
;TYPE:WALL-OUTER
G1 F1800 X117.189 Y39.579 E39.18849
G1 X116.817 Y39.386 E39.20243
G1 X116.545 Y39.125 E39.21497
G1 X116.421 Y38.923 E39.22285
G1 X116.297 Y38.45 E39.23912
G1 X116.339 Y38.094 E39.25104
G1 X116.556 Y37.656 E39.2673
G1 X116.893 Y37.358 E39.28226
G1 X117.152 Y37.25 E39.29159
G1 X117.402 Y37.201 E39.30007
G1 X117.824 Y37.226 E39.31413
G1 X118.267 Y37.456 E39.33073
G1 X118.526 Y37.775 E39.3444
G1 X118.654 Y38.072 E39.35515
G1 X118.7 Y38.36 E39.36485
G1 X118.62 Y38.829 E39.38068
G1 X118.496 Y39.068 E39.38963
G1 X118.23 Y39.351 E39.40255
G1 X117.923 Y39.522 E39.41424
G1 X117.682 Y39.584 E39.42252
G1 F2700 E34.42252
G1 F300 Z0.6
G0 F4800 X127.3 Y48.197 Z0.6
G1 F300 Z0.2
G1 F2700 E39.42252
G1 F1800 X127.3 Y28.597 E40.07441
G1 X107.7 Y28.597 E40.72631
G1 X107.701 Y48.196 E41.37818
G1 X127.3 Y48.197 E42.03004
G1 F2700 E37.03004
G1 F300 Z0.6
G0 F4800 X117.049 Y40.732 Z0.6
;TYPE:SKIN
G1 F300 Z0.2
G1 F2700 E42.03004
G1 F1800 X117.806 Y40.745 E42.05523
G1 X118.344 Y40.617 E42.07362
G1 X118.954 Y40.277 E42.09685
G1 X119.402 Y39.801 E42.11859
G1 X119.736 Y39.219 E42.14091
G1 X119.868 Y38.427 E42.16761
G1 X119.817 Y37.963 E42.18314
G1 X119.729 Y37.639 E42.1943
G1 X119.532 Y37.167 E42.21131
G1 X119.138 Y36.683 E42.23207
G1 X118.886 Y36.466 E42.24313
G1 X118.229 Y36.121 E42.26781
G1 X117.874 Y36.064 E42.27977
G1 X117.308 Y36.036 E42.29862
G1 X116.932 Y36.112 E42.31138
G1 X116.659 Y36.195 E42.32087
G1 X116.221 Y36.403 E42.337
G1 X115.772 Y36.795 E42.35682
G1 X115.559 Y37.046 E42.36777
G1 X115.31 Y37.547 E42.38638
G1 X115.203 Y37.816 E42.39601
G1 X115.147 Y38.284 E42.41168
G1 X115.144 Y38.609 E42.42249
G1 X115.344 Y39.398 E42.44957
G1 X115.675 Y39.901 E42.46959
G1 X116.141 Y40.345 E42.491
G1 X116.712 Y40.64 E42.51238
G1 X117.049 Y40.732 E42.524
G1 F2700 E37.524
G1 F300 Z0.6
G0 F4800 X126.14 Y47.037 Z0.6
G1 F300 Z0.2
G1 F2700 E42.524
G1 F1800 X108.862 Y47.035 E43.09867
G1 X108.861 Y29.758 E43.6733
G1 X126.14 Y29.757 E44.248
G1 X126.14 Y47.037 E44.82274
G1 F2700 E39.82274
G1 F300 Z0.6
G0 F4800 X109.625 Y46.834 Z0.6
G1 F300 Z0.2
G1 F2700 E44.82274
G1 F1800 X109.06 Y46.269 E44.84931
G0 F4800 X109.06 Y45.703
G1 F1800 X110.191 Y46.834 E44.90251
G0 F4800 X110.756 Y46.834
G1 F1800 X109.06 Y45.138 E44.98229
G0 F4800 X109.06 Y44.572
G1 F1800 X111.322 Y46.834 E45.08869
G0 F4800 X111.888 Y46.834
G1 F1800 X109.06 Y44.006 E45.22171
G0 F4800 X109.06 Y43.441
G1 F1800 X112.454 Y46.834 E45.38133
G0 F4800 X113.019 Y46.834
G1 F1800 X109.06 Y42.875 E45.56754
G0 F4800 X109.06 Y42.309
G1 F1800 X113.585 Y46.834 E45.78039
G0 F4800 X114.151 Y46.834
G1 F1800 X109.06 Y41.744 E46.01983
G0 F4800 X109.06 Y41.178
G1 F1800 X114.717 Y46.835 E46.28592
G0 F4800 X115.283 Y46.835
G1 F1800 X109.06 Y40.612 E46.57863
G0 F4800 X109.06 Y40.046
G1 F1800 X115.848 Y46.835 E46.89794
G0 F4800 X116.414 Y46.835
G1 F1800 X109.06 Y39.481 E47.24385
G0 F4800 X109.06 Y38.915
G1 F1800 X116.98 Y46.835 E47.61638
G0 F4800 X117.545 Y46.835
G1 F1800 X109.06 Y38.349 E48.01551
G0 F4800 X109.06 Y37.784
G1 F1800 X118.111 Y46.835 E48.44124
G0 F4800 X118.677 Y46.835
G1 F1800 X109.06 Y37.218 E48.8936
G0 F4800 X109.06 Y36.652
G1 F1800 X119.242 Y46.835 E49.37255
G0 F4800 X119.808 Y46.835
G1 F1800 X109.06 Y36.087 E49.8781
G0 F4800 X109.06 Y35.521
G1 F1800 X120.375 Y46.835 E50.4103
G0 F4800 X120.94 Y46.835
G1 F1800 X109.06 Y34.955 E50.9691
G0 F4800 X109.06 Y34.39
G1 F1800 X121.506 Y46.835 E51.5545
G0 F4800 X122.072 Y46.835
G1 F1800 X109.06 Y33.824 E52.16652
G0 F4800 X109.06 Y33.258
G1 F1800 X115.119 Y39.317 E52.45152
G0 F4800 X114.947 Y38.579
G1 F1800 X109.06 Y32.693 E52.7284
G0 F4800 X109.06 Y32.127
G1 F1800 X114.971 Y38.038 E53.00644
G0 F4800 X115.08 Y37.582
G1 F1800 X109.06 Y31.561 E53.28962
G0 F4800 X109.06 Y30.996
G1 F1800 X115.26 Y37.195 E53.58123
G0 F4800 X115.468 Y36.838
G1 F1800 X109.06 Y30.43 E53.88264
G0 F4800 X109.153 Y29.957
G1 F1800 X115.745 Y36.549 E54.19271
G0 F4800 X116.047 Y36.285
G1 F1800 X109.719 Y29.957 E54.49036
G0 F4800 X110.285 Y29.957
G1 F1800 X116.416 Y36.089 E54.77876
G0 F4800 X116.827 Y35.934
G1 F1800 X110.851 Y29.957 E55.05988
G0 F4800 X111.416 Y29.957
G1 F1800 X117.293 Y35.834 E55.33632
G0 F4800 X117.89 Y35.865
G1 F1800 X111.982 Y29.957 E55.61421
G0 F4800 X112.548 Y29.957
G1 F1800 X118.769 Y36.179 E55.90685
G0 F4800 X119.74 Y37.149
G1 F1800 X125.939 Y43.349 E56.19846
G0 F4800 X125.939 Y43.914
G1 F1800 X120.02 Y37.996 E56.47684
G0 F4800 X120.041 Y38.582
G1 F1800 X125.939 Y44.48 E56.75427
G0 F4800 X125.939 Y45.046
G1 F1800 X119.961 Y39.068 E57.03545
G0 F4800 X119.813 Y39.486
G1 F1800 X125.939 Y45.611 E57.32358
G0 F4800 X125.939 Y46.177
G1 F1800 X119.61 Y39.849 E57.62125
G0 F4800 X119.346 Y40.15
G1 F1800 X125.939 Y46.743 E57.93137
G0 F4800 X125.466 Y46.835
G1 F1800 X119.069 Y40.439 E58.23224
G0 F4800 X118.707 Y40.643
G1 F1800 X124.9 Y46.835 E58.52352
G0 F4800 X124.334 Y46.835
G1 F1800 X118.326 Y40.827 E58.80611
G0 F4800 X117.869 Y40.935
G1 F1800 X123.769 Y46.835 E59.08363
G0 F4800 X123.203 Y46.835
G1 F1800 X117.306 Y40.939 E59.36098
G0 F4800 X116.621 Y40.819
G1 F1800 X122.637 Y46.835 E59.64396
G1 F2700 E54.64396
G1 F300 Z0.6
G0 F4800 X125.939 Y42.783 Z0.6
G1 F300 Z0.2
G1 F2700 E59.64396
G1 F1800 X113.113 Y29.957 E60.24725
G0 F4800 X113.679 Y29.957
G1 F1800 X125.939 Y42.217 E60.82393
G0 F4800 X125.939 Y41.652
G1 F1800 X114.245 Y29.957 E61.374
G0 F4800 X114.81 Y29.957
G1 F1800 X125.939 Y41.086 E61.89747
G0 F4800 X125.939 Y40.52
G1 F1800 X115.376 Y29.957 E62.39433
G0 F4800 X115.942 Y29.957
G1 F1800 X125.939 Y39.955 E62.86458
G0 F4800 X125.939 Y39.389
G1 F1800 X116.507 Y29.957 E63.30823
G0 F4800 X117.073 Y29.957
G1 F1800 X125.939 Y38.823 E63.72526
G0 F4800 X125.939 Y38.258
G1 F1800 X117.638 Y29.957 E64.11571
G0 F4800 X118.204 Y29.957
G1 F1800 X125.939 Y37.692 E64.47954
G0 F4800 X125.939 Y37.126
G1 F1800 X118.769 Y29.957 E64.81677
G0 F4800 X119.335 Y29.957
G1 F1800 X125.939 Y36.56 E65.12738
G0 F4800 X125.939 Y35.995
G1 F1800 X119.901 Y29.957 E65.41139
G0 F4800 X120.466 Y29.957
G1 F1800 X125.939 Y35.429 E65.6688
G0 F4800 X125.939 Y34.863
G1 F1800 X121.032 Y29.957 E65.89959
G0 F4800 X121.598 Y29.957
G1 F1800 X125.939 Y34.298 E66.10378
G0 F4800 X125.939 Y33.732
G1 F1800 X122.164 Y29.957 E66.28134
G0 F4800 X122.729 Y29.957
G1 F1800 X125.939 Y33.166 E66.43231
G0 F4800 X125.939 Y32.601
G1 F1800 X123.295 Y29.957 E66.55667
G0 F4800 X123.861 Y29.957
