;FLAVOR:Marlin
;TIME:1106
;Filament used: 1.04074m
;Layer height: 0.3
;MINX:106.322
;MINY:32.652
;MINZ:0.2
;MAXX:146.679
;MAXY:72.934
;MAXZ:13.5
;Generated with Cura_SteamEngine master
M140 S30
M105
M190 S30
M104 S218
M105
M109 S218
M82 ;absolute extrusion mode
; Ender 3 Custom Start G-code
G92 E0 ; Reset Extruder
G28 ; Home all axes
G1 Z2.0 F3000 ; Move Z Axis up little to prevent scratching of Heat Bed
G1 X0.1 Y20 Z0.3 F5000.0 ; Move to start position
G1 X0.1 Y200.0 Z0.3 F1500.0 E15 ; Draw the first line
G1 X0.4 Y200.0 Z0.3 F5000.0 ; Move to side a little
G1 X0.4 Y20 Z0.3 F1500.0 E30 ; Draw the second line
G92 E0 ; Reset Extruder
G1 Z2.0 F3000 ; Move Z Axis up little to prevent scratching of Heat Bed
G1 X5 Y20 Z0.3 F5000.0 ; Move over to prevent blob squish
G92 E0
G92 E0
G1 F2700 E-5
;LAYER_COUNT:44
;LAYER:0
M106 S25.5
G1 F300 Z0.6
;MESH:PCB_1_hole_StandOff.stl(2)
G0 F4800 X114.442 Y47.455 Z0.6
;TYPE:WALL-INNER
G1 F300 Z0.2
G1 F2700 E0
G1 F1800 X114.138 Y47.462 E0.01011
G1 X113.833 Y47.455 E0.02026
G1 X113.582 Y47.44 E0.02862
G1 X113.263 Y47.406 E0.03929
G1 X112.965 Y47.362 E0.04931
G1 X112.689 Y47.309 E0.05866
G1 X112.389 Y47.24 E0.0689
G1 X112.111 Y47.162 E0.0785
G1 X111.849 Y47.077 E0.08766
G1 X111.558 Y46.968 E0.098
G1 X111.279 Y46.851 E0.10806
G1 X111.028 Y46.733 E0.11729
G1 X110.749 Y46.587 E0.12776
G1 X110.53 Y46.46 E0.13618
G1 X110.258 Y46.288 E0.14688
G1 X110.03 Y46.129 E0.15613
G1 X109.781 Y45.94 E0.16653
G1 X109.562 Y45.759 E0.17598
G1 X109.342 Y45.56 E0.18584
G1 X109.124 Y45.345 E0.19603
G1 X108.922 Y45.13 E0.20584
G1 X108.724 Y44.898 E0.21598
G1 X108.54 Y44.665 E0.22586
G1 X108.387 Y44.453 E0.23455
G1 X108.22 Y44.198 E0.24469
G1 X108.068 Y43.946 E0.25448
G1 X107.922 Y43.676 E0.26469
G1 X107.804 Y43.44 E0.27346
G1 X107.678 Y43.156 E0.2838
G1 X107.57 Y42.878 E0.29372
G1 X107.47 Y42.59 E0.30386
G1 X107.397 Y42.344 E0.31239
G1 X107.319 Y42.035 E0.32299
G1 X107.263 Y41.771 E0.33197
G1 X107.211 Y41.459 E0.34249
G1 X107.174 Y41.168 E0.35225
G1 X107.152 Y40.878 E0.36192
G1 X107.14 Y40.579 E0.37187
G1 X107.14 Y40.323 E0.38039
G1 X107.153 Y40.021 E0.39044
G1 X107.18 Y39.704 E0.40102
G1 X107.216 Y39.427 E0.41031
G1 X107.264 Y39.14 E0.41999
G1 X107.33 Y38.839 E0.43024
G1 X107.397 Y38.578 E0.4392
G1 X107.484 Y38.289 E0.44924
G1 X107.58 Y38.012 E0.45899
G1 X107.683 Y37.755 E0.4682
G1 X107.802 Y37.487 E0.47795
G1 X107.951 Y37.188 E0.48906
G1 X108.073 Y36.968 E0.49743
G1 X108.248 Y36.681 E0.50861
G1 X108.389 Y36.471 E0.51702
G1 X108.564 Y36.23 E0.52693
G1 X108.762 Y35.982 E0.53748
G1 X108.934 Y35.782 E0.54626
G1 X109.146 Y35.556 E0.55656
G1 X109.356 Y35.351 E0.56633
G1 X109.575 Y35.154 E0.57612
G1 X109.781 Y34.984 E0.58501
G1 X110.034 Y34.792 E0.59557
G1 X110.248 Y34.644 E0.60422
G1 X110.525 Y34.468 E0.61514
G1 X110.763 Y34.33 E0.62429
G1 X111.02 Y34.195 E0.63395
G1 X111.279 Y34.073 E0.64347
G1 X111.563 Y33.954 E0.65371
G1 X111.849 Y33.847 E0.66387
G1 X112.116 Y33.76 E0.67321
G1 X112.385 Y33.686 E0.68248
G1 X112.699 Y33.613 E0.69321
G1 X112.965 Y33.562 E0.70222
G1 X113.261 Y33.518 E0.71217
G1 X113.566 Y33.486 E0.72237
G1 X113.834 Y33.469 E0.7313
G1 X114.138 Y33.462 E0.74141
G1 X114.442 Y33.469 E0.75153
G1 X114.711 Y33.486 E0.76049
G1 X115.015 Y33.518 E0.77066
G1 X115.311 Y33.562 E0.78061
G1 X115.577 Y33.613 E0.78962
G1 X115.892 Y33.686 E0.80038
G1 X116.169 Y33.763 E0.80994
G1 X116.427 Y33.847 E0.81896
G1 X116.713 Y33.954 E0.82912
G1 X116.997 Y34.073 E0.83936
G1 X117.256 Y34.195 E0.84888
G1 X117.513 Y34.33 E0.85854
G1 X117.751 Y34.468 E0.86769
G1 X118.028 Y34.644 E0.8786
G1 X118.263 Y34.807 E0.88812
G1 X118.483 Y34.973 E0.89728
G1 X118.697 Y35.15 E0.90652
G1 X118.919 Y35.349 E0.91644
G1 X119.135 Y35.562 E0.92652
G1 X119.364 Y35.806 E0.93765
G1 X119.529 Y35.998 E0.94607
G1 X119.717 Y36.235 E0.95614
G1 X119.891 Y36.477 E0.96605
G1 X120.069 Y36.744 E0.97672
G1 X120.196 Y36.956 E0.98494
G1 X120.35 Y37.238 E0.99563
G1 X120.477 Y37.492 E1.00507
G1 X120.591 Y37.751 E1.01449
G1 X120.702 Y38.032 E1.02454
G1 X120.798 Y38.308 E1.03425
G1 X120.882 Y38.59 E1.04404
G1 X120.959 Y38.891 E1.05437
G1 X121.013 Y39.152 E1.06324
G1 X121.063 Y39.45 E1.07329
G1 X121.101 Y39.748 E1.08328
G1 X121.122 Y40.018 E1.09229
G1 X121.136 Y40.345 E1.10317
G1 X121.136 Y40.601 E1.11169
G1 X121.123 Y40.903 E1.12174
G1 X121.096 Y41.212 E1.13206
G1 X121.058 Y41.512 E1.14212
G1 X121.012 Y41.784 E1.15129
G1 X120.954 Y42.057 E1.16058
G1 X120.875 Y42.355 E1.17083
G1 X120.792 Y42.634 E1.18051
G1 X120.697 Y42.904 E1.19003
G1 X120.591 Y43.172 E1.19962
G1 X120.471 Y43.443 E1.20947
G1 X120.336 Y43.714 E1.21954
G1 X120.195 Y43.972 E1.22932
G1 X120.054 Y44.205 E1.23838
G1 X119.887 Y44.453 E1.24833
G1 X119.712 Y44.694 E1.25823
G1 X119.514 Y44.942 E1.26879
G1 X119.342 Y45.142 E1.27756
G1 X119.132 Y45.366 E1.28777
G1 X118.935 Y45.56 E1.29697
G1 X118.709 Y45.764 E1.30709
G1 X118.502 Y45.935 E1.31602
G1 X118.246 Y46.129 E1.32671
G1 X118.018 Y46.288 E1.33595
G1 X117.746 Y46.46 E1.34666
G1 X117.527 Y46.587 E1.35508
G1 X117.248 Y46.733 E1.36555
G1 X116.997 Y46.851 E1.37478
G1 X116.718 Y46.968 E1.38484
G1 X116.427 Y47.077 E1.39517
G1 X116.172 Y47.16 E1.40409
G1 X115.893 Y47.238 E1.41373
G1 X115.581 Y47.31 E1.42438
G1 X115.311 Y47.363 E1.43353
G1 X115.015 Y47.406 E1.44348
G1 X114.711 Y47.438 E1.45364
G1 X114.442 Y47.455 E1.46261
G0 F4800 X114.451 Y47.855
G1 F1800 X114.138 Y47.862 E1.47302
G1 X113.824 Y47.855 E1.48347
G1 X113.54 Y47.838 E1.49293
G1 X113.212 Y47.803 E1.5039
G1 X112.897 Y47.757 E1.51449
G1 X112.613 Y47.702 E1.52411
G1 X112.294 Y47.629 E1.535
G1 X111.998 Y47.546 E1.54522
G1 X111.709 Y47.452 E1.55533
G1 X111.411 Y47.341 E1.56591
G1 X111.124 Y47.22 E1.57627
G1 X110.851 Y47.092 E1.58629
G1 X110.563 Y46.941 E1.59711
G1 X110.316 Y46.798 E1.6066
G1 X110.044 Y46.626 E1.61731
G1 X109.788 Y46.448 E1.62768
G1 X109.539 Y46.259 E1.63807
G1 X109.3 Y46.061 E1.6484
G1 X109.074 Y45.857 E1.65852
G1 X108.832 Y45.619 E1.66981
G1 X108.63 Y45.404 E1.67962
G1 X108.42 Y45.158 E1.69038
G1 X108.226 Y44.913 E1.70078
G1 X108.055 Y44.676 E1.7105
G1 X107.877 Y44.405 E1.72128
G1 X107.725 Y44.153 E1.73107
G1 X107.57 Y43.867 E1.74189
G1 X107.438 Y43.602 E1.75173
G1 X107.312 Y43.318 E1.76207
G1 X107.197 Y43.023 E1.7726
G1 X107.092 Y42.721 E1.78323
G1 X107.009 Y42.442 E1.79291
G1 X106.931 Y42.133 E1.80351
G1 X106.868 Y41.837 E1.81358
G1 X106.816 Y41.525 E1.8241
G1 X106.777 Y41.219 E1.83436
G1 X106.753 Y40.909 E1.8447
G1 X106.74 Y40.596 E1.85512
G1 X106.74 Y40.305 E1.8648
G1 X106.754 Y39.987 E1.87539
G1 X106.781 Y39.67 E1.88597
G1 X106.821 Y39.361 E1.89633
G1 X106.869 Y39.074 E1.90601
G1 X106.939 Y38.754 E1.9169
G1 X107.014 Y38.462 E1.92693
G1 X107.106 Y38.157 E1.93753
G1 X107.203 Y37.88 E1.94729
G1 X107.318 Y37.592 E1.9576
G1 X107.444 Y37.309 E1.96791
G1 X107.593 Y37.01 E1.97902
G1 X107.731 Y36.76 E1.98852
G1 X107.906 Y36.473 E1.9997
G1 X108.065 Y36.236 E2.00919
G1 X108.251 Y35.98 E2.01971
G1 X108.449 Y35.732 E2.03027
G1 X108.642 Y35.508 E2.0401
G1 X108.854 Y35.282 E2.05041
G1 X109.076 Y35.065 E2.06073
G1 X109.307 Y34.857 E2.07107
G1 X109.539 Y34.665 E2.08109
G1 X109.792 Y34.473 E2.09165
G1 X110.033 Y34.306 E2.1014
G1 X110.31 Y34.13 E2.11232
G1 X110.577 Y33.976 E2.12257
G1 X110.843 Y33.836 E2.13257
G1 X111.124 Y33.704 E2.1429
G1 X111.417 Y33.581 E2.15346
G1 X111.709 Y33.472 E2.16383
G1 X111.998 Y33.378 E2.17394
G1 X112.294 Y33.296 E2.18415
G1 X112.611 Y33.222 E2.19498
G1 X112.897 Y33.167 E2.20467
G1 X113.211 Y33.121 E2.21522
G1 X113.524 Y33.088 E2.22569
G1 X113.825 Y33.069 E2.23572
G1 X114.138 Y33.062 E2.24614
G1 X114.451 Y33.069 E2.25655
G1 X114.753 Y33.088 E2.26661
G1 X115.065 Y33.121 E2.27705
G1 X115.379 Y33.167 E2.2876
G1 X115.665 Y33.222 E2.29729
G1 X115.983 Y33.296 E2.30815
G1 X116.284 Y33.38 E2.31854
G1 X116.567 Y33.472 E2.32844
G1 X116.859 Y33.581 E2.33881
G1 X117.152 Y33.704 E2.34938
G1 X117.433 Y33.836 E2.3597
G1 X117.699 Y33.976 E2.3697
G1 X117.966 Y34.13 E2.37995
G1 X118.243 Y34.306 E2.39087
G1 X118.491 Y34.478 E2.40091
G1 X118.737 Y34.664 E2.41116
G1 X118.964 Y34.852 E2.42097
G1 X119.2 Y35.064 E2.43152
G1 X119.427 Y35.288 E2.44212
G1 X119.656 Y35.532 E2.45325
G1 X119.842 Y35.749 E2.46276
G1 X120.042 Y36.001 E2.47346
G1 X120.216 Y36.243 E2.48337
G1 X120.402 Y36.522 E2.49453
G1 X120.547 Y36.764 E2.50391
G1 X120.708 Y37.059 E2.51509
G1 X120.835 Y37.313 E2.52453
G1 X120.963 Y37.604 E2.53511
G1 X121.08 Y37.901 E2.54572
G1 X121.176 Y38.177 E2.55544
G1 X121.27 Y38.491 E2.56635
G1 X121.347 Y38.792 E2.57668
G1 X121.408 Y39.086 E2.58667
G1 X121.46 Y39.399 E2.59722
G1 X121.498 Y39.697 E2.60721
G1 X121.522 Y40.001 E2.61735
G1 X121.536 Y40.328 E2.62824
G1 X121.536 Y40.619 E2.63792
G1 X121.522 Y40.937 E2.6485
G1 X121.495 Y41.25 E2.65895
G1 X121.455 Y41.563 E2.66945
G1 X121.403 Y41.867 E2.67971
G1 X121.341 Y42.16 E2.68967
G1 X121.259 Y42.469 E2.7003
G1 X121.176 Y42.749 E2.71001
G1 X121.069 Y43.051 E2.72067
G1 X120.957 Y43.334 E2.73079
G1 X120.833 Y43.614 E2.74098
G1 X120.687 Y43.906 E2.75184
G1 X120.545 Y44.165 E2.76166
G1 X120.386 Y44.428 E2.77188
G1 X120.211 Y44.688 E2.78231
G1 X120.025 Y44.944 E2.79283
G1 X119.827 Y45.192 E2.80339
G1 X119.634 Y45.416 E2.81322
G1 X119.422 Y45.642 E2.82353
G1 X119.213 Y45.848 E2.83329
G1 X118.97 Y46.067 E2.84417
G1 X118.744 Y46.254 E2.85392
G1 X118.488 Y46.448 E2.86461
G1 X118.232 Y46.626 E2.87498
G1 X117.96 Y46.798 E2.88568
G1 X117.713 Y46.941 E2.89517
G1 X117.425 Y47.092 E2.90599
G1 X117.152 Y47.22 E2.91602
G1 X116.865 Y47.341 E2.92638
G1 X116.567 Y47.452 E2.93695
G1 X116.284 Y47.544 E2.94685
G1 X115.983 Y47.628 E2.95725
G1 X115.663 Y47.702 E2.96817
G1 X115.379 Y47.757 E2.97779
G1 X115.065 Y47.803 E2.98835
G1 X114.753 Y47.836 E2.99878
G1 X114.451 Y47.855 E3.00885
G0 F4800 X114.46 Y48.255
;TYPE:WALL-OUTER
G1 F1800 X114.138 Y48.262 E3.01956
G1 X113.815 Y48.255 E3.0303
G1 X113.498 Y48.236 E3.04087
G1 X113.161 Y48.2 E3.05214
G1 X112.833 Y48.152 E3.06316
G1 X112.52 Y48.092 E3.07376
G1 X112.203 Y48.018 E3.08459
G1 X111.88 Y47.928 E3.09574
G1 X111.569 Y47.827 E3.10662
G1 X111.271 Y47.716 E3.1172
G1 X110.968 Y47.588 E3.12814
G1 X110.666 Y47.447 E3.13922
G1 X110.377 Y47.295 E3.15008
G1 X110.102 Y47.136 E3.16065
G1 X109.818 Y46.956 E3.17183
G1 X109.55 Y46.77 E3.18268
G1 X109.297 Y46.578 E3.19324
G1 X109.039 Y46.364 E3.20439
G1 X108.796 Y46.145 E3.21527
G1 X108.551 Y45.904 E3.2267
G1 X108.328 Y45.666 E3.23755
G1 X108.116 Y45.418 E3.2484
G1 X107.913 Y45.162 E3.25927
G1 X107.722 Y44.897 E3.27013
G1 X107.543 Y44.625 E3.28096
G1 X107.373 Y44.344 E3.29189
G1 X107.218 Y44.058 E3.30271
G1 X107.072 Y43.764 E3.31363
G1 X106.94 Y43.466 E3.32447
G1 X106.824 Y43.169 E3.33507
G1 X106.714 Y42.852 E3.34623
G1 X106.621 Y42.54 E3.35706
G1 X106.543 Y42.231 E3.36766
G1 X106.473 Y41.903 E3.37881
G1 X106.421 Y41.591 E3.38933
G1 X106.379 Y41.258 E3.4005
G1 X106.354 Y40.94 E3.41111
G1 X106.34 Y40.613 E3.42199
G1 X106.34 Y40.287 E3.43284
G1 X106.355 Y39.953 E3.44396
G1 X106.382 Y39.636 E3.45454
G1 X106.424 Y39.31 E3.46547
G1 X106.478 Y38.989 E3.4763
G1 X106.548 Y38.669 E3.48719
G1 X106.631 Y38.345 E3.49832
G1 X106.724 Y38.04 E3.50892
G1 X106.832 Y37.732 E3.51978
G1 X106.953 Y37.429 E3.53063
G1 X107.086 Y37.131 E3.54148
G1 X107.235 Y36.832 E3.55259
G1 X107.389 Y36.552 E3.56322
G1 X107.564 Y36.265 E3.5744
G1 X107.741 Y36.001 E3.58497
G1 X107.938 Y35.73 E3.59612
G1 X108.136 Y35.482 E3.60667
G1 X108.35 Y35.234 E3.61757
G1 X108.562 Y35.008 E3.62787
G1 X108.796 Y34.779 E3.63876
G1 X109.039 Y34.56 E3.64964
G1 X109.297 Y34.346 E3.66079
G1 X109.55 Y34.154 E3.67136
G1 X109.818 Y33.968 E3.68221
G1 X110.101 Y33.788 E3.69336
G1 X110.377 Y33.629 E3.70396
G1 X110.666 Y33.477 E3.71482
G1 X110.969 Y33.335 E3.72595
G1 X111.271 Y33.208 E3.73684
G1 X111.569 Y33.097 E3.74742
G1 X111.88 Y32.996 E3.75829
G1 X112.203 Y32.906 E3.76945
G1 X112.52 Y32.832 E3.78027
G1 X112.833 Y32.772 E3.79087
G1 X113.161 Y32.724 E3.8019
G1 X113.482 Y32.69 E3.81264
G1 X113.816 Y32.669 E3.82377
G1 X114.138 Y32.662 E3.83448
G1 X114.46 Y32.669 E3.84519
G1 X114.795 Y32.69 E3.85636
G1 X115.116 Y32.724 E3.86709
G1 X115.443 Y32.772 E3.87808
G1 X115.756 Y32.832 E3.88868
G1 X116.074 Y32.906 E3.89954
G1 X116.396 Y32.996 E3.91066
G1 X116.707 Y33.097 E3.92154
G1 X117.005 Y33.208 E3.93212
G1 X117.307 Y33.335 E3.94301
G1 X117.61 Y33.477 E3.95414
G1 X117.899 Y33.629 E3.965
G1 X118.175 Y33.788 E3.9756
G1 X118.458 Y33.968 E3.98675
G1 X118.719 Y34.149 E3.99732
G1 X118.986 Y34.351 E4.00845
G1 X119.232 Y34.555 E4.01908
G1 X119.481 Y34.779 E4.03022
G1 X119.719 Y35.014 E4.04135
G1 X119.948 Y35.258 E4.05248
G1 X120.155 Y35.5 E4.06307
G1 X120.363 Y35.762 E4.07419
G1 X120.549 Y36.021 E4.0848
G1 X120.735 Y36.3 E4.09595
G1 X120.898 Y36.572 E4.1065
G1 X121.059 Y36.867 E4.11768
G1 X121.201 Y37.152 E4.12827
G1 X121.336 Y37.458 E4.13939
G1 X121.452 Y37.755 E4.15
G1 X121.56 Y38.063 E4.16085
G1 X121.653 Y38.377 E4.17174
G1 X121.734 Y38.692 E4.18256
G1 X121.803 Y39.02 E4.19371
G1 X121.855 Y39.333 E4.20426
G1 X121.897 Y39.666 E4.21543
G1 X121.922 Y39.984 E4.22604
G1 X121.936 Y40.311 E4.23692
G1 X121.936 Y40.637 E4.24776
G1 X121.921 Y40.971 E4.25888
G1 X121.894 Y41.288 E4.26947
G1 X121.852 Y41.614 E4.2804
G1 X121.797 Y41.935 E4.29123
G1 X121.728 Y42.263 E4.30238
G1 X121.646 Y42.572 E4.31301
G1 X121.553 Y42.883 E4.32381
G1 X121.441 Y43.199 E4.33496
G1 X121.323 Y43.496 E4.34559
G1 X121.191 Y43.793 E4.3564
G1 X121.045 Y44.085 E4.36726
G1 X120.887 Y44.372 E4.37815
G1 X120.718 Y44.651 E4.389
G1 X120.535 Y44.923 E4.39991
G1 X120.338 Y45.194 E4.41105
G1 X120.14 Y45.442 E4.4216
G1 X119.926 Y45.69 E4.4325
G1 X119.714 Y45.916 E4.44281
G1 X119.481 Y46.145 E4.45367
G1 X119.232 Y46.369 E4.46481
G1 X118.986 Y46.573 E4.47544
G1 X118.726 Y46.77 E4.48629
G1 X118.458 Y46.956 E4.49714
G1 X118.174 Y47.136 E4.50832
G1 X117.899 Y47.295 E4.51889
G1 X117.61 Y47.447 E4.52975
G1 X117.308 Y47.588 E4.54084
G1 X117.005 Y47.716 E4.55178
G1 X116.707 Y47.827 E4.56235
G1 X116.396 Y47.928 E4.57323
G1 X116.074 Y48.018 E4.58435
G1 X115.756 Y48.092 E4.59521
G1 X115.443 Y48.152 E4.60581
G1 X115.116 Y48.2 E4.6168
G1 X114.795 Y48.234 E4.62754
G1 X114.46 Y48.255 E4.6387
G0 F4800 X114.442 Y47.816
G0 X114.417 Y47.065
;TYPE:SKIN
G1 F1800 X114.138 Y47.072 E4.64798
G1 X113.856 Y47.065 E4.65736
G1 X113.605 Y47.05 E4.66573
G1 X113.308 Y47.018 E4.67566
G1 X113.03 Y46.977 E4.68501
G1 X112.77 Y46.927 E4.69382
G1 X112.492 Y46.863 E4.7033
G1 X112.222 Y46.788 E4.71262
G1 X111.976 Y46.708 E4.72123
G1 X111.695 Y46.603 E4.73121
G1 X111.444 Y46.497 E4.74027
G1 X111.194 Y46.38 E4.74945
G1 X110.93 Y46.242 E4.75936
G1 X110.734 Y46.127 E4.76691
G1 X110.467 Y45.958 E4.77742
G1 X110.253 Y45.809 E4.7861
G1 X110.017 Y45.63 E4.79595
G1 X109.817 Y45.464 E4.80459
G1 X109.604 Y45.271 E4.81415
G1 X109.404 Y45.073 E4.82351
G1 X109.213 Y44.87 E4.83279
G1 X109.021 Y44.645 E4.84262
G1 X108.846 Y44.423 E4.85202
G1 X108.703 Y44.225 E4.86015
G1 X108.546 Y43.984 E4.86971
G1 X108.407 Y43.753 E4.87868
G1 X108.265 Y43.491 E4.88859
G1 X108.161 Y43.282 E4.89636
G1 X108.035 Y42.998 E4.90669
G1 X107.942 Y42.76 E4.91519
G1 X107.841 Y42.47 E4.9254
G1 X107.771 Y42.233 E4.93362
G1 X107.701 Y41.954 E4.94319
G1 X107.645 Y41.69 E4.95217
G1 X107.595 Y41.394 E4.96215
G1 X107.56 Y41.119 E4.97137
G1 X107.542 Y40.862 E4.97994
G1 X107.53 Y40.579 E4.98936
G1 X107.53 Y40.34 E4.99731
G1 X107.543 Y40.038 E5.00736
G1 X107.566 Y39.754 E5.01684
G1 X107.6 Y39.491 E5.02566
G1 X107.645 Y39.223 E5.0347
G1 X107.706 Y38.945 E5.04417
G1 X107.771 Y38.691 E5.05289
G1 X107.867 Y38.374 E5.0639
G1 X107.942 Y38.157 E5.07154
G1 X108.04 Y37.913 E5.08028
G1 X108.157 Y37.648 E5.08992
G1 X108.296 Y37.37 E5.10026
G1 X108.406 Y37.171 E5.10782
G1 X108.577 Y36.891 E5.11873
G1 X108.705 Y36.701 E5.12635
G1 X108.88 Y36.46 E5.13626
G1 X109.058 Y36.236 E5.14577
G1 X109.219 Y36.049 E5.15398
G1 X109.419 Y35.835 E5.16372
G1 X109.623 Y35.636 E5.1732
G1 X109.83 Y35.449 E5.18248
G1 X110.017 Y35.294 E5.19056
G1 X110.256 Y35.112 E5.20055
G1 X110.457 Y34.973 E5.20868
G1 X110.734 Y34.797 E5.21959
G1 X110.944 Y34.675 E5.22767
G1 X111.186 Y34.548 E5.23676
G1 X111.445 Y34.426 E5.24628
G1 X111.7 Y34.319 E5.25548
G1 X111.97 Y34.218 E5.26507
G1 X112.228 Y34.134 E5.27409
G1 X112.478 Y34.065 E5.28272
