;FLAVOR:Marlin
;TIME:1868
;Filament used: 1.42003m
;Layer height: 0.2
;MINX:95.858
;MINY:26.494
;MINZ:0.2
;MAXX:150.403
;MAXY:68.494
;MAXZ:15.4
;TARGET_MACHINE.NAME:Creality Ender-3
;Generated with Cura_SteamEngine 5.6.0
M140 S55
M105
M190 S55
M104 S218
M105
M109 S218
M82 ;absolute extrusion mode
; Ender 3 Custom Start G-code
G92 E0 ; Reset Extruder
G28 ; Home all axes
G1 Z2.0 F3000 ; Move Z Axis up little to prevent scratching of Heat Bed
G1 X0.1 Y20 Z0.3 F5000.0 ; Move to start position
G1 X0.1 Y200.0 Z0.3 F1500.0 E15 ; Draw the first line
G1 X0.4 Y200.0 Z0.3 F5000.0 ; Move to side a little
G1 X0.4 Y20 Z0.3 F1500.0 E30 ; Draw the second line
G92 E0 ; Reset Extruder
G1 Z2.0 F3000 ; Move Z Axis up little to prevent scratching of Heat Bed
G1 X5 Y20 Z0.3 F5000.0 ; Move over to prevent blob squish
G92 E0
G92 E0
G1 F2700 E-5
;LAYER_COUNT:75
;LAYER:0
M106 S25.5
G1 F300 Z0.6
G0 F4800 X96.278 Y44.829 Z0.6
;TYPE:SKIRT
G1 F300 Z0.2
G1 F2700 E0
G1 F2100 X97.223 Y43.007 E0.06827
G1 X98.619 Y41.703 E0.1318
G1 X100.439 Y40.617 E0.20229
G1 X102.009 Y40.359 E0.25521
G1 X112.166 Y40.298 E0.59304
G1 X112.159 Y32.734 E0.84462
G1 X112.578 Y31.03 E0.90299
G1 X113.524 Y29.207 E0.9713
G1 X114.92 Y27.903 E1.03483
G1 X116.74 Y26.817 E1.10532
G1 X118.31 Y26.559 E1.15824
G1 X139.319 Y26.494 E1.85701
G1 X141.023 Y26.913 E1.91537
G1 X142.846 Y27.859 E1.98368
G1 X144.159 Y29.264 E2.04764
G1 X144.472 Y29.789 E2.06797
G1 X145.039 Y29.95 E2.08758
G1 X146.818 Y30.905 E2.15473
G1 X148.638 Y32.839 E2.24306
G1 X149.553 Y34.308 E2.30062
G1 X150.238 Y36.637 E2.38137
G1 X150.403 Y38.673 E2.44931
G1 X149.633 Y41.405 E2.54371
G1 X148.764 Y43.051 E2.60562
G1 X146.938 Y44.877 E2.69151
G1 X145.559 Y45.759 E2.74596
G1 X145.559 Y50.842 E2.91502
G1 X146.815 Y51.517 E2.96244
G1 X148.638 Y53.454 E3.05091
G1 X149.553 Y54.923 E3.10847
G1 X150.238 Y57.252 E3.18922
G1 X150.403 Y59.288 E3.25716
G1 X149.633 Y62.02 E3.35156
G1 X148.764 Y63.666 E3.41347
G1 X146.934 Y65.496 E3.49955
G1 X145.312 Y66.533 E3.56358
G1 X142.898 Y67.201 E3.64689
G1 X142.551 Y67.232 E3.65847
G1 X140.98 Y68.171 E3.71935
G1 X139.408 Y68.429 E3.77233
G1 X118.399 Y68.494 E4.4711
G1 X116.695 Y68.075 E4.52946
G1 X114.872 Y67.129 E4.59777
G1 X113.516 Y65.678 E4.66383
G1 X113.15 Y65.734 E4.67614
G1 X102.105 Y65.794 E5.04351
G1 X100.393 Y65.374 E5.10214
G1 X98.571 Y64.429 E5.1704
G1 X97.267 Y63.033 E5.23394
G1 X96.181 Y61.213 E5.30443
G1 X95.923 Y59.643 E5.35735
G1 X95.858 Y46.54 E5.79316
G1 X96.278 Y44.829 E5.85176
G0 F4800 X96.654 Y44.972
G1 F2100 X97.546 Y43.252 E5.9162
G1 X98.861 Y42.024 E5.97604
G1 X100.577 Y41 E6.04251
G1 X102.074 Y40.754 E6.09297
G1 X112.566 Y40.696 E6.44194
G1 X112.559 Y32.78 E6.70522
G1 X112.954 Y31.173 E6.76026
G1 X113.847 Y29.452 E6.82475
G1 X115.162 Y28.224 E6.88459
G1 X116.878 Y27.2 E6.95106
G1 X118.375 Y26.954 E7.00152
G1 X139.273 Y26.894 E7.69659
G1 X140.88 Y27.289 E7.75163
G1 X142.601 Y28.182 E7.81612
G1 X143.838 Y29.506 E7.87638
G1 X144.211 Y30.131 E7.90059
G1 X144.891 Y30.324 E7.9241
G1 X146.571 Y31.226 E7.98752
G1 X148.319 Y33.084 E8.07237
G1 X149.184 Y34.472 E8.12677
G1 X149.842 Y36.71 E8.20435
G1 X149.998 Y38.635 E8.26859
G1 X149.26 Y41.254 E8.35909
G1 X148.438 Y42.811 E8.41765
G1 X146.684 Y44.565 E8.50015
G1 X145.159 Y45.54 E8.56035
G1 X145.159 Y51.081 E8.74465
G1 X146.568 Y51.838 E8.79785
G1 X148.319 Y53.699 E8.88283
G1 X149.184 Y55.087 E8.93723
G1 X149.842 Y57.325 E9.01482
G1 X149.998 Y59.25 E9.07905
G1 X149.26 Y61.869 E9.16955
G1 X148.438 Y63.426 E9.22811
G1 X146.682 Y65.182 E9.31071
G1 X145.148 Y66.163 E9.37127
G1 X142.791 Y66.815 E9.45261
G1 X142.429 Y66.84 E9.46468
G1 X140.842 Y67.788 E9.52616
G1 X139.343 Y68.034 E9.57669
G1 X118.445 Y68.094 E10.27176
G1 X116.838 Y67.699 E10.3268
G1 X115.117 Y66.806 E10.39129
G1 X113.909 Y65.513 E10.45014
G1 X113.733 Y65.237 E10.46103
G1 X113.148 Y65.334 E10.48075
G1 X102.15 Y65.394 E10.84655
G1 X100.536 Y64.998 E10.90183
G1 X98.816 Y64.106 E10.96627
G1 X97.588 Y62.791 E11.02611
G1 X96.564 Y61.075 E11.09258
G1 X96.318 Y59.578 E11.14303
G1 X96.258 Y46.585 E11.57519
G1 X96.654 Y44.972 E11.63043
G0 F4800 X97.03 Y45.115
G1 F2100 X97.869 Y43.497 E11.69105
G1 X99.103 Y42.345 E11.7472
G1 X100.715 Y41.383 E11.80963
G1 X102.139 Y41.149 E11.85763
G1 X112.966 Y41.094 E12.21774
G1 X112.959 Y32.826 E12.49274
G1 X113.33 Y31.316 E12.54446
G1 X114.17 Y29.697 E12.60512
G1 X115.404 Y28.545 E12.66127
G1 X117.016 Y27.583 E12.72371
G1 X118.44 Y27.349 E12.7717
G1 X139.227 Y27.294 E13.46308
G1 X140.737 Y27.665 E13.5148
G1 X142.356 Y28.505 E13.57546
G1 X143.514 Y29.745 E13.63189
G1 X143.948 Y30.473 E13.66008
G1 X144.743 Y30.698 E13.68756
G1 X146.324 Y31.547 E13.74725
G1 X147.999 Y33.327 E13.82855
G1 X148.815 Y34.637 E13.87988
G1 X149.446 Y36.783 E13.95428
G1 X149.593 Y38.597 E14.01481
G1 X148.887 Y41.103 E14.1014
G1 X148.112 Y42.571 E14.15661
G1 X146.43 Y44.253 E14.23573
G1 X145.032 Y45.147 E14.29092
G1 X144.759 Y45.241 E14.30053
G1 X144.759 Y51.32 E14.50271
G1 X146.321 Y52.159 E14.56169
G1 X147.999 Y53.942 E14.64312
G1 X148.815 Y55.252 E14.69445
G1 X149.446 Y57.398 E14.76885
G1 X149.593 Y59.212 E14.82938
G1 X148.887 Y61.718 E14.91598
G1 X148.112 Y63.186 E14.97119
G1 X146.428 Y64.87 E15.0504
G1 X144.986 Y65.792 E15.10733
G1 X142.72 Y66.419 E15.18553
G1 X142.307 Y66.448 E15.1993
G1 X140.704 Y67.405 E15.26139
G1 X139.278 Y67.639 E15.30945
G1 X118.491 Y67.694 E16.00083
G1 X116.981 Y67.323 E16.05255
G1 X115.362 Y66.483 E16.11322
G1 X114.201 Y65.24 E16.16979
G1 X113.937 Y64.797 E16.18694
G1 X113.082 Y64.939 E16.21577
G1 X102.195 Y64.994 E16.57787
G1 X100.679 Y64.622 E16.62979
G1 X99.061 Y63.783 E16.69041
G1 X97.909 Y62.549 E16.74656
G1 X96.947 Y60.937 E16.809
G1 X96.713 Y59.513 E16.85699
G1 X96.658 Y46.63 E17.28549
G1 X97.03 Y45.115 E17.33737
G0 F4800 X97.406 Y45.258
G1 F2100 X98.192 Y43.742 E17.39417
G1 X99.345 Y42.666 E17.44663
G1 X100.853 Y41.766 E17.50503
G1 X102.204 Y41.544 E17.55057
G1 X112.975 Y41.494 E17.90882
G1 X113.366 Y41.59 E17.92221
G1 X113.359 Y32.873 E18.21214
G1 X113.707 Y31.458 E18.26061
G1 X114.493 Y29.942 E18.3174
G1 X115.646 Y28.866 E18.36986
G1 X117.154 Y27.966 E18.42827
G1 X118.505 Y27.744 E18.4738
G1 X139.18 Y27.694 E19.16146
G1 X140.595 Y28.042 E19.20992
G1 X142.111 Y28.828 E19.26672
G1 X143.19 Y29.984 E19.31932
G1 X143.685 Y30.814 E19.35146
G1 X144.595 Y31.072 E19.38292
G1 X146.077 Y31.868 E19.43887
G1 X147.68 Y33.572 E19.51668
G1 X148.446 Y34.801 E19.56485
G1 X149.05 Y36.856 E19.63609
G1 X149.188 Y38.559 E19.69292
G1 X148.514 Y40.952 E19.7756
G1 X147.786 Y42.331 E19.82747
G1 X146.178 Y43.939 E19.9031
G1 X144.816 Y44.81 E19.95688
G1 X144.359 Y44.936 E19.97264
G1 X144.359 Y51.621 E20.19499
G1 X144.645 Y51.712 E20.20497
G1 X146.074 Y52.48 E20.25893
G1 X147.68 Y54.187 E20.33688
G1 X148.446 Y55.416 E20.38505
G1 X149.05 Y57.471 E20.45629
G1 X149.188 Y59.174 E20.51311
G1 X148.514 Y61.567 E20.5958
G1 X147.786 Y62.946 E20.64767
G1 X146.176 Y64.556 E20.7234
G1 X144.822 Y65.422 E20.77685
G1 X142.649 Y66.023 E20.85184
G1 X142.131 Y66.06 E20.86911
G1 X141.992 Y66.171 E20.87503
G1 X140.566 Y67.022 E20.93026
G1 X139.213 Y67.244 E20.97587
G1 X118.538 Y67.294 E21.66352
G1 X117.123 Y66.946 E21.71199
G1 X115.607 Y66.16 E21.76878
G1 X114.525 Y65.001 E21.82152
G1 X114.141 Y64.357 E21.84646
G1 X113.016 Y64.544 E21.88439
G1 X102.24 Y64.594 E22.2428
G1 X100.822 Y64.246 E22.29137
G1 X99.306 Y63.46 E22.34816
G1 X98.23 Y62.307 E22.40062
G1 X97.33 Y60.799 E22.45903
G1 X97.108 Y59.448 E22.50456
G1 X97.058 Y46.675 E22.9294
G1 X97.406 Y45.258 E22.97793
G0 F4800 X97.782 Y45.401
G1 F2100 X98.515 Y43.987 E23.0309
G1 X99.587 Y42.987 E23.07966
G1 X100.991 Y42.149 E23.13404
G1 X102.269 Y41.939 E23.17712
G1 X112.93 Y41.894 E23.53171
G1 X113.766 Y42.099 E23.56034
G1 X113.759 Y32.919 E23.86567
G1 X114.083 Y31.601 E23.91081
G1 X114.816 Y30.187 E23.96378
G1 X115.888 Y29.187 E24.01254
G1 X117.292 Y28.349 E24.06693
G1 X118.57 Y28.139 E24.11
G1 X139.134 Y28.094 E24.79397
G1 X140.452 Y28.418 E24.83911
G1 X141.866 Y29.151 E24.89208
G1 X142.869 Y30.226 E24.94098
G1 X143.424 Y31.156 E24.977
G1 X144.447 Y31.446 E25.01237
G1 X145.83 Y32.189 E25.06458
G1 X147.36 Y33.815 E25.13884
G1 X148.077 Y34.966 E25.18395
G1 X148.654 Y36.929 E25.252
G1 X148.783 Y38.521 E25.30512
G1 X148.141 Y40.801 E25.3839
G1 X147.46 Y42.091 E25.43242
G1 X145.924 Y43.627 E25.50467
G1 X144.654 Y44.439 E25.55481
G1 X143.959 Y44.631 E25.57879
G1 X143.959 Y51.923 E25.82132
G1 X144.456 Y52.064 E25.8385
G1 X145.827 Y52.801 E25.89027
G1 X147.36 Y54.43 E25.96467
G1 X148.077 Y55.581 E26.00978
G1 X148.654 Y57.544 E26.07783
G1 X148.783 Y59.136 E26.13095
G1 X148.141 Y61.416 E26.20973
G1 X147.46 Y62.706 E26.25825
G1 X145.922 Y64.244 E26.33059
G1 X144.66 Y65.051 E26.38042
G1 X142.578 Y65.627 E26.45226
G1 X141.97 Y65.67 E26.47254
G1 X141.787 Y65.828 E26.48058
G1 X140.428 Y66.639 E26.53322
G1 X139.148 Y66.849 E26.57636
G1 X118.584 Y66.894 E27.26032
G1 X117.266 Y66.57 E27.30546
G1 X115.852 Y65.837 E27.35844
G1 X114.849 Y64.762 E27.40734
G1 X114.323 Y63.88 E27.44149
G1 X114.154 Y63.949 E27.44756
G1 X112.95 Y64.149 E27.48816
G1 X102.285 Y64.194 E27.84288
G1 X100.965 Y63.87 E27.88809
G1 X99.551 Y63.137 E27.94106
G1 X98.551 Y62.065 E27.98982
G1 X97.713 Y60.661 E28.0442
G1 X97.503 Y59.383 E28.08728
G1 X97.458 Y46.72 E28.50846
G1 X97.782 Y45.401 E28.55363
G0 F4800 X98.158 Y45.544
G1 F2100 X98.837 Y44.234 E28.60271
G1 X99.832 Y43.306 E28.64796
G1 X101.129 Y42.532 E28.69819
G1 X102.334 Y42.334 E28.73881
G1 X112.885 Y42.294 E29.08974
G1 X114.166 Y42.608 E29.13361
G1 X114.159 Y32.965 E29.45434
G1 X114.459 Y31.744 E29.49615
G1 X115.138 Y30.434 E29.54523
G1 X116.133 Y29.506 E29.59048
G1 X117.43 Y28.732 E29.64072
G1 X118.635 Y28.534 E29.68134
G1 X139.088 Y28.494 E30.36161
G1 X140.309 Y28.794 E30.40342
G1 X141.619 Y29.473 E30.4525
G1 X142.547 Y30.468 E30.49775
G1 X143.161 Y31.498 E30.53764
G1 X144.299 Y31.82 E30.57697
G1 X145.583 Y32.51 E30.62545
G1 X147.04 Y34.058 E30.69616
G1 X147.708 Y35.131 E30.7382
G1 X148.258 Y37.002 E30.80306
G1 X148.378 Y38.483 E30.85248
G1 X147.768 Y40.65 E30.92736
G1 X147.134 Y41.851 E30.97253
G1 X145.67 Y43.315 E31.04139
G1 X144.492 Y44.068 E31.08789
G1 X143.559 Y44.326 E31.12009
G1 X143.559 Y52.225 E31.38281
G1 X144.306 Y52.437 E31.40863
G1 X145.581 Y53.123 E31.45679
G1 X147.04 Y54.673 E31.52759
G1 X147.708 Y55.746 E31.56963
G1 X148.258 Y57.617 E31.63449
G1 X148.378 Y59.098 E31.68391
G1 X147.768 Y61.265 E31.75879
G1 X147.134 Y62.466 E31.80396
G1 X145.668 Y63.932 E31.87291
G1 X144.495 Y64.682 E31.91922
G1 X142.512 Y65.231 E31.98766
G1 X141.8 Y65.281 E32.0114
G1 X141.582 Y65.484 E32.0213
G1 X140.288 Y66.256 E32.07142
G1 X139.083 Y66.454 E32.11203
G1 X118.63 Y66.494 E32.79231
G1 X117.409 Y66.194 E32.83412
G1 X116.099 Y65.515 E32.8832
G1 X115.171 Y64.52 E32.92845
G1 X114.462 Y63.331 E32.9745
G1 X114.088 Y63.554 E32.98898
G1 X112.884 Y63.754 E33.02957
G1 X102.33 Y63.794 E33.3806
G1 X101.108 Y63.494 E33.42245
G1 X99.798 Y62.815 E33.47153
G1 X98.87 Y61.82 E33.51678
G1 X98.096 Y60.523 E33.56702
G1 X97.898 Y59.318 E33.60763
G1 X97.858 Y46.765 E34.02515
G1 X98.158 Y45.544 E34.06697
G0 F4800 X98.534 Y45.687
G1 F2100 X99.159 Y44.481 E34.11215
G1 X100.074 Y43.628 E34.15375
G1 X101.269 Y42.915 E34.20004
G1 X102.399 Y42.729 E34.23813
G1 X112.84 Y42.694 E34.5854
G1 X113.965 Y42.97 E34.62393
G1 X114.566 Y43.281 E34.64643
G1 X114.559 Y33.011 E34.98801
G1 X114.835 Y31.887 E35.02651
G1 X115.46 Y30.681 E35.07169
G1 X116.375 Y29.828 E35.11329
G1 X117.57 Y29.115 E35.15958
G1 X118.7 Y28.929 E35.19767
G1 X139.042 Y28.894 E35.87424
G1 X140.166 Y29.17 E35.91274
G1 X141.372 Y29.795 E35.95792
G1 X142.225 Y30.71 E35.99952
G1 X142.821 Y31.71 E36.03824
G1 X142.87 Y31.832 E36.04262
G1 X144.151 Y32.194 E36.08689
G1 X145.336 Y32.831 E36.13164
G1 X146.72 Y34.301 E36.19879
G1 X147.339 Y35.296 E36.23777
G1 X147.862 Y37.075 E36.29944
G1 X147.973 Y38.445 E36.34515
G1 X147.395 Y40.499 E36.41612
G1 X146.808 Y41.611 E36.45795
G1 X145.416 Y43.003 E36.52342
G1 X144.329 Y43.698 E36.56633
G1 X143.159 Y44.021 E36.6067
G1 X143.159 Y52.528 E36.88965
G1 X144.155 Y52.81 E36.92408
G1 X145.335 Y53.445 E36.96865
G1 X146.72 Y54.916 E37.03585
G1 X147.339 Y55.911 E37.07482
G1 X147.862 Y57.69 E37.13649
G1 X147.973 Y59.06 E37.18221
G1 X147.395 Y61.114 E37.25318
G1 X146.808 Y62.226 E37.295
G1 X145.416 Y63.618 E37.36048
G1 X144.331 Y64.312 E37.40332
G1 X142.441 Y64.835 E37.46854
G1 X141.63 Y64.892 E37.49558
G1 X141.34 Y65.162 E37.50876
G1 X140.148 Y65.873 E37.55492
G1 X139.018 Y66.059 E37.59301
G1 X118.676 Y66.094 E38.26959
G1 X117.552 Y65.818 E38.30808
G1 X116.346 Y65.193 E38.35326
G1 X115.493 Y64.278 E38.39487
G1 X114.78 Y63.083 E38.44115
G1 X114.719 Y62.712 E38.45366
G1 X113.947 Y63.172 E38.48355
G1 X112.819 Y63.359 E38.52158
G1 X102.375 Y63.394 E38.86895
G1 X101.251 Y63.118 E38.90744
G1 X100.045 Y62.493 E38.95262
G1 X99.192 Y61.578 E38.99423
G1 X98.479 Y60.383 E39.04051
G1 X98.293 Y59.253 E39.0786
G1 X98.258 Y46.811 E39.49242
G1 X98.534 Y45.687 E39.53092
G0 F4800 X98.911 Y45.829
G1 F2100 X99.481 Y44.728 E39.57215
G1 X100.316 Y43.95 E39.61011
G1 X101.409 Y43.298 E39.65244
G1 X102.464 Y43.124 E39.68801
G1 X112.794 Y43.094 E40.03159
G1 X113.823 Y43.347 E40.06683
G1 X114.966 Y43.938 E40.10963
G1 X114.959 Y33.058 E40.4715
G1 X115.212 Y32.029 E40.50674
G1 X115.782 Y30.928 E40.54798
G1 X116.617 Y30.15 E40.58594
G1 X117.71 Y29.498 E40.62827
G1 X118.765 Y29.324 E40.66383
G1 X138.995 Y29.294 E41.33668
G1 X140.024 Y29.547 E41.37193
G1 X141.125 Y30.117 E41.41316
G1 X141.903 Y30.952 E41.45112
G1 X142.477 Y31.915 E41.48841
G1 X142.554 Y32.158 E41.49689
G1 X144.003 Y32.568 E41.54697
G1 X145.089 Y33.152 E41.58799
G1 X146.4 Y34.544 E41.65158
G1 X146.97 Y35.461 E41.6875
G1 X147.466 Y37.148 E41.74598
G1 X147.568 Y38.407 E41.78799
G1 X147.022 Y40.348 E41.85506
G1 X146.482 Y41.371 E41.89353
G1 X145.162 Y42.691 E41.95562
G1 X144.167 Y43.327 E41.9949
G1 X142.759 Y43.716 E42.04348
G1 X142.759 Y52.83 E42.34661
G1 X144.004 Y53.183 E42.38965
G1 X145.089 Y53.767 E42.43064
G1 X146.4 Y55.159 E42.49424
G1 X146.97 Y56.076 E42.53015
G1 X147.466 Y57.763 E42.58863
G1 X147.568 Y59.022 E42.63064
G1 X147.022 Y60.963 E42.69771
G1 X146.482 Y61.986 E42.73618
G1 X145.162 Y63.306 E42.79827
G1 X144.169 Y63.941 E42.83747
G1 X142.37 Y64.439 E42.89956
G1 X141.46 Y64.503 E42.9299
G1 X141.098 Y64.84 E42.94635
G1 X140.008 Y65.49 E42.98856
G1 X138.953 Y65.664 E43.02412
G1 X118.723 Y65.694 E43.69698
G1 X117.694 Y65.441 E43.73222
G1 X116.593 Y64.871 E43.77346
G1 X115.815 Y64.036 E43.81142
G1 X115.163 Y62.943 E43.85375
G1 X115.013 Y62.032 E43.88445
G1 X114.864 Y62.159 E43.89097
G1 X113.807 Y62.789 E43.93189
G1 X112.753 Y62.964 E43.96743
G1 X102.422 Y62.994 E44.31104
G1 X101.393 Y62.741 E44.34629
G1 X100.292 Y62.171 E44.38752
G1 X99.514 Y61.336 E44.42548
G1 X98.862 Y60.243 E44.46781
G1 X98.688 Y59.188 E44.50337
G1 X98.658 Y46.858 E44.91347
G1 X98.911 Y45.829 E44.94872
G0 F4800 X99.287 Y45.972
G1 F2100 X99.803 Y44.975 E44.98605
G1 X100.558 Y44.272 E45.02037
G1 X101.549 Y43.681 E45.05874
G1 X102.529 Y43.519 E45.09178
G1 X112.748 Y43.494 E45.43167
G1 X113.68 Y43.723 E45.46359
G1 X114.678 Y44.239 E45.50096
G1 X115.367 Y44.985 E45.53473
G1 X115.359 Y33.104 E45.92989
G1 X115.588 Y32.172 E45.96182
G1 X116.104 Y31.175 E45.99915
G1 X116.859 Y30.472 E46.03347
G1 X117.85 Y29.881 E46.07184
G1 X118.83 Y29.719 E46.10488
G1 X138.949 Y29.694 E46.77404
G1 X139.881 Y29.923 E46.80596
G1 X140.878 Y30.439 E46.8433
G1 X141.581 Y31.194 E46.87761
G1 X142.133 Y32.12 E46.91347
G1 X142.22 Y32.479 E46.92575
G1 X143.853 Y32.941 E46.9822
G1 X144.843 Y33.474 E47.0196
G1 X146.08 Y34.787 E47.07959
G1 X146.601 Y35.626 E47.11244
G1 X147.07 Y37.221 E47.16774
G1 X147.163 Y38.369 E47.20605
G1 X146.649 Y40.197 E47.2692
G1 X146.156 Y41.131 E47.30433
G1 X144.908 Y42.379 E47.36303
G1 X144.004 Y42.957 E47.39872
G1 X142.359 Y43.411 E47.45548
G1 X142.359 Y53.133 E47.77883
G1 X143.853 Y53.556 E47.83048
G1 X144.843 Y54.089 E47.86787
G1 X146.08 Y55.402 E47.92787
G1 X146.601 Y56.241 E47.96072
G1 X147.07 Y57.836 E48.01602
G1 X147.163 Y58.984 E48.05432
G1 X146.649 Y60.812 E48.11748
G1 X146.156 Y61.746 E48.15261
G1 X144.908 Y62.994 E48.21131
