;FLAVOR:Marlin
;TIME:5185
;Filament used: 5.53104m
;Layer height: 0.3
;MINX:64.202
;MINY:36.659
;MINZ:0.2
;MAXX:170.798
;MAXY:68.259
;MAXZ:49.8
;TARGET_MACHINE.NAME:Creality Ender-3
;Generated with Cura_SteamEngine 5.6.0
M140 S55
M105
M190 S55
M104 S218
M105
M109 S218
M82 ;absolute extrusion mode
; Ender 3 Custom Start G-code
G92 E0 ; Reset Extruder
G28 ; Home all axes
G1 Z2.0 F3000 ; Move Z Axis up little to prevent scratching of Heat Bed
G1 X0.1 Y20 Z0.3 F5000.0 ; Move to start position
G1 X0.1 Y200.0 Z0.3 F1500.0 E15 ; Draw the first line
G1 X0.4 Y200.0 Z0.3 F5000.0 ; Move to side a little
G1 X0.4 Y20 Z0.3 F1500.0 E30 ; Draw the second line
G92 E0 ; Reset Extruder
G1 Z2.0 F3000 ; Move Z Axis up little to prevent scratching of Heat Bed
G1 X5 Y20 Z0.3 F5000.0 ; Move over to prevent blob squish
G92 E0
G92 E0
G1 F2700 E-5
;LAYER_COUNT:165
;LAYER:0
M106 S25.5
G1 F300 Z0.6
G0 F4800 X64.947 Y38.14 Z0.6
;TYPE:SKIRT
G1 F300 Z0.2
G1 F2700 E0
G1 F2100 X65.702 Y37.437 E0.03431
G1 X66.693 Y36.846 E0.07269
G1 X67.673 Y36.684 E0.10573
G1 X167.389 Y36.659 E3.42229
G1 X168.321 Y36.888 E3.45421
G1 X169.318 Y37.404 E3.49155
G1 X170.021 Y38.159 E3.52586
G1 X170.612 Y39.151 E3.56427
G1 X170.779 Y40.192 E3.59934
G1 X170.798 Y42.853 E3.68784
G1 X170.573 Y43.773 E3.71935
G1 X170.053 Y44.778 E3.75698
G1 X169.298 Y45.481 E3.79129
G1 X168.307 Y46.072 E3.82967
G1 X167.327 Y46.234 E3.86271
G1 X157.298 Y46.257 E4.19627
G1 X157.298 Y64.849 E4.81465
G1 X157.069 Y65.781 E4.84657
G1 X156.553 Y66.778 E4.88391
G1 X155.798 Y67.481 E4.91822
G1 X154.807 Y68.072 E4.95659
G1 X153.827 Y68.234 E4.98963
G1 X150.104 Y68.259 E5.11346
G1 X149.184 Y68.034 E5.14496
G1 X148.179 Y67.514 E5.1826
G1 X147.476 Y66.759 E5.21691
G1 X146.885 Y65.768 E5.25529
G1 X146.723 Y64.788 E5.28832
G1 X146.698 Y60.064 E5.44545
G1 X146.923 Y59.145 E5.47692
G1 X147.443 Y58.14 E5.51455
G1 X148.198 Y57.437 E5.54886
G1 X148.699 Y57.139 E5.56825
G1 X148.698 Y46.259 E5.93012
G1 X119.524 Y46.259 E6.90045
G1 X121.824 Y46.905 E6.97991
G1 X122.799 Y47.413 E7.01648
G1 X125.583 Y50.341 E7.15086
G1 X126.107 Y51.167 E7.18339
G1 X127.202 Y54.924 E7.31355
G1 X127.204 Y56.147 E7.35423
G1 X126.16 Y59.883 E7.48325
G1 X125.667 Y60.817 E7.51838
G1 X122.907 Y63.577 E7.6482
G1 X122.001 Y64.159 E7.68401
G1 X118.215 Y65.216 E7.81475
G1 X117.052 Y65.297 E7.85353
G1 X113.292 Y64.198 E7.98382
G1 X112.341 Y63.687 E8.01972
G1 X109.488 Y60.834 E8.15392
G1 X108.922 Y59.95 E8.18883
G1 X107.85 Y56.292 E8.31562
G1 X107.767 Y55.109 E8.35506
G1 X108.866 Y51.335 E8.4858
G1 X109.313 Y50.478 E8.51794
G1 X112.106 Y47.532 E8.65296
G1 X113.108 Y46.93 E8.69184
G1 X115.502 Y46.259 E8.77454
G1 X86.302 Y46.259 E9.74573
G1 X86.302 Y57.135 E10.10747
G1 X86.822 Y57.404 E10.12694
G1 X87.523 Y58.159 E10.16121
G1 X88.114 Y59.15 E10.19959
G1 X88.276 Y60.13 E10.23262
G1 X88.302 Y64.842 E10.38935
G1 X88.077 Y65.779 E10.4214
G1 X87.557 Y66.781 E10.45895
G1 X86.802 Y67.481 E10.49319
G1 X85.811 Y68.072 E10.53157
G1 X84.831 Y68.234 E10.5646
G1 X81.108 Y68.259 E10.68843
G1 X80.188 Y68.034 E10.71994
G1 X79.183 Y67.514 E10.75757
G1 X78.48 Y66.759 E10.79188
G1 X77.889 Y65.768 E10.83026
G1 X77.727 Y64.788 E10.8633
G1 X77.702 Y46.259 E11.47957
G1 X67.612 Y46.259 E11.81517
G1 X66.68 Y46.03 E11.84709
G1 X65.683 Y45.514 E11.88443
G1 X64.98 Y44.759 E11.91874
G1 X64.389 Y43.767 E11.95715
G1 X64.222 Y42.726 E11.99221
G1 X64.202 Y40.068 E12.08062
G1 X64.427 Y39.145 E12.11222
G1 X64.947 Y38.14 E12.14985
G0 F4800 X65.27 Y38.385
G1 F2100 X65.941 Y37.761 E12.18033
G1 X66.833 Y37.229 E12.21487
G1 X67.738 Y37.079 E12.24539
G1 X167.343 Y37.059 E15.55826
G1 X168.178 Y37.264 E15.58686
G1 X169.073 Y37.727 E15.62037
G1 X169.697 Y38.398 E15.65085
G1 X170.229 Y39.29 E15.68539
G1 X170.379 Y40.195 E15.7159
G1 X170.398 Y42.804 E15.80268
G1 X170.195 Y43.634 E15.8311
G1 X169.73 Y44.533 E15.86477
G1 X169.059 Y45.157 E15.89524
G1 X168.167 Y45.689 E15.92979
G1 X167.262 Y45.839 E15.9603
G1 X156.898 Y45.858 E16.30501
G1 X156.898 Y64.803 E16.93512
G1 X156.693 Y65.638 E16.96372
G1 X156.23 Y66.533 E16.99723
G1 X155.559 Y67.157 E17.02771
G1 X154.667 Y67.689 E17.06225
G1 X153.762 Y67.839 E17.09276
G1 X150.153 Y67.859 E17.2128
G1 X149.323 Y67.656 E17.24122
G1 X148.424 Y67.191 E17.27488
G1 X147.8 Y66.52 E17.30536
G1 X147.268 Y65.628 E17.3399
G1 X147.118 Y64.723 E17.37042
G1 X147.098 Y60.113 E17.52375
G1 X147.301 Y59.284 E17.55213
G1 X147.766 Y58.385 E17.5858
G1 X148.437 Y57.761 E17.61627
G1 X149.099 Y57.367 E17.6419
G1 X149.098 Y45.859 E18.02465
G1 X85.902 Y45.859 E20.12656
G1 X85.902 Y57.378 E20.50969
G1 X86.577 Y57.727 E20.53496
G1 X87.199 Y58.398 E20.56539
G1 X87.731 Y59.29 E20.59993
G1 X87.881 Y60.195 E20.63045
G1 X87.902 Y64.795 E20.78344
G1 X87.699 Y65.639 E20.81232
G1 X87.234 Y66.535 E20.84589
G1 X86.563 Y67.157 E20.87632
G1 X85.671 Y67.689 E20.91087
G1 X84.766 Y67.839 E20.94138
G1 X81.157 Y67.859 E21.06142
G1 X80.327 Y67.656 E21.08983
G1 X79.428 Y67.191 E21.1235
G1 X78.804 Y66.52 E21.15398
G1 X78.272 Y65.628 E21.18852
G1 X78.122 Y64.723 E21.21903
G1 X78.102 Y45.859 E21.84645
G1 X67.658 Y45.859 E22.19382
G1 X66.823 Y45.654 E22.22242
G1 X65.928 Y45.191 E22.25593
G1 X65.304 Y44.52 E22.28641
G1 X64.772 Y43.628 E22.32095
G1 X64.622 Y42.723 E22.35146
G1 X64.602 Y40.116 E22.43817
G1 X64.805 Y39.284 E22.46666
G1 X65.27 Y38.385 E22.50032
G0 F4800 X65.593 Y38.63
G1 F2100 X66.18 Y38.085 E22.52696
G1 X66.973 Y37.612 E22.55767
G1 X67.804 Y37.474 E22.58569
G1 X167.297 Y37.459 E25.89484
G1 X168.035 Y37.64 E25.92012
G1 X168.828 Y38.05 E25.94981
G1 X169.373 Y38.637 E25.97645
G1 X169.846 Y39.43 E26.00716
G1 X169.984 Y40.261 E26.03518
G1 X169.998 Y42.755 E26.11813
G1 X169.817 Y43.495 E26.14347
G1 X169.407 Y44.288 E26.17316
G1 X168.82 Y44.833 E26.1998
G1 X168.027 Y45.306 E26.23051
G1 X167.196 Y45.444 E26.25853
G1 X156.498 Y45.459 E26.61435
G1 X156.498 Y64.757 E27.2562
G1 X156.317 Y65.495 E27.28147
G1 X155.907 Y66.288 E27.31117
G1 X155.32 Y66.833 E27.33781
G1 X154.527 Y67.306 E27.36852
G1 X153.696 Y67.444 E27.39654
G1 X150.202 Y67.459 E27.51275
G1 X149.462 Y67.278 E27.53809
G1 X148.669 Y66.868 E27.56778
G1 X148.124 Y66.281 E27.59442
G1 X147.651 Y65.488 E27.62513
G1 X147.513 Y64.657 E27.65315
G1 X147.498 Y60.162 E27.80265
G1 X147.679 Y59.423 E27.82796
G1 X148.089 Y58.63 E27.85765
G1 X148.676 Y58.085 E27.88429
G1 X149.334 Y57.693 E27.90977
G1 X149.499 Y57.634 E27.91559
G1 X149.498 Y45.459 E28.32054
G1 X85.502 Y45.459 E30.44905
G1 X85.502 Y57.621 E30.85356
G1 X86.331 Y58.05 E30.88461
G1 X86.875 Y58.637 E30.91123
G1 X87.348 Y59.43 E30.94194
G1 X87.486 Y60.261 E30.96995
G1 X87.502 Y64.748 E31.11919
G1 X87.321 Y65.499 E31.14489
G1 X86.911 Y66.289 E31.17449
G1 X86.324 Y66.833 E31.20111
G1 X85.531 Y67.306 E31.23182
G1 X84.7 Y67.444 E31.25984
G1 X81.206 Y67.459 E31.37605
G1 X80.466 Y67.278 E31.40139
G1 X79.673 Y66.868 E31.43108
G1 X79.128 Y66.281 E31.45772
G1 X78.655 Y65.488 E31.48843
G1 X78.517 Y64.657 E31.51645
G1 X78.502 Y45.459 E32.15498
G1 X67.704 Y45.459 E32.51412
G1 X66.966 Y45.278 E32.53939
G1 X66.173 Y44.868 E32.56909
G1 X65.628 Y44.281 E32.59573
G1 X65.155 Y43.488 E32.62644
G1 X65.017 Y42.657 E32.65446
G1 X65.002 Y40.164 E32.73738
G1 X65.183 Y39.423 E32.76275
G1 X65.593 Y38.63 E32.79244
G0 F4800 X65.916 Y38.875
G1 F2100 X66.419 Y38.409 E32.81524
G1 X67.113 Y37.995 E32.84212
G1 X67.87 Y37.869 E32.86765
G1 X167.247 Y37.859 E36.17294
G1 X167.896 Y38.018 E36.19516
G1 X168.583 Y38.373 E36.22088
G1 X169.049 Y38.876 E36.24369
G1 X169.463 Y39.57 E36.27057
G1 X169.589 Y40.327 E36.29609
G1 X169.598 Y42.706 E36.37522
G1 X169.439 Y43.356 E36.39747
G1 X169.084 Y44.043 E36.42319
G1 X168.581 Y44.509 E36.446
G1 X167.887 Y44.923 E36.47288
G1 X167.13 Y45.049 E36.4984
G1 X156.098 Y45.059 E36.86533
G1 X156.098 Y64.707 E37.51882
G1 X155.939 Y65.356 E37.54105
G1 X155.584 Y66.043 E37.56677
G1 X155.081 Y66.509 E37.58957
G1 X154.387 Y66.923 E37.61645
G1 X153.63 Y67.049 E37.64197
G1 X150.251 Y67.059 E37.75436
G1 X149.601 Y66.9 E37.77662
G1 X148.914 Y66.545 E37.80234
G1 X148.448 Y66.042 E37.82514
G1 X148.034 Y65.348 E37.85202
G1 X147.908 Y64.591 E37.87755
G1 X147.898 Y60.211 E38.02323
G1 X148.057 Y59.562 E38.04545
G1 X148.412 Y58.875 E38.07117
G1 X148.915 Y58.409 E38.09398
G1 X149.539 Y58.037 E38.11814
G1 X149.899 Y57.946 E38.13049
G1 X149.898 Y45.059 E38.55911
G1 X85.102 Y45.059 E40.71424
G1 X85.102 Y57.948 E41.14293
G1 X85.399 Y58.018 E41.15307
G1 X86.085 Y58.373 E41.17876
G1 X86.551 Y58.876 E41.20157
G1 X86.965 Y59.57 E41.22845
G1 X87.091 Y60.327 E41.25397
G1 X87.102 Y64.7 E41.39942
G1 X86.943 Y65.359 E41.42197
G1 X86.588 Y66.043 E41.4476
G1 X86.085 Y66.509 E41.4704
G1 X85.391 Y66.923 E41.49728
G1 X84.634 Y67.049 E41.52281
G1 X81.255 Y67.059 E41.63519
G1 X80.605 Y66.9 E41.65745
G1 X79.918 Y66.545 E41.68317
G1 X79.452 Y66.042 E41.70598
G1 X79.038 Y65.348 E41.73285
G1 X78.912 Y64.591 E41.75838
G1 X78.902 Y45.059 E42.40801
G1 X67.754 Y45.059 E42.7788
G1 X67.105 Y44.9 E42.80102
G1 X66.418 Y44.545 E42.82674
G1 X65.952 Y44.042 E42.84955
G1 X65.538 Y43.348 E42.87643
G1 X65.412 Y42.591 E42.90195
G1 X65.402 Y40.213 E42.98104
G1 X65.561 Y39.562 E43.00333
G1 X65.916 Y38.875 E43.02905
G0 F4800 X66.239 Y39.121
G1 F2100 X66.658 Y38.733 E43.04805
G1 X67.253 Y38.378 E43.07109
G1 X67.936 Y38.264 E43.09412
G1 X167.197 Y38.259 E46.39556
G1 X167.757 Y38.396 E46.41473
G1 X168.337 Y38.696 E46.43645
G1 X168.725 Y39.115 E46.45544
G1 X169.08 Y39.71 E46.47849
G1 X169.194 Y40.393 E46.50152
G1 X169.198 Y42.657 E46.57682
G1 X169.061 Y43.217 E46.59599
G1 X168.761 Y43.797 E46.61771
G1 X168.342 Y44.185 E46.63671
G1 X167.747 Y44.54 E46.65975
G1 X167.064 Y44.654 E46.68278
G1 X155.698 Y44.659 E47.06082
G1 X155.698 Y64.657 E47.72595
G1 X155.561 Y65.217 E47.74513
G1 X155.261 Y65.797 E47.76685
G1 X154.842 Y66.185 E47.78584
G1 X154.247 Y66.54 E47.80888
G1 X153.564 Y66.654 E47.83192
G1 X150.3 Y66.659 E47.94048
G1 X149.74 Y66.522 E47.95965
G1 X149.16 Y66.222 E47.98137
G1 X148.772 Y65.803 E48.00036
G1 X148.417 Y65.208 E48.02341
G1 X148.303 Y64.525 E48.04644
G1 X148.298 Y60.261 E48.18826
G1 X148.435 Y59.701 E48.20744
G1 X148.735 Y59.121 E48.22915
G1 X149.154 Y58.733 E48.24815
G1 X149.744 Y58.381 E48.271
G1 X150.299 Y58.281 E48.28975
G1 X150.298 Y44.659 E48.74282
G1 X84.702 Y44.659 E50.92456
G1 X84.702 Y58.265 E51.37709
G1 X85.258 Y58.395 E51.39608
G1 X85.839 Y58.696 E51.41785
G1 X86.227 Y59.115 E51.43684
G1 X86.582 Y59.71 E51.45989
G1 X86.696 Y60.393 E51.48292
G1 X86.702 Y64.652 E51.62457
G1 X86.565 Y65.219 E51.64397
G1 X86.265 Y65.797 E51.66563
G1 X85.846 Y66.185 E51.68463
G1 X85.251 Y66.54 E51.70767
G1 X84.568 Y66.654 E51.7307
G1 X81.304 Y66.659 E51.83926
G1 X80.744 Y66.522 E51.85844
G1 X80.164 Y66.222 E51.88016
G1 X79.776 Y65.803 E51.89915
G1 X79.421 Y65.208 E51.92219
G1 X79.307 Y64.525 E51.94523
G1 X79.302 Y44.659 E52.60597
G1 X67.804 Y44.659 E52.9884
G1 X67.244 Y44.522 E53.00757
G1 X66.664 Y44.222 E53.02929
G1 X66.276 Y43.803 E53.04828
G1 X65.921 Y43.208 E53.07133
G1 X65.807 Y42.525 E53.09436
G1 X65.802 Y40.262 E53.16963
G1 X65.939 Y39.701 E53.18883
G1 X66.239 Y39.121 E53.21055
G0 F4800 X66.562 Y39.367
G1 F2100 X66.9 Y39.054 E53.22587
G1 X67.391 Y38.761 E53.24489
G1 X68.002 Y38.659 E53.26549
G1 X167.147 Y38.659 E56.56307
G1 X167.618 Y38.774 E56.5792
G1 X168.091 Y39.019 E56.59691
G1 X168.404 Y39.357 E56.61224
G1 X168.697 Y39.848 E56.63125
G1 X168.799 Y40.459 E56.65186
G1 X168.798 Y42.607 E56.7233
G1 X168.683 Y43.078 E56.73942
G1 X168.438 Y43.551 E56.75714
G1 X168.1 Y43.864 E56.77246
G1 X167.609 Y44.157 E56.79148
G1 X166.998 Y44.259 E56.81208
G1 X155.298 Y44.259 E57.20123
G1 X155.298 Y64.607 E57.878
G1 X155.183 Y65.078 E57.89413
G1 X154.938 Y65.551 E57.91185
G1 X154.6 Y65.864 E57.92717
G1 X154.109 Y66.157 E57.94619
G1 X153.498 Y66.259 E57.96679
G1 X150.35 Y66.259 E58.07149
G1 X149.879 Y66.144 E58.08762
G1 X149.406 Y65.899 E58.10534
G1 X149.093 Y65.561 E58.12066
G1 X148.8 Y65.07 E58.13968
G1 X148.698 Y64.459 E58.16028
G1 X148.698 Y60.311 E58.29824
G1 X148.813 Y59.84 E58.31437
G1 X149.058 Y59.367 E58.33208
G1 X149.396 Y59.054 E58.34741
G1 X149.885 Y58.762 E58.36635
G1 X150.427 Y58.665 E58.38466
G1 X150.699 Y58.659 E58.39371
G1 X150.698 Y44.259 E58.87266
G1 X84.302 Y44.259 E61.081
G1 X84.302 Y58.659 E61.55994
G1 X84.649 Y58.659 E61.57148
G1 X85.12 Y58.774 E61.58761
G1 X85.593 Y59.019 E61.60533
G1 X85.906 Y59.357 E61.62065
G1 X86.199 Y59.848 E61.63967
G1 X86.301 Y60.459 E61.66027
G1 X86.302 Y64.604 E61.79813
G1 X86.187 Y65.079 E61.81439
G1 X85.942 Y65.551 E61.83208
G1 X85.604 Y65.864 E61.8474
G1 X85.113 Y66.157 E61.86642
G1 X84.502 Y66.259 E61.88702
G1 X81.354 Y66.259 E61.99172
G1 X80.883 Y66.144 E62.00785
G1 X80.41 Y65.899 E62.02556
G1 X80.097 Y65.561 E62.04089
G1 X79.804 Y65.07 E62.0599
G1 X79.702 Y64.459 E62.08051
G1 X79.702 Y44.259 E62.75236
G1 X67.854 Y44.259 E63.14643
G1 X67.383 Y44.144 E63.16255
G1 X66.91 Y43.899 E63.18027
G1 X66.597 Y43.561 E63.19559
G1 X66.304 Y43.07 E63.21461
G1 X66.202 Y42.459 E63.23521
G1 X66.202 Y40.311 E63.30666
G1 X66.317 Y39.84 E63.32278
G1 X66.562 Y39.367 E63.3405
G0 F4800 X66.885 Y39.613
G1 F2100 X67.142 Y39.375 E63.35215
G1 X67.529 Y39.144 E63.36714
G1 X68.002 Y39.059 E63.38312
G1 X167.097 Y39.059 E66.67904
G1 X167.479 Y39.152 E66.69211
G1 X167.845 Y39.342 E66.70583
G1 X168.083 Y39.599 E66.71748
G1 X168.314 Y39.986 E66.73247
G1 X168.399 Y40.459 E66.74845
G1 X168.398 Y42.557 E66.81823
G1 X168.305 Y42.939 E66.83131
G1 X168.115 Y43.305 E66.84503
G1 X167.858 Y43.543 E66.85668
G1 X167.471 Y43.774 E66.87167
G1 X166.998 Y43.859 E66.88765
G1 X154.898 Y43.859 E67.2901
G1 X154.898 Y64.557 E67.97852
G1 X154.805 Y64.939 E67.99159
G1 X154.615 Y65.305 E68.00531
G1 X154.358 Y65.543 E68.01696
G1 X153.971 Y65.774 E68.03195
G1 X153.498 Y65.859 E68.04793
G1 X150.4 Y65.859 E68.15097
G1 X150.018 Y65.766 E68.16405
G1 X149.652 Y65.576 E68.17776
G1 X149.414 Y65.319 E68.18941
G1 X149.183 Y64.932 E68.20441
G1 X149.098 Y64.459 E68.22039
G1 X149.098 Y60.361 E68.35669
G1 X149.191 Y59.979 E68.36977
G1 X149.381 Y59.613 E68.38348
G1 X149.638 Y59.375 E68.39513
G1 X150.025 Y59.144 E68.41012
G1 X150.498 Y59.059 E68.42611
G1 X151.099 Y59.059 E68.4461
G1 X151.098 Y43.859 E68.95165
G1 X83.902 Y43.859 E71.1866
G1 X83.902 Y59.059 E71.69215
G1 X84.599 Y59.059 E71.71533
G1 X84.981 Y59.152 E71.72841
G1 X85.347 Y59.342 E71.74213
G1 X85.585 Y59.599 E71.75378
G1 X85.816 Y59.986 E71.76877
G1 X85.901 Y60.459 E71.78475
G1 X85.902 Y64.555 E71.92098
G1 X85.809 Y64.939 E71.93413
G1 X85.619 Y65.305 E71.94784
G1 X85.362 Y65.543 E71.95949
G1 X84.975 Y65.774 E71.97448
G1 X84.502 Y65.859 E71.99047
G1 X81.404 Y65.859 E72.09351
G1 X81.022 Y65.766 E72.10658
G1 X80.656 Y65.576 E72.1203
G1 X80.418 Y65.319 E72.13195
G1 X80.187 Y64.932 E72.14694
G1 X80.102 Y64.459 E72.16292
G1 X80.102 Y43.859 E72.84808
G1 X67.904 Y43.859 E73.25379
G1 X67.522 Y43.766 E73.26686
G1 X67.156 Y43.576 E73.28058
G1 X66.918 Y43.319 E73.29223
G1 X66.687 Y42.932 E73.30722
G1 X66.602 Y42.459 E73.32321
G1 X66.602 Y40.361 E73.39298
G1 X66.695 Y39.979 E73.40606
G1 X66.885 Y39.613 E73.41978
G0 F4800 X67.209 Y39.858
G1 F2100 X67.347 Y39.719 E73.42629
G1 X67.674 Y39.524 E73.43895
G1 X68.002 Y39.459 E73.45008
G1 X167.048 Y39.459 E76.74436
G1 X167.337 Y39.529 E76.75425
G1 X167.6 Y39.666 E76.76411
G1 X167.739 Y39.804 E76.77063
G1 X167.934 Y40.131 E76.78329
G1 X167.999 Y40.459 E76.79441
G1 X167.998 Y42.508 E76.86256
G1 X167.928 Y42.797 E76.87245
G1 X167.791 Y43.06 E76.88232
G1 X167.653 Y43.199 E76.88883
G1 X167.326 Y43.394 E76.90149
G1 X166.998 Y43.459 E76.91261
G1 X154.498 Y43.459 E77.32837
G1 X154.498 Y64.508 E78.02846
G1 X154.428 Y64.797 E78.03835
G1 X154.291 Y65.06 E78.04821
G1 X154.153 Y65.199 E78.05473
G1 X153.826 Y65.394 E78.06739
G1 X153.498 Y65.459 E78.07851
G1 X150.449 Y65.459 E78.17992
G1 X150.16 Y65.389 E78.18981
G1 X149.897 Y65.252 E78.19967
G1 X149.758 Y65.114 E78.20619
G1 X149.563 Y64.787 E78.21885
G1 X149.498 Y64.459 E78.22997
G1 X149.498 Y60.41 E78.36464
G1 X149.568 Y60.121 E78.37453
G1 X149.705 Y59.858 E78.3844
G1 X149.843 Y59.719 E78.39091
G1 X150.17 Y59.524 E78.40357
G1 X150.498 Y59.459 E78.4147
G1 X151.499 Y59.459 E78.44799
G1 X151.498 Y43.459 E78.98015
G1 X83.502 Y43.459 E81.24171
