;FLAVOR:Marlin
;TIME:3340
;Filament used: 4.00402m
;Layer height: 0.3
;MINX:98.681
;MINY:100.962
;MINZ:0.2
;MAXX:161.081
;MAXY:161.982
;MAXZ:35.4
;TARGET_MACHINE.NAME:Creality Ender-3
;Generated with Cura_SteamEngine 5.6.0
M140 S55
M105
M190 S55
M104 S218
M105
M109 S218
M82 ;absolute extrusion mode
; Ender 3 Custom Start G-code
G92 E0 ; Reset Extruder
G28 ; Home all axes
G1 Z2.0 F3000 ; Move Z Axis up little to prevent scratching of Heat Bed
G1 X0.1 Y20 Z0.3 F5000.0 ; Move to start position
G1 X0.1 Y200.0 Z0.3 F1500.0 E15 ; Draw the first line
G1 X0.4 Y200.0 Z0.3 F5000.0 ; Move to side a little
G1 X0.4 Y20 Z0.3 F1500.0 E30 ; Draw the second line
G92 E0 ; Reset Extruder
G1 Z2.0 F3000 ; Move Z Axis up little to prevent scratching of Heat Bed
G1 X5 Y20 Z0.3 F5000.0 ; Move over to prevent blob squish
G92 E0
G92 E0
G1 F2700 E-5
;LAYER_COUNT:117
;LAYER:0
M106 S25.5
G1 F300 Z0.6
G0 F4800 X102.467 Y103.365 Z0.6
;TYPE:SKIRT
G1 F300 Z0.2
G1 F2700 E0
G1 F2100 X103.701 Y102.213 E0.05615
G1 X105.313 Y101.251 E0.11859
G1 X106.737 Y101.017 E0.16658
G1 X128.147 Y100.962 E0.87868
G1 X128.777 Y101.119 E0.90028
G1 X128.899 Y101.109 E0.90435
G1 X149.718 Y101.1 E1.59679
G1 X151.228 Y101.471 E1.64851
G1 X152.847 Y102.311 E1.70917
G1 X153.999 Y103.545 E1.76532
G1 X154.961 Y105.157 E1.82776
G1 X155.195 Y106.581 E1.87576
G1 X155.241 Y122.582 E2.40795
G1 X155.549 Y122.582 E2.4182
G1 X157.059 Y122.953 E2.46992
G1 X158.678 Y123.793 E2.53058
G1 X159.83 Y125.027 E2.58673
G1 X160.792 Y126.639 E2.64916
G1 X161.026 Y128.063 E2.69716
G1 X161.081 Y151.45 E3.47502
G1 X160.71 Y152.96 E3.52674
G1 X159.87 Y154.579 E3.5874
G1 X158.627 Y155.74 E3.64397
G1 X157.287 Y156.537 E3.69583
G1 X156.787 Y156.732 E3.71368
G1 X155.982 Y156.853 E3.74075
G1 X155.71 Y157.96 E3.77867
G1 X154.87 Y159.579 E3.83933
G1 X153.63 Y160.737 E3.89576
G1 X152.092 Y161.654 E3.95532
G1 X151.949 Y161.705 E3.96037
G1 X150.414 Y161.942 E4.01203
G1 X144.215 Y161.982 E4.21821
G1 X142.709 Y161.613 E4.26978
G1 X141.084 Y160.771 E4.33065
G1 X139.923 Y159.528 E4.38723
G1 X139.126 Y158.188 E4.43908
G1 X138.931 Y157.688 E4.45693
G1 X138.824 Y156.982 E4.48068
G1 X125.95 Y156.982 E4.90887
G1 X125.71 Y157.96 E4.94237
G1 X124.87 Y159.579 E5.00303
G1 X123.63 Y160.737 E5.05946
G1 X122.092 Y161.654 E5.11902
G1 X121.949 Y161.705 E5.12407
G1 X120.414 Y161.942 E5.17573
G1 X114.215 Y161.982 E5.38191
G1 X112.709 Y161.613 E5.43348
G1 X111.084 Y160.771 E5.49435
G1 X109.923 Y159.528 E5.55093
G1 X109.126 Y158.188 E5.60278
G1 X108.931 Y157.688 E5.62063
G1 X108.824 Y156.982 E5.64438
G1 X104.213 Y156.982 E5.79774
G1 X102.703 Y156.611 E5.84946
G1 X101.084 Y155.771 E5.91012
G1 X99.932 Y154.537 E5.96627
G1 X98.97 Y152.925 E6.02871
G1 X98.736 Y151.501 E6.07671
G1 X98.681 Y128.114 E6.85456
G1 X99.052 Y126.604 E6.90628
G1 X99.892 Y124.985 E6.96695
G1 X101.101 Y123.856 E7.02196
G1 X101.256 Y123.752 E7.02817
G1 X101.256 Y106.494 E7.60218
G1 X101.627 Y104.984 E7.65389
G1 X102.467 Y103.365 E7.71456
G0 F4800 X102.79 Y103.61
G1 F2100 X103.943 Y102.534 E7.76701
G1 X105.451 Y101.634 E7.82542
G1 X106.802 Y101.412 E7.87096
G1 X128.099 Y101.362 E8.5793
G1 X128.745 Y101.523 E8.60144
G1 X128.899 Y101.509 E8.60659
G1 X149.671 Y101.5 E9.29747
G1 X151.086 Y101.848 E9.34593
G1 X152.602 Y102.634 E9.40273
G1 X153.678 Y103.787 E9.45518
G1 X154.578 Y105.295 E9.51359
G1 X154.8 Y106.646 E9.55913
G1 X154.842 Y122.982 E10.10247
G1 X155.502 Y122.982 E10.12442
G1 X156.917 Y123.33 E10.17289
G1 X158.433 Y124.116 E10.22968
G1 X159.509 Y125.269 E10.28214
G1 X160.409 Y126.777 E10.34055
G1 X160.631 Y128.128 E10.38608
G1 X160.681 Y151.403 E11.16021
G1 X160.333 Y152.818 E11.20868
G1 X159.547 Y154.334 E11.26548
G1 X158.388 Y155.416 E11.31821
G1 X157.082 Y156.193 E11.36876
G1 X156.687 Y156.342 E11.3828
G1 X155.658 Y156.497 E11.41741
G1 X155.334 Y157.817 E11.46262
G1 X154.547 Y159.334 E11.51946
G1 X153.391 Y160.413 E11.57205
G1 X151.887 Y161.31 E11.6303
G1 X150.411 Y161.542 E11.67999
G1 X144.264 Y161.582 E11.88445
G1 X142.848 Y161.235 E11.93293
G1 X141.329 Y160.448 E11.98984
G1 X140.247 Y159.289 E12.04257
G1 X139.47 Y157.983 E12.09312
G1 X139.321 Y157.588 E12.10716
G1 X139.169 Y156.582 E12.141
G1 X125.637 Y156.582 E12.59107
G1 X125.334 Y157.817 E12.63337
G1 X124.547 Y159.334 E12.69021
G1 X123.391 Y160.413 E12.7428
G1 X121.887 Y161.31 E12.80105
G1 X120.411 Y161.542 E12.85074
G1 X114.264 Y161.582 E13.0552
G1 X112.848 Y161.235 E13.10369
G1 X111.329 Y160.448 E13.16059
G1 X110.247 Y159.289 E13.21332
G1 X109.47 Y157.983 E13.26387
G1 X109.321 Y157.588 E13.27791
G1 X109.169 Y156.582 E13.31175
G1 X104.26 Y156.582 E13.47502
G1 X102.845 Y156.234 E13.52349
G1 X101.329 Y155.448 E13.58028
G1 X100.253 Y154.295 E13.63274
G1 X99.353 Y152.787 E13.69115
G1 X99.131 Y151.436 E13.73668
G1 X99.081 Y128.161 E14.51082
G1 X99.429 Y126.746 E14.55928
G1 X100.215 Y125.23 E14.61608
G1 X101.374 Y124.148 E14.66881
G1 X101.656 Y123.98 E14.67973
G1 X101.656 Y106.541 E15.25976
G1 X102.004 Y105.126 E15.30822
G1 X102.79 Y103.61 E15.36502
G0 F4800 X103.113 Y103.855
G1 F2100 X104.185 Y102.855 E15.41378
G1 X105.589 Y102.017 E15.46816
G1 X106.867 Y101.807 E15.51124
G1 X128.051 Y101.762 E16.21582
G1 X128.717 Y101.928 E16.23865
G1 X128.899 Y101.909 E16.24474
G1 X149.625 Y101.9 E16.93409
G1 X150.943 Y102.224 E16.97923
G1 X152.357 Y102.957 E17.0322
G1 X153.357 Y104.029 E17.08096
G1 X154.195 Y105.433 E17.13534
G1 X154.405 Y106.711 E17.17842
G1 X154.443 Y123.382 E17.7329
G1 X155.456 Y123.382 E17.76659
G1 X156.774 Y123.706 E17.81173
G1 X158.188 Y124.439 E17.86471
G1 X159.188 Y125.511 E17.91347
G1 X160.026 Y126.915 E17.96785
G1 X160.236 Y128.193 E18.01093
G1 X160.281 Y151.357 E18.78137
G1 X159.957 Y152.675 E18.82651
G1 X159.224 Y154.089 E18.87948
G1 X158.149 Y155.092 E18.92838
G1 X156.877 Y155.849 E18.97761
G1 X156.588 Y155.952 E18.98782
G1 X155.281 Y156.149 E19.03178
G1 X155.269 Y156.406 E19.04034
G1 X154.957 Y157.675 E19.0838
G1 X154.224 Y159.089 E19.13678
G1 X153.152 Y160.089 E19.18554
G1 X151.747 Y160.927 E19.23995
G1 X150.408 Y161.142 E19.28505
G1 X144.313 Y161.182 E19.48778
G1 X142.987 Y160.857 E19.53319
G1 X141.574 Y160.125 E19.58611
G1 X140.571 Y159.05 E19.63501
G1 X139.814 Y157.778 E19.68425
G1 X139.711 Y157.489 E19.69445
G1 X139.514 Y156.182 E19.73841
G1 X125.281 Y156.182 E20.2118
G1 X125.269 Y156.406 E20.21927
G1 X124.957 Y157.675 E20.26273
G1 X124.224 Y159.089 E20.3157
G1 X123.152 Y160.089 E20.36446
G1 X121.747 Y160.927 E20.41887
G1 X120.408 Y161.142 E20.46398
G1 X114.313 Y161.182 E20.6667
G1 X112.987 Y160.857 E20.71211
G1 X111.574 Y160.125 E20.76504
G1 X110.571 Y159.05 E20.81394
G1 X109.814 Y157.778 E20.86317
G1 X109.711 Y157.489 E20.87338
G1 X109.514 Y156.182 E20.91734
G1 X104.306 Y156.182 E21.09056
G1 X102.988 Y155.858 E21.1357
G1 X101.574 Y155.125 E21.18867
G1 X100.574 Y154.053 E21.23743
G1 X99.736 Y152.649 E21.29182
G1 X99.526 Y151.371 E21.33489
G1 X99.481 Y128.207 E22.10533
G1 X99.805 Y126.889 E22.15047
G1 X100.538 Y125.475 E22.20345
G1 X101.613 Y124.472 E22.25235
G1 X102.056 Y124.208 E22.2695
G1 X102.056 Y106.587 E22.85558
G1 X102.38 Y105.269 E22.90072
G1 X103.113 Y103.855 E22.95369
G0 F4800 X103.435 Y104.102
G1 F2100 X104.43 Y103.174 E22.99895
G1 X105.727 Y102.4 E23.04918
G1 X106.932 Y102.202 E23.0898
G1 X128.003 Y102.162 E23.79062
G1 X128.69 Y102.334 E23.81418
G1 X128.942 Y102.307 E23.82261
G1 X149.579 Y102.3 E24.509
G1 X150.8 Y102.6 E24.55082
G1 X152.11 Y103.279 E24.59989
G1 X153.038 Y104.274 E24.64515
G1 X153.812 Y105.571 E24.69538
G1 X154.01 Y106.776 E24.736
G1 X154.044 Y123.782 E25.30162
G1 X155.41 Y123.782 E25.34705
G1 X156.631 Y124.082 E25.38887
G1 X157.941 Y124.761 E25.43795
G1 X158.869 Y125.756 E25.4832
G1 X159.643 Y127.053 E25.53344
G1 X159.841 Y128.258 E25.57405
G1 X159.881 Y151.311 E26.3408
G1 X159.581 Y152.532 E26.38262
G1 X158.902 Y153.842 E26.43169
G1 X157.907 Y154.77 E26.47695
G1 X156.672 Y155.505 E26.52475
G1 X156.528 Y155.556 E26.52983
G1 X155.159 Y155.762 E26.57588
G1 X154.881 Y155.764 E26.58512
G1 X154.881 Y156.311 E26.60331
G1 X154.581 Y157.532 E26.64513
G1 X153.902 Y158.842 E26.69421
G1 X152.907 Y159.77 E26.73946
G1 X151.61 Y160.544 E26.7897
G1 X150.405 Y160.742 E26.83031
G1 X144.358 Y160.782 E27.03144
G1 X143.13 Y160.481 E27.0735
G1 X141.821 Y159.803 E27.12253
G1 X140.893 Y158.808 E27.16778
G1 X140.158 Y157.573 E27.21558
G1 X140.107 Y157.429 E27.22066
G1 X139.901 Y156.06 E27.26671
G1 X139.899 Y155.782 E27.27595
G1 X124.881 Y155.782 E27.77545
G1 X124.881 Y156.311 E27.79305
G1 X124.581 Y157.532 E27.83487
G1 X123.902 Y158.842 E27.88394
G1 X122.907 Y159.77 E27.9292
G1 X121.61 Y160.544 E27.97943
G1 X120.405 Y160.742 E28.02005
G1 X114.358 Y160.782 E28.22118
G1 X113.13 Y160.481 E28.26323
G1 X111.821 Y159.803 E28.31226
G1 X110.893 Y158.808 E28.35751
G1 X110.158 Y157.573 E28.40531
G1 X110.107 Y157.429 E28.41039
G1 X109.901 Y156.06 E28.45644
G1 X109.899 Y155.782 E28.46569
G1 X104.352 Y155.782 E28.65018
G1 X103.131 Y155.482 E28.692
G1 X101.821 Y154.803 E28.74108
G1 X100.893 Y153.808 E28.78633
G1 X100.119 Y152.511 E28.83656
G1 X99.921 Y151.306 E28.87718
G1 X99.881 Y128.253 E29.64393
G1 X100.181 Y127.032 E29.68575
G1 X100.86 Y125.722 E29.73482
G1 X101.855 Y124.794 E29.78008
G1 X102.456 Y124.436 E29.80334
G1 X102.456 Y106.633 E30.39547
G1 X102.756 Y105.412 E30.43729
G1 X103.435 Y104.102 E30.48637
G0 F4800 X103.757 Y104.349
G1 F2100 X104.672 Y103.496 E30.52797
G1 X105.867 Y102.783 E30.57426
G1 X106.997 Y102.597 E30.61235
G1 X127.954 Y102.562 E31.30938
G1 X128.663 Y102.74 E31.33369
G1 X128.985 Y102.705 E31.34447
G1 X149.533 Y102.7 E32.02789
G1 X150.657 Y102.976 E32.06639
G1 X151.863 Y103.601 E32.11157
G1 X152.716 Y104.516 E32.15317
G1 X153.429 Y105.711 E32.19946
G1 X153.615 Y106.841 E32.23755
G1 X153.645 Y124.182 E32.81431
G1 X155.364 Y124.182 E32.87149
G1 X156.488 Y124.458 E32.90998
G1 X157.694 Y125.083 E32.95516
G1 X158.547 Y125.998 E32.99677
G1 X159.26 Y127.193 E33.04305
G1 X159.446 Y128.323 E33.08114
G1 X159.481 Y151.265 E33.84419
G1 X159.205 Y152.389 E33.88269
G1 X158.58 Y153.595 E33.92787
G1 X157.665 Y154.448 E33.96947
G1 X156.467 Y155.161 E34.01584
G1 X155.155 Y155.362 E34.05999
G1 X154.481 Y155.368 E34.08241
G1 X154.481 Y156.265 E34.11224
G1 X154.205 Y157.389 E34.15073
G1 X153.58 Y158.595 E34.19591
G1 X152.665 Y159.448 E34.23752
G1 X151.47 Y160.161 E34.2838
G1 X150.34 Y160.347 E34.32189
G1 X144.403 Y160.382 E34.51936
G1 X143.273 Y160.105 E34.55806
G1 X142.068 Y159.481 E34.60319
G1 X141.215 Y158.566 E34.6448
G1 X140.502 Y157.368 E34.69117
G1 X140.301 Y156.056 E34.73531
G1 X140.295 Y155.382 E34.75773
G1 X124.481 Y155.382 E35.28371
G1 X124.481 Y156.265 E35.31307
G1 X124.205 Y157.389 E35.35157
G1 X123.58 Y158.595 E35.39675
G1 X122.665 Y159.448 E35.43835
G1 X121.47 Y160.161 E35.48464
G1 X120.34 Y160.347 E35.52273
G1 X114.403 Y160.382 E35.7202
G1 X113.273 Y160.105 E35.75889
G1 X112.068 Y159.481 E35.80403
G1 X111.215 Y158.566 E35.84563
G1 X110.502 Y157.368 E35.892
G1 X110.301 Y156.056 E35.93615
G1 X110.295 Y155.382 E35.95857
G1 X104.398 Y155.382 E36.1547
G1 X103.274 Y155.106 E36.1932
G1 X102.068 Y154.481 E36.23837
G1 X101.215 Y153.566 E36.27998
G1 X100.502 Y152.371 E36.32626
G1 X100.316 Y151.241 E36.36435
G1 X100.281 Y128.299 E37.12741
G1 X100.557 Y127.175 E37.1659
G1 X101.182 Y125.969 E37.21108
G1 X102.097 Y125.116 E37.25269
G1 X102.856 Y124.664 E37.28207
G1 X102.856 Y106.679 E37.88025
G1 X103.132 Y105.555 E37.91875
G1 X103.757 Y104.349 E37.96393
G0 F4800 X104.079 Y104.596
G1 F2100 X104.914 Y103.818 E38.00188
G1 X106.007 Y103.166 E38.04421
G1 X107.062 Y102.992 E38.07978
G1 X127.904 Y102.962 E38.77299
G1 X128.635 Y103.146 E38.79806
G1 X128.985 Y103.105 E38.80978
G1 X149.486 Y103.1 E39.49164
G1 X150.515 Y103.353 E39.52689
G1 X151.616 Y103.923 E39.56812
G1 X152.394 Y104.758 E39.60608
G1 X153.046 Y105.851 E39.64841
G1 X153.22 Y106.906 E39.68398
G1 X153.246 Y124.582 E40.27188
G1 X155.317 Y124.582 E40.34077
G1 X156.346 Y124.835 E40.37601
G1 X157.447 Y125.405 E40.41724
G1 X158.225 Y126.24 E40.4552
G1 X158.877 Y127.333 E40.49753
G1 X159.051 Y128.388 E40.5331
G1 X159.081 Y151.218 E41.29243
G1 X158.828 Y152.247 E41.32767
G1 X158.258 Y153.348 E41.36891
G1 X157.423 Y154.126 E41.40687
G1 X156.328 Y154.778 E41.44925
G1 X155.152 Y154.962 E41.48884
G1 X154.081 Y154.971 E41.52447
G1 X154.081 Y156.218 E41.56594
G1 X153.828 Y157.247 E41.60118
G1 X153.258 Y158.348 E41.64242
G1 X152.423 Y159.126 E41.68038
G1 X151.33 Y159.778 E41.72271
G1 X150.275 Y159.952 E41.75827
G1 X144.448 Y159.982 E41.95208
G1 X143.416 Y159.729 E41.98742
G1 X142.315 Y159.159 E42.02866
G1 X141.537 Y158.324 E42.06662
G1 X140.885 Y157.229 E42.10901
G1 X140.701 Y156.053 E42.1486
G1 X140.692 Y154.982 E42.18422
G1 X124.081 Y154.982 E42.7367
G1 X124.081 Y156.218 E42.77781
G1 X123.828 Y157.247 E42.81306
G1 X123.258 Y158.348 E42.85429
G1 X122.423 Y159.126 E42.89225
G1 X121.33 Y159.778 E42.93458
G1 X120.275 Y159.952 E42.97014
G1 X114.448 Y159.982 E43.16395
G1 X113.416 Y159.729 E43.19929
G1 X112.315 Y159.159 E43.24053
G1 X111.537 Y158.324 E43.27849
G1 X110.885 Y157.229 E43.32088
G1 X110.701 Y156.053 E43.36047
G1 X110.692 Y154.982 E43.39609
G1 X104.445 Y154.982 E43.60387
G1 X103.416 Y154.729 E43.63911
G1 X102.315 Y154.159 E43.68034
G1 X101.537 Y153.324 E43.7183
G1 X100.885 Y152.231 E43.76063
G1 X100.711 Y151.176 E43.7962
G1 X100.681 Y128.346 E44.55553
G1 X100.934 Y127.317 E44.59077
G1 X101.504 Y126.216 E44.63201
G1 X102.339 Y125.438 E44.66997
G1 X103.256 Y124.892 E44.70546
G1 X103.256 Y106.726 E45.30967
G1 X103.509 Y105.697 E45.34491
G1 X104.079 Y104.596 E45.38615
G0 F4800 X104.401 Y104.843
G1 F2100 X105.156 Y104.14 E45.42046
G1 X106.147 Y103.549 E45.45883
G1 X107.127 Y103.387 E45.49187
G1 X127.855 Y103.362 E46.18129
G1 X128.611 Y103.552 E46.20722
G1 X128.985 Y103.505 E46.21975
G1 X149.44 Y103.5 E46.90009
G1 X150.372 Y103.729 E46.93201
G1 X151.369 Y104.245 E46.96935
G1 X152.072 Y105 E47.00366
G1 X152.663 Y105.991 E47.04204
G1 X152.825 Y106.971 E47.07507
G1 X152.846 Y124.982 E47.67412
G1 X155.271 Y124.982 E47.75478
G1 X156.203 Y125.211 E47.7867
G1 X157.2 Y125.727 E47.82404
G1 X157.903 Y126.482 E47.85835
G1 X158.494 Y127.473 E47.89673
G1 X158.656 Y128.453 E47.92976
G1 X158.681 Y151.172 E48.6854
G1 X158.452 Y152.104 E48.71732
G1 X157.936 Y153.101 E48.75466
G1 X157.181 Y153.804 E48.78897
G1 X156.189 Y154.395 E48.82738
G1 X155.148 Y154.562 E48.86244
G1 X153.681 Y154.575 E48.91124
G1 X153.681 Y156.172 E48.96435
G1 X153.452 Y157.104 E48.99627
G1 X152.936 Y158.101 E49.03361
G1 X152.181 Y158.804 E49.06792
G1 X151.19 Y159.395 E49.1063
G1 X150.21 Y159.557 E49.13934
G1 X144.493 Y159.582 E49.32949
G1 X143.559 Y159.353 E49.36147
G1 X142.562 Y158.837 E49.39881
G1 X141.859 Y158.082 E49.43312
G1 X141.268 Y157.09 E49.47153
G1 X141.101 Y156.049 E49.5066
G1 X141.088 Y154.582 E49.55539
G1 X123.681 Y154.582 E50.13435
G1 X123.681 Y156.172 E50.18723
G1 X123.452 Y157.104 E50.21915
G1 X122.936 Y158.101 E50.25649
G1 X122.181 Y158.804 E50.2908
G1 X121.19 Y159.395 E50.32918
G1 X120.21 Y159.557 E50.36222
G1 X114.493 Y159.582 E50.55237
G1 X113.559 Y159.353 E50.58435
G1 X112.562 Y158.837 E50.62169
G1 X111.859 Y158.082 E50.656
G1 X111.268 Y157.09 E50.69441
G1 X111.101 Y156.049 E50.72948
G1 X111.088 Y154.582 E50.77827
G1 X104.491 Y154.582 E50.99769
G1 X103.559 Y154.353 E51.02961
G1 X102.562 Y153.837 E51.06695
G1 X101.859 Y153.082 E51.10126
G1 X101.268 Y152.091 E51.13963
G1 X101.106 Y151.111 E51.17267
G1 X101.081 Y128.392 E51.92831
G1 X101.31 Y127.46 E51.96023
G1 X101.826 Y126.463 E51.99757
G1 X102.581 Y125.76 E52.03188
G1 X103.506 Y125.209 E52.06769
G1 X103.656 Y125.157 E52.07297
G1 X103.656 Y106.772 E52.68446
G1 X103.885 Y105.84 E52.71638
G1 X104.401 Y104.843 E52.75372
G0 F4800 X104.724 Y105.088
G1 F2100 X105.395 Y104.464 E52.78419
G1 X106.287 Y103.932 E52.81874
G1 X107.192 Y103.782 E52.84925
G1 X127.804 Y103.762 E53.53481
G1 X128.456 Y103.921 E53.55713
G1 X128.567 Y103.961 E53.56105
G1 X128.985 Y103.905 E53.57508
G1 X149.394 Y103.9 E54.25389
G1 X150.229 Y104.105 E54.28248
G1 X151.124 Y104.568 E54.316
G1 X151.748 Y105.239 E54.34647
G1 X152.28 Y106.131 E54.38102
G1 X152.43 Y107.036 E54.41153
G1 X152.446 Y125.382 E55.02172
